core/profiles/src/main/assets/luts/agfa_vista_200.cube
# Source: RawTherapee Film Simulation Collection (HaldCLUT.zip)
# Converted from: HaldCLUT/Color/Agfa/Agfa Vista 200.png
TITLE "agfa_vista_200"
LUT_3D_SIZE 5
DOMAIN_MIN 0.0 0.0 0.0
DOMAIN_MAX 1.0 1.0 1.0
0.00000000 0.00000000 0.00000000
0.14509804 0.00000000 0.00000000
0.48235294 0.00000000 0.00000000
0.78823529 0.00000000 0.00000000
1.00000000 0.00000000 0.00000000
0.07843137 0.20392157 0.04705882
0.19215686 0.19215686 0.03137255
0.52941176 0.15294118 0.00000000
0.81176471 0.08627451 0.00000000
1.00000000 0.00784314 0.00000000
0.01176471 0.58039216 0.12156863
0.26274510 0.57647059 0.10980392
0.62352941 0.55686275 0.07843137
0.87843137 0.52549020 0.04705882
1.00000000 0.44705882 0.01176471
0.33333333 0.82352941 0.18431373
0.47058824 0.82352941 0.17254902
0.70980392 0.81568627 0.13725490
0.92156863 0.80392157 0.09019608
1.00000000 0.77647059 0.07058824
0.64705882 0.98823529 0.28235294
0.69803922 0.98823529 0.27843137
0.82352941 0.98823529 0.26274510
0.98431373 0.98431373 0.23921569
1.00000000 0.98039216 0.18823529
0.00000000 0.00000000 0.09411765
0.10980392 0.00000000 0.07450980
0.45882353 0.00000000 0.02745098
0.76862745 0.00000000 0.00000000
1.00000000 0.00000000 0.00000000
0.05490196 0.17254902 0.17254902
0.16078431 0.15686275 0.15686275
0.50588235 0.12156863 0.11372549
0.78431373 0.06274510 0.06274510
0.99607843 0.00000000 0.01176471
0.00000000 0.57254902 0.28627451
0.20000000 0.56862745 0.27058824
0.58823529 0.54901961 0.23529412
0.84705882 0.51372549 0.20000000
1.00000000 0.42745098 0.15686275
0.24705882 0.82745098 0.38431373
0.41568627 0.82352941 0.37647059
0.67058824 0.81568627 0.35294118
0.88627451 0.80392157 0.32941176
1.00000000 0.77647059 0.29411765
0.60000000 0.99215686 0.46666667
0.65098039 0.99215686 0.46274510
0.78039216 0.99215686 0.45098039
0.94901961 0.98823529 0.43529412
1.00000000 0.98431373 0.40000000
0.00000000 0.00000000 0.32549020
0.05098039 0.00000000 0.31372549
0.41176471 0.00000000 0.27450980
0.72549020 0.00000000 0.23529412
0.95686275 0.00000000 0.20000000
0.00392157 0.12549020 0.43137255
0.09019608 0.10980392 0.42352941
0.43921569 0.07450980 0.38431373
0.72549020 0.02352941 0.34509804
0.94117647 0.00000000 0.30196078
0.00000000 0.55294118 0.56862745
0.03529412 0.54509804 0.55686275
0.52156863 0.52156863 0.52156863
0.78823529 0.48235294 0.49019608
1.00000000 0.37647059 0.45098039
0.04313725 0.82352941 0.65098039
0.29411765 0.81960784 0.64313725
0.59607843 0.81176471 0.62352941
0.82745098 0.80000000 0.60000000
1.00000000 0.76862745 0.57254902
0.51764706 1.00000000 0.69803922
0.57647059 1.00000000 0.69411765
0.71764706 1.00000000 0.68235294
0.89411765 0.99607843 0.66666667
1.00000000 0.99215686 0.64705882
0.00000000 0.00000000 0.58823529
0.00000000 0.00000000 0.58039216
0.34901961 0.00000000 0.54117647
0.67450980 0.00000000 0.50196078
0.90980392 0.00000000 0.47450980
0.00000000 0.04705882 0.66274510
0.01176471 0.03529412 0.65098039
0.36862745 0.01176471 0.61176471
0.66666667 0.00000000 0.56862745
0.89803922 0.00000000 0.54117647
0.00000000 0.49019608 0.76862745
0.00000000 0.47843137 0.75294118
0.46666667 0.45098039 0.71764706
0.74117647 0.39607843 0.68235294
0.95294118 0.25098039 0.63921569
0.00000000 0.80784314 0.83529412
0.14117647 0.80392157 0.82745098
0.53725490 0.79607843 0.80392157
0.78039216 0.78039216 0.78039216
0.99607843 0.74509804 0.75686275
0.42745098 1.00000000 0.87843137
0.49803922 1.00000000 0.87450980
0.65882353 1.00000000 0.86666667
0.84705882 1.00000000 0.85098039
1.00000000 0.99607843 0.83137255
0.00000000 0.00000000 0.78039216
0.00000000 0.00000000 0.77254902
0.28235294 0.00000000 0.73333333
0.62745098 0.00000000 0.69411765
0.87450980 0.00000000 0.66274510
0.00000000 0.00000000 0.83137255
0.00000000 0.00000000 0.82352941
0.28627451 0.00000000 0.78431373
0.61960784 0.00000000 0.74901961
0.86274510 0.00000000 0.72156863
0.00000000 0.29803922 0.91764706
0.02745098 0.28235294 0.90588235
0.40000000 0.23137255 0.85882353
0.67058824 0.14117647 0.81960784
0.88235294 0.01568627 0.77647059
0.00000000 0.75686275 0.99607843
0.00000000 0.75294118 0.98823529
0.46274510 0.74117647 0.96078431
0.73725490 0.71764706 0.93333333
0.96470588 0.66274510 0.90588235
0.20392157 1.00000000 1.00000000
0.34509804 1.00000000 1.00000000
0.56470588 1.00000000 1.00000000
0.78823529 1.00000000 1.00000000
1.00000000 1.00000000 1.00000000
