core/profiles/src/main/assets/luts/agfa_vista_200.cube
# Source: RawTherapee Film Simulation Collection (HaldCLUT.zip)
# Converted from: HaldCLUT/Color/Agfa/Agfa Vista 200.png
TITLE "agfa_vista_200"
LUT_3D_SIZE 7
DOMAIN_MIN 0.0 0.0 0.0
DOMAIN_MAX 1.0 1.0 1.0
0.00000000 0.00000000 0.00000000
0.07843137 0.00000000 0.00000000
0.23921569 0.00000000 0.00000000
0.48235294 0.00000000 0.00000000
0.70196078 0.00000000 0.00000000
0.86666667 0.00000000 0.00000000
1.00000000 0.00000000 0.00000000
0.04313725 0.10588235 0.01960784
0.09803922 0.09803922 0.01176471
0.27058824 0.08235294 0.00392157
0.50588235 0.05882353 0.00000000
0.71372549 0.02745098 0.00000000
0.87058824 0.00392157 0.00000000
1.00000000 0.00000000 0.00000000
0.04313725 0.33333333 0.07843137
0.09411765 0.32549020 0.07450980
0.32549020 0.31372549 0.05098039
0.56078431 0.28627451 0.01960784
0.75686275 0.24705882 0.00392157
0.90980392 0.18431373 0.00000000
1.00000000 0.08627451 0.00000000
0.01176471 0.58039216 0.12156863
0.12941176 0.57647059 0.11764706
0.38431373 0.57254902 0.10196078
0.62352941 0.55686275 0.07843137
0.80000000 0.53725490 0.05882353
0.95294118 0.50588235 0.03529412
1.00000000 0.44705882 0.01176471
0.20392157 0.74901961 0.15294118
0.30980392 0.74901961 0.14509804
0.48627451 0.74509804 0.12156863
0.67843137 0.73725490 0.10196078
0.83137255 0.72941176 0.09411765
0.98039216 0.71372549 0.07843137
1.00000000 0.68627451 0.06274510
0.45098039 0.89019608 0.22352941
0.50196078 0.89019608 0.21960784
0.61176471 0.89019608 0.20784314
0.74117647 0.88627451 0.19215686
0.86666667 0.88235294 0.16862745
1.00000000 0.87450980 0.14117647
1.00000000 0.85882353 0.09019608
0.64705882 0.98823529 0.28235294
0.67058824 0.98823529 0.27843137
0.73333333 0.98823529 0.27450980
0.82352941 0.98823529 0.26274510
0.92549020 0.98431373 0.25098039
1.00000000 0.98431373 0.22745098
1.00000000 0.98039216 0.18823529
0.00000000 0.00000000 0.04313725
0.05490196 0.00000000 0.03137255
0.21960784 0.00000000 0.01568627
0.46666667 0.00000000 0.00000000
0.69019608 0.00000000 0.00000000
0.85490196 0.00000000 0.00000000
1.00000000 0.00000000 0.00000000
0.02352941 0.08627451 0.08627451
0.07843137 0.07843137 0.07843137
0.25490196 0.06274510 0.05490196
0.49411765 0.04313725 0.02352941
0.70196078 0.01568627 0.00392157
0.85882353 0.00000000 0.00000000
1.00000000 0.00000000 0.00000000
0.03529412 0.31764706 0.14509804
0.09411765 0.31372549 0.14117647
0.30980392 0.29803922 0.12156863
0.54901961 0.27058824 0.09019608
0.74509804 0.22745098 0.05490196
0.89411765 0.16470588 0.02352941
1.00000000 0.07058824 0.00000000
0.00000000 0.57647059 0.20392157
0.10196078 0.57254902 0.19607843
0.36470588 0.56862745 0.17647059
0.60784314 0.55294118 0.14901961
0.78431373 0.53333333 0.12941176
0.93725490 0.50196078 0.10980392
1.00000000 0.43529412 0.08235294
0.14509804 0.74901961 0.26274510
0.26666667 0.74901961 0.25882353
0.46274510 0.74509804 0.24313725
0.65882353 0.73725490 0.21960784
0.81176471 0.72941176 0.19607843
0.96078431 0.71372549 0.17254902
1.00000000 0.68627451 0.13725490
0.41568627 0.89411765 0.33333333
0.47058824 0.89411765 0.32941176
0.58823529 0.89019608 0.31764706
0.71764706 0.88627451 0.30588235
0.84705882 0.88235294 0.29019608
0.98431373 0.87450980 0.27058824
1.00000000 0.86274510 0.24313725
0.62352941 0.99215686 0.38431373
0.64705882 0.99215686 0.38039216
0.70980392 0.99215686 0.37647059
0.80000000 0.98823529 0.36862745
0.90588235 0.98823529 0.35686275
1.00000000 0.98431373 0.34117647
1.00000000 0.98039216 0.31372549
0.00000000 0.00000000 0.15294118
0.03137255 0.00000000 0.14117647
0.19607843 0.00000000 0.12549020
0.45098039 0.00000000 0.09411765
0.67058824 0.00000000 0.05882353
0.83921569 0.00000000 0.03137255
0.98823529 0.00000000 0.01176471
0.00392157 0.07058824 0.21568627
0.04705882 0.06274510 0.20784314
0.21960784 0.04705882 0.19215686
0.46666667 0.02745098 0.16078431
0.67450980 0.00784314 0.12549020
0.83137255 0.00000000 0.09803922
0.98039216 0.00000000 0.06274510
0.03921569 0.29411765 0.29411765
0.09019608 0.29019608 0.29019608
0.27450980 0.27058824 0.27058824
0.51764706 0.24313725 0.24313725
0.71372549 0.20000000 0.21176471
0.86274510 0.13725490 0.18039216
0.99607843 0.04705882 0.14509804
0.00000000 0.56862745 0.38039216
0.02352941 0.56470588 0.37254902
0.31372549 0.56078431 0.35686275
0.56862745 0.54509804 0.33333333
0.75294118 0.52156863 0.30980392
0.90588235 0.48627451 0.28627451
1.00000000 0.41568627 0.25490196
0.03529412 0.74901961 0.44313725
0.16470588 0.74509804 0.43921569
0.40784314 0.74117647 0.42745098
0.61960784 0.73333333 0.41176471
0.77647059 0.72549020 0.39607843
0.92549020 0.70980392 0.37647059
1.00000000 0.68235294 0.35294118
0.34117647 0.89411765 0.50980392
0.40784314 0.89411765 0.50588235
0.53333333 0.89411765 0.49803922
0.67450980 0.89019608 0.48627451
0.80784314 0.88627451 0.47450980
0.94901961 0.87843137 0.45882353
1.00000000 0.86274510 0.43921569
0.57254902 0.99607843 0.54901961
0.60000000 0.99607843 0.54901961
0.66274510 0.99607843 0.54509804
0.76078431 0.99215686 0.53725490
0.87058824 0.99215686 0.52549020
0.98823529 0.98823529 0.51372549
1.00000000 0.98431373 0.49411765
0.00000000 0.00000000 0.32549020
0.00392157 0.00000000 0.31764706
0.15294118 0.00000000 0.30588235
0.41176471 0.00000000 0.27450980
0.63921569 0.00000000 0.24705882
0.80784314 0.00000000 0.22745098
0.95686275 0.00000000 0.20000000
0.00000000 0.04705882 0.39607843
0.01176471 0.03921569 0.39215686
0.16862745 0.02745098 0.37647059
0.41960784 0.01176471 0.34509804
0.63529412 0.00000000 0.31764706
0.79607843 0.00000000 0.29411765
0.94509804 0.00000000 0.27058824
0.01960784 0.25490196 0.47843137
0.05882353 0.24705882 0.47450980
0.21960784 0.22745098 0.45490196
0.47058824 0.19607843 0.42745098
0.66666667 0.15294118 0.40000000
0.81960784 0.09019608 0.37254902
0.95294118 0.01568627 0.34509804
0.00000000 0.55294118 0.56862745
0.00000000 0.54901961 0.56078431
0.23921569 0.54117647 0.54509804
0.52156863 0.52156863 0.52156863
0.70980392 0.49803922 0.50196078
0.86666667 0.45882353 0.48235294
1.00000000 0.37647059 0.45098039
0.00000000 0.74117647 0.62745098
0.03137255 0.74117647 0.62352941
0.33725490 0.73725490 0.60784314
0.56862745 0.72941176 0.59215686
0.73333333 0.71764706 0.57647059
0.89019608 0.70196078 0.55686275
1.00000000 0.67058824 0.53725490
0.23921569 0.89411765 0.67058824
0.32549020 0.89411765 0.66666667
0.47450980 0.89411765 0.65882353
0.62745098 0.89019608 0.64705882
0.76862745 0.88235294 0.63529412
0.91372549 0.87450980 0.61960784
1.00000000 0.85882353 0.60392157
0.51764706 1.00000000 0.69803922
0.54509804 1.00000000 0.69803922
0.61568627 1.00000000 0.69019608
0.71764706 1.00000000 0.68235294
0.83529412 0.99607843 0.67450980
0.95686275 0.99607843 0.66274510
1.00000000 0.99215686 0.64705882
0.00000000 0.00000000 0.50196078
0.00000000 0.00000000 0.49803922
0.10196078 0.00000000 0.48627451
0.37254902 0.00000000 0.45882353
0.60000000 0.00000000 0.43529412
0.77254902 0.00000000 0.41568627
0.92549020 0.00000000 0.39215686
0.00000000 0.01568627 0.56470588
0.00000000 0.01176471 0.56078431
0.10980392 0.00784314 0.54509804
0.37254902 0.00000000 0.51764706
0.59215686 0.00000000 0.49019608
0.76078431 0.00000000 0.47058824
0.91372549 0.00000000 0.45098039
0.00000000 0.18431373 0.63137255
0.02352941 0.17647059 0.62745098
0.16862745 0.16078431 0.60784314
0.42352941 0.12941176 0.57647059
0.62352941 0.09019608 0.54901961
0.77647059 0.03921569 0.52549020
0.91372549 0.00000000 0.49803922
0.00000000 0.51764706 0.70980392
0.00000000 0.51372549 0.70196078
0.17254902 0.50196078 0.68627451
0.48627451 0.48235294 0.65882353
0.67843137 0.45490196 0.63529412
0.83529412 0.40392157 0.61568627
0.96862745 0.30588235 0.58431373
0.00000000 0.72941176 0.75686275
0.00000000 0.72941176 0.74901961
0.26666667 0.72156863 0.73725490
0.52941176 0.71372549 0.71764706
0.70196078 0.70196078 0.70196078
0.86274510 0.68235294 0.68627451
0.99607843 0.64705882 0.66274510
0.09803922 0.89411765 0.79215686
0.23529412 0.89019608 0.78823529
0.41960784 0.89019608 0.78039216
0.58823529 0.88627451 0.76862745
0.73725490 0.87843137 0.75686275
0.88627451 0.87058824 0.74117647
1.00000000 0.85490196 0.72549020
0.46274510 1.00000000 0.81960784
0.49411765 1.00000000 0.81568627
0.57254902 1.00000000 0.81176471
0.67843137 1.00000000 0.80392157
0.80000000 1.00000000 0.79607843
0.92549020 0.99607843 0.78431373
1.00000000 0.99607843 0.76862745
0.00000000 0.00000000 0.65882353
0.00000000 0.00000000 0.65490196
0.04705882 0.00000000 0.63921569
0.32941176 0.00000000 0.60784314
0.56862745 0.00000000 0.58039216
0.74117647 0.00000000 0.56078431
0.89803922 0.00000000 0.54117647
0.00000000 0.00000000 0.69803922
0.00000000 0.00000000 0.69411765
0.05098039 0.00000000 0.67843137
0.32941176 0.00000000 0.65098039
0.56078431 0.00000000 0.62352941
0.73333333 0.00000000 0.60392157
0.88627451 0.00000000 0.58431373
0.00000000 0.09803922 0.74509804
0.00000000 0.09019608 0.74117647
0.10980392 0.07450980 0.72549020
0.37254902 0.04705882 0.69411765
0.58039216 0.01960784 0.66666667
0.74117647 0.00000000 0.64313725
0.88627451 0.00000000 0.61960784
0.00000000 0.44705882 0.82352941
0.00000000 0.44313725 0.81568627
0.13725490 0.43137255 0.80000000
0.44705882 0.40392157 0.77254902
0.64313725 0.36470588 0.74509804
0.80000000 0.30196078 0.72156863
0.92941176 0.18039216 0.68627451
0.00000000 0.70588235 0.87450980
0.00000000 0.70196078 0.87058824
0.17254902 0.69411765 0.85490196
0.49019608 0.68627451 0.83529412
0.67058824 0.67058824 0.81960784
0.83529412 0.64705882 0.80000000
0.97647059 0.60392157 0.78039216
0.00000000 0.88235294 0.91372549
0.07843137 0.88235294 0.90588235
0.34509804 0.87843137 0.89803922
0.54117647 0.87450980 0.88627451
0.70196078 0.87058824 0.87450980
0.85882353 0.85882353 0.85882353
0.99215686 0.83921569 0.84313725
0.38431373 1.00000000 0.93725490
0.42352941 1.00000000 0.93725490
0.51372549 1.00000000 0.93333333
0.63529412 1.00000000 0.92549020
0.76470588 1.00000000 0.91372549
0.89411765 1.00000000 0.90196078
1.00000000 0.99607843 0.89019608
0.00000000 0.00000000 0.78039216
0.00000000 0.00000000 0.77647059
0.00392157 0.00000000 0.76470588
0.28235294 0.00000000 0.73333333
0.53333333 0.00000000 0.70196078
0.71372549 0.00000000 0.68235294
0.87450980 0.00000000 0.66274510
0.00000000 0.00000000 0.81568627
0.00000000 0.00000000 0.81176471
0.00392157 0.00000000 0.80000000
0.27843137 0.00000000 0.76862745
0.52549020 0.00000000 0.74117647
0.70588235 0.00000000 0.72156863
0.86274510 0.00000000 0.70196078
0.00000000 0.01176471 0.85098039
0.00000000 0.00784314 0.84705882
0.02745098 0.00000000 0.83137255
0.30588235 0.00000000 0.80000000
0.53333333 0.00000000 0.77254902
0.70980392 0.00000000 0.75294118
0.86274510 0.00000000 0.73725490
0.00000000 0.29803922 0.91764706
0.00392157 0.29019608 0.91372549
0.12156863 0.27058824 0.89411765
0.40000000 0.23137255 0.85882353
0.59215686 0.17647059 0.83137255
0.74901961 0.10588235 0.80392157
0.88235294 0.01568627 0.77647059
0.00000000 0.64705882 0.98039216
0.00000000 0.64313725 0.97254902
0.03137255 0.63529412 0.95686275
0.43921569 0.61960784 0.93333333
0.63921569 0.59607843 0.91372549
0.80784314 0.56078431 0.89411765
0.94901961 0.48235294 0.86666667
0.00000000 0.85490196 1.00000000
0.00000000 0.85490196 1.00000000
0.22352941 0.85098039 0.99607843
0.48627451 0.84313725 0.98431373
0.66274510 0.83529412 0.96862745
0.83137255 0.81960784 0.95294118
0.97254902 0.79215686 0.93333333
0.20392157 1.00000000 1.00000000
0.28235294 1.00000000 1.00000000
0.41568627 1.00000000 1.00000000
0.56470588 1.00000000 1.00000000
0.71372549 1.00000000 1.00000000
0.85882353 1.00000000 1.00000000
1.00000000 1.00000000 1.00000000
