core/profiles/src/main/assets/luts/agfa_vista_200.cube
# Source: RawTherapee Film Simulation Collection (HaldCLUT.zip)
# Converted from: HaldCLUT/Color/Agfa/Agfa Vista 200.png
TITLE "agfa_vista_200"
LUT_3D_SIZE 13
DOMAIN_MIN 0.0 0.0 0.0
DOMAIN_MAX 1.0 1.0 1.0
0.00000000 0.00000000 0.00000000
0.02745098 0.00000000 0.00000000
0.07843137 0.00000000 0.00000000
0.14509804 0.00000000 0.00000000
0.23921569 0.00000000 0.00000000
0.35686275 0.00000000 0.00000000
0.48235294 0.00000000 0.00000000
0.59607843 0.00000000 0.00000000
0.70196078 0.00000000 0.00000000
0.78823529 0.00000000 0.00000000
0.86666667 0.00000000 0.00000000
0.94509804 0.00000000 0.00000000
1.00000000 0.00000000 0.00000000
0.01176471 0.03921569 0.00392157
0.03921569 0.03529412 0.00000000
0.09019608 0.03137255 0.00000000
0.15686275 0.02745098 0.00000000
0.25490196 0.01960784 0.00000000
0.37254902 0.01568627 0.00000000
0.49411765 0.00784314 0.00000000
0.60392157 0.00392157 0.00000000
0.70588235 0.00000000 0.00000000
0.78823529 0.00000000 0.00000000
0.86274510 0.00000000 0.00000000
0.94117647 0.00000000 0.00000000
1.00000000 0.00000000 0.00000000
0.04313725 0.10588235 0.01960784
0.06274510 0.10196078 0.01568627
0.09803922 0.09803922 0.01176471
0.17254902 0.09019608 0.00784314
0.27058824 0.08235294 0.00392157
0.38823529 0.07058824 0.00000000
0.50588235 0.05882353 0.00000000
0.61568627 0.04313725 0.00000000
0.71372549 0.02745098 0.00000000
0.79607843 0.01568627 0.00000000
0.87058824 0.00392157 0.00000000
0.94509804 0.00000000 0.00000000
1.00000000 0.00000000 0.00000000
0.07843137 0.20392157 0.04705882
0.09803922 0.20392157 0.04313725
0.13725490 0.19607843 0.03921569
0.19215686 0.19215686 0.03137255
0.29803922 0.18039216 0.01960784
0.41568627 0.16862745 0.00784314
0.52941176 0.15294118 0.00000000
0.63529412 0.13333333 0.00000000
0.73333333 0.10980392 0.00000000
0.81176471 0.08627451 0.00000000
0.88627451 0.05882353 0.00000000
0.95686275 0.02745098 0.00000000
1.00000000 0.00784314 0.00000000
0.04313725 0.33333333 0.07843137
0.05490196 0.32941176 0.07843137
0.09411765 0.32549020 0.07450980
0.20784314 0.32156863 0.06274510
0.32549020 0.31372549 0.05098039
0.44313725 0.30196078 0.03529412
0.56078431 0.28627451 0.01960784
0.66666667 0.27058824 0.00784314
0.75686275 0.24705882 0.00392157
0.83529412 0.21960784 0.00000000
0.90980392 0.18431373 0.00000000
0.97647059 0.14117647 0.00000000
1.00000000 0.08627451 0.00000000
0.02352941 0.45882353 0.10588235
0.05098039 0.45882353 0.10588235
0.11372549 0.45490196 0.10196078
0.22745098 0.45098039 0.09411765
0.35294118 0.44705882 0.08235294
0.47450980 0.43529412 0.06666667
0.59215686 0.42745098 0.05098039
0.69019608 0.41176471 0.03921569
0.78039216 0.39607843 0.02352941
0.85882353 0.37647059 0.01568627
0.93333333 0.34901961 0.00784314
1.00000000 0.30980392 0.00000000
1.00000000 0.25490196 0.00000000
0.01176471 0.58039216 0.12156863
0.05098039 0.58039216 0.12156863
0.12941176 0.57647059 0.11764706
0.26274510 0.57647059 0.10980392
0.38431373 0.57254902 0.10196078
0.50588235 0.56470588 0.09411765
0.62352941 0.55686275 0.07843137
0.71372549 0.54901961 0.07058824
0.80000000 0.53725490 0.05882353
0.87843137 0.52549020 0.04705882
0.95294118 0.50588235 0.03529412
1.00000000 0.48235294 0.02352941
1.00000000 0.44705882 0.01176471
0.07843137 0.66666667 0.12941176
0.12156863 0.66666667 0.12549020
0.20784314 0.66666667 0.12549020
0.31764706 0.66274510 0.11764706
0.42745098 0.65882353 0.11372549
0.54117647 0.65490196 0.10196078
0.65098039 0.65098039 0.09411765
0.73333333 0.64705882 0.09019608
0.81568627 0.63921569 0.07843137
0.89411765 0.63137255 0.07058824
0.96862745 0.61960784 0.06274510
1.00000000 0.60392157 0.05098039
1.00000000 0.58039216 0.03921569
0.20392157 0.74901961 0.15294118
0.24313725 0.74901961 0.14901961
0.30980392 0.74901961 0.14509804
0.39215686 0.74509804 0.13725490
0.48627451 0.74509804 0.12156863
0.58823529 0.74117647 0.10980392
0.67843137 0.73725490 0.10196078
0.75686275 0.73333333 0.09803922
0.83137255 0.72941176 0.09411765
0.90588235 0.72156863 0.08627451
0.98039216 0.71372549 0.07843137
1.00000000 0.70196078 0.07450980
1.00000000 0.68627451 0.06274510
0.33333333 0.82352941 0.18431373
0.35686275 0.82352941 0.18431373
0.40392157 0.82352941 0.18039216
0.47058824 0.82352941 0.17254902
0.55294118 0.81960784 0.16078431
0.63137255 0.81960784 0.15294118
0.70980392 0.81568627 0.13725490
0.77647059 0.81176471 0.12549020
0.84705882 0.80784314 0.10980392
0.92156863 0.80392157 0.09019608
0.99215686 0.79607843 0.07843137
1.00000000 0.78823529 0.07450980
1.00000000 0.77647059 0.07058824
0.45098039 0.89019608 0.22352941
0.46666667 0.89019608 0.22352941
0.50196078 0.89019608 0.21960784
0.55294118 0.89019608 0.21568627
0.61176471 0.89019608 0.20784314
0.67450980 0.88627451 0.20000000
0.74117647 0.88627451 0.19215686
0.80000000 0.88235294 0.18039216
0.86666667 0.88235294 0.16862745
0.93725490 0.87843137 0.15686275
1.00000000 0.87450980 0.14117647
1.00000000 0.86666667 0.11764706
1.00000000 0.85882353 0.09019608
0.55294118 0.94117647 0.26274510
0.56470588 0.94117647 0.26274510
0.58823529 0.94117647 0.25882353
0.62352941 0.94117647 0.25490196
0.67058824 0.94117647 0.25098039
0.72156863 0.94117647 0.24705882
0.77647059 0.93725490 0.23921569
0.83137255 0.93725490 0.23137255
0.89411765 0.93725490 0.22352941
0.95686275 0.93333333 0.21176471
1.00000000 0.93333333 0.20000000
1.00000000 0.92941176 0.18039216
1.00000000 0.92549020 0.16078431
0.64705882 0.98823529 0.28235294
0.65490196 0.98823529 0.28235294
0.67058824 0.98823529 0.27843137
0.69803922 0.98823529 0.27843137
0.73333333 0.98823529 0.27450980
0.77647059 0.98823529 0.27058824
0.82352941 0.98823529 0.26274510
0.87058824 0.98823529 0.25882353
0.92549020 0.98431373 0.25098039
0.98431373 0.98431373 0.23921569
1.00000000 0.98431373 0.22745098
1.00000000 0.98039216 0.21176471
1.00000000 0.98039216 0.18823529
0.00000000 0.00000000 0.01176471
0.01568627 0.00000000 0.00784314
0.06274510 0.00000000 0.00784314
0.12941176 0.00000000 0.00392157
0.22745098 0.00000000 0.00000000
0.34901961 0.00000000 0.00000000
0.47450980 0.00000000 0.00000000
0.58823529 0.00000000 0.00000000
0.69411765 0.00000000 0.00000000
0.78039216 0.00000000 0.00000000
0.85882353 0.00000000 0.00000000
0.93725490 0.00000000 0.00000000
1.00000000 0.00000000 0.00000000
0.00784314 0.03137255 0.03137255
0.02745098 0.02745098 0.02745098
0.07843137 0.02352941 0.02352941
0.14509804 0.01960784 0.01568627
0.24313725 0.01568627 0.00784314
0.36078431 0.01176471 0.00000000
0.48235294 0.00392157 0.00000000
0.59607843 0.00000000 0.00000000
0.69803922 0.00000000 0.00000000
0.78039216 0.00000000 0.00000000
0.85882353 0.00000000 0.00000000
0.93333333 0.00000000 0.00000000
1.00000000 0.00000000 0.00000000
0.03137255 0.09411765 0.05098039
0.05490196 0.09411765 0.04705882
0.09019608 0.08627451 0.03921569
0.16470588 0.08235294 0.03137255
0.26274510 0.07058824 0.01960784
0.38039216 0.06274510 0.00784314
0.50196078 0.05098039 0.00392157
0.60784314 0.03529412 0.00000000
0.70980392 0.02352941 0.00000000
0.79215686 0.01176471 0.00000000
0.86666667 0.00392157 0.00000000
0.93725490 0.00000000 0.00000000
1.00000000 0.00000000 0.00000000
0.07843137 0.19607843 0.07843137
0.09411765 0.19215686 0.07450980
0.12941176 0.18823529 0.07058824
0.18431373 0.18039216 0.06274510
0.29019608 0.16862745 0.04705882
0.40784314 0.15686275 0.03137255
0.52549020 0.14117647 0.01568627
0.63137255 0.12549020 0.00392157
0.72549020 0.10196078 0.00000000
0.80784314 0.07843137 0.00000000
0.87843137 0.05098039 0.00000000
0.94901961 0.02352941 0.00000000
1.00000000 0.00392157 0.00000000
0.03921569 0.32549020 0.10588235
0.05098039 0.32549020 0.10588235
0.09411765 0.32156863 0.09803922
0.20000000 0.31372549 0.09019608
0.31764706 0.30588235 0.07843137
0.43921569 0.29411765 0.06274510
0.55686275 0.27843137 0.04705882
0.66274510 0.26274510 0.02745098
0.75294118 0.23921569 0.01568627
0.83137255 0.21176471 0.00784314
0.90196078 0.17647059 0.00000000
0.97254902 0.13333333 0.00000000
1.00000000 0.07843137 0.00000000
0.01568627 0.45490196 0.13333333
0.04313725 0.45490196 0.12941176
0.10588235 0.45098039 0.12549020
0.21960784 0.44705882 0.11764706
0.34901961 0.44313725 0.10588235
0.46666667 0.43529412 0.09411765
0.58823529 0.42352941 0.07843137
0.68627451 0.40784314 0.06666667
0.77647059 0.39215686 0.05098039
0.85490196 0.37254902 0.03529412
0.92941176 0.34509804 0.02352941
0.99607843 0.30588235 0.01176471
1.00000000 0.25098039 0.00000000
0.00784314 0.58039216 0.14509804
0.03529412 0.57647059 0.14509804
0.12156863 0.57647059 0.14117647
0.25098039 0.57254902 0.13333333
0.38039216 0.56862745 0.12549020
0.49803922 0.56470588 0.11764706
0.61568627 0.55686275 0.10196078
0.70980392 0.54901961 0.09411765
0.79607843 0.53725490 0.08627451
0.87450980 0.52156863 0.07450980
0.94901961 0.50588235 0.06274510
1.00000000 0.47843137 0.04705882
1.00000000 0.44313725 0.03137255
0.06274510 0.66666667 0.16078431
0.10588235 0.66666667 0.15686275
0.19215686 0.66666667 0.15294118
0.30980392 0.66274510 0.14509804
0.41960784 0.65882353 0.13333333
0.53725490 0.65490196 0.12549020
0.64313725 0.65098039 0.11764706
0.72941176 0.64705882 0.10980392
0.81176471 0.63921569 0.10196078
0.88627451 0.62745098 0.09411765
0.96078431 0.61568627 0.08627451
1.00000000 0.60000000 0.07450980
1.00000000 0.58039216 0.06274510
0.18823529 0.74901961 0.19215686
0.22745098 0.74901961 0.18823529
0.29411765 0.74901961 0.18431373
0.38039216 0.74509804 0.17647059
0.47843137 0.74509804 0.16862745
0.58039216 0.74117647 0.15294118
0.67450980 0.73725490 0.13725490
0.74901961 0.73333333 0.12549020
0.82745098 0.72941176 0.11372549
0.90196078 0.72156863 0.10588235
0.97254902 0.71372549 0.10196078
1.00000000 0.70196078 0.09411765
1.00000000 0.68627451 0.08627451
0.32156863 0.82352941 0.22745098
0.34509804 0.82352941 0.22745098
0.39215686 0.82352941 0.22352941
0.46274510 0.82352941 0.21568627
0.54117647 0.81960784 0.20784314
0.62352941 0.81960784 0.20000000
0.70196078 0.81568627 0.18823529
0.76862745 0.81176471 0.17647059
0.84313725 0.80784314 0.16470588
0.91372549 0.80392157 0.15294118
0.98431373 0.80000000 0.13725490
1.00000000 0.78823529 0.11372549
1.00000000 0.77647059 0.09411765
0.43921569 0.89411765 0.26666667
0.45490196 0.89019608 0.26274510
0.49019608 0.89019608 0.26274510
0.54117647 0.89019608 0.25490196
0.60392157 0.89019608 0.25098039
0.66666667 0.88627451 0.24313725
0.73333333 0.88627451 0.23529412
0.79215686 0.88235294 0.22745098
0.86274510 0.88235294 0.21568627
0.92941176 0.87843137 0.20784314
0.99607843 0.87450980 0.19215686
1.00000000 0.87058824 0.17647059
1.00000000 0.85882353 0.15294118
0.54509804 0.94117647 0.29803922
0.55686275 0.94117647 0.29803922
0.58039216 0.94117647 0.29411765
0.61568627 0.94117647 0.29411765
0.66274510 0.94117647 0.29019608
0.71372549 0.94117647 0.28235294
0.76862745 0.94117647 0.27843137
0.82352941 0.93725490 0.27058824
0.88627451 0.93725490 0.26274510
0.94901961 0.93333333 0.25490196
1.00000000 0.93333333 0.24313725
1.00000000 0.92941176 0.22745098
1.00000000 0.92549020 0.20784314
0.63921569 0.99215686 0.32156863
0.64705882 0.99215686 0.31764706
0.66274510 0.99215686 0.31764706
0.69019608 0.98823529 0.31372549
0.72549020 0.98823529 0.31372549
0.76470588 0.98823529 0.30980392
0.81568627 0.98823529 0.30196078
0.86274510 0.98823529 0.29803922
0.92156863 0.98823529 0.29019608
0.97647059 0.98431373 0.28235294
1.00000000 0.98431373 0.27058824
1.00000000 0.98431373 0.25882353
1.00000000 0.98039216 0.23529412
0.00000000 0.00000000 0.04313725
0.01176471 0.00000000 0.03921569
0.05490196 0.00000000 0.03137255
0.12156863 0.00000000 0.02352941
0.21960784 0.00000000 0.01568627
0.34117647 0.00000000 0.00784314
0.46666667 0.00000000 0.00000000
0.58431373 0.00000000 0.00000000
0.69019608 0.00000000 0.00000000
0.77647059 0.00000000 0.00000000
0.85490196 0.00000000 0.00000000
0.93333333 0.00000000 0.00000000
1.00000000 0.00000000 0.00000000
0.00392157 0.02352941 0.06666667
0.01960784 0.01960784 0.06274510
0.06666667 0.01960784 0.05882353
0.13725490 0.01568627 0.05098039
0.23529412 0.01176471 0.03529412
0.35294118 0.00784314 0.01960784
0.47450980 0.00392157 0.00784314
0.58823529 0.00000000 0.00000000
0.69019608 0.00000000 0.00000000
0.77254902 0.00000000 0.00000000
0.85098039 0.00000000 0.00000000
0.92941176 0.00000000 0.00000000
1.00000000 0.00000000 0.00000000
0.02352941 0.08627451 0.08627451
0.04313725 0.08235294 0.08235294
0.07843137 0.07843137 0.07843137
0.15294118 0.07058824 0.07058824
0.25490196 0.06274510 0.05490196
0.37254902 0.05490196 0.03921569
0.49411765 0.04313725 0.02352941
0.60392157 0.03137255 0.01176471
0.70196078 0.01568627 0.00392157
0.78431373 0.00784314 0.00000000
0.85882353 0.00000000 0.00000000
0.93333333 0.00000000 0.00000000
1.00000000 0.00000000 0.00000000
0.07058824 0.18431373 0.11764706
0.08627451 0.18431373 0.11372549
0.11764706 0.17647059 0.10980392
0.17647059 0.16862745 0.10196078
0.28235294 0.16078431 0.08627451
0.40000000 0.14901961 0.07058824
0.51764706 0.13333333 0.05098039
0.62352941 0.11372549 0.03137255
0.71764706 0.09411765 0.01568627
0.80000000 0.07058824 0.00784314
0.87450980 0.04313725 0.00000000
0.94509804 0.01960784 0.00000000
1.00000000 0.00392157 0.00000000
0.03529412 0.31764706 0.14509804
0.05490196 0.31764706 0.14509804
0.09411765 0.31372549 0.14117647
0.18823529 0.30588235 0.13333333
0.30980392 0.29803922 0.12156863
0.43137255 0.28627451 0.10588235
0.54901961 0.27058824 0.09019608
0.65098039 0.25098039 0.07058824
0.74509804 0.22745098 0.05490196
0.82352941 0.20000000 0.03921569
0.89411765 0.16470588 0.02352941
0.96470588 0.12156863 0.00784314
1.00000000 0.07058824 0.00000000
0.00392157 0.45098039 0.17254902
0.02745098 0.45098039 0.17254902
0.09803922 0.44705882 0.16862745
0.20392157 0.44313725 0.16078431
0.33725490 0.43529412 0.14901961
0.45882353 0.42745098 0.13725490
0.58039216 0.41568627 0.12549020
0.67843137 0.40392157 0.10980392
0.76862745 0.38823529 0.09803922
0.84705882 0.36470588 0.08627451
0.92156863 0.33725490 0.07058824
0.98823529 0.29803922 0.05098039
1.00000000 0.23921569 0.02745098
0.00000000 0.57647059 0.20392157
0.01176471 0.57647059 0.20000000
0.10196078 0.57254902 0.19607843
0.23137255 0.57254902 0.18823529
0.36470588 0.56862745 0.17647059
0.48627451 0.56078431 0.16078431
0.60784314 0.55294118 0.14901961
0.69803922 0.54509804 0.14117647
0.78431373 0.53333333 0.12941176
0.86274510 0.52156863 0.12156863
0.93725490 0.50196078 0.10980392
1.00000000 0.47450980 0.09803922
1.00000000 0.43529412 0.08235294
0.02745098 0.66666667 0.23137255
0.07843137 0.66666667 0.22745098
0.16078431 0.66274510 0.22352941
0.28627451 0.66274510 0.21568627
0.40392157 0.65882353 0.20784314
0.52156863 0.65490196 0.19215686
0.63137255 0.65098039 0.18039216
0.71764706 0.64313725 0.16862745
0.80000000 0.63529412 0.15294118
0.87450980 0.62745098 0.14117647
0.95294118 0.61568627 0.13333333
1.00000000 0.60000000 0.12549020
1.00000000 0.57647059 0.11372549
0.14509804 0.74901961 0.26274510
0.19215686 0.74901961 0.26274510
0.26666667 0.74901961 0.25882353
0.36078431 0.74509804 0.25098039
0.46274510 0.74509804 0.24313725
0.56470588 0.74117647 0.23137255
0.65882353 0.73725490 0.21960784
0.73725490 0.73333333 0.20784314
0.81176471 0.72941176 0.19607843
0.89019608 0.72156863 0.18431373
0.96078431 0.71372549 0.17254902
1.00000000 0.70196078 0.15294118
1.00000000 0.68627451 0.13725490
0.29411765 0.82745098 0.29803922
0.32156863 0.82352941 0.29803922
0.37254902 0.82352941 0.29411765
0.44313725 0.82352941 0.28627451
0.52549020 0.81960784 0.27843137
0.61176471 0.81960784 0.27058824
0.69019608 0.81568627 0.26274510
0.75686275 0.81176471 0.25490196
0.82745098 0.80784314 0.24705882
0.90196078 0.80392157 0.23529412
0.97254902 0.80000000 0.22352941
1.00000000 0.79215686 0.20784314
1.00000000 0.77647059 0.18823529
0.41568627 0.89411765 0.33333333
0.43529412 0.89411765 0.32941176
0.47058824 0.89411765 0.32941176
0.52549020 0.89019608 0.32549020
0.58823529 0.89019608 0.31764706
0.65098039 0.89019608 0.31372549
0.71764706 0.88627451 0.30588235
0.78039216 0.88627451 0.29803922
0.84705882 0.88235294 0.29019608
0.91764706 0.87843137 0.28235294
0.98431373 0.87450980 0.27058824
1.00000000 0.87058824 0.25882353
1.00000000 0.86274510 0.24313725
0.52549020 0.94509804 0.36470588
0.53725490 0.94509804 0.36470588
0.56470588 0.94509804 0.36078431
0.60000000 0.94509804 0.35686275
0.64705882 0.94117647 0.35294118
0.69803922 0.94117647 0.34901961
0.75294118 0.94117647 0.34509804
0.81176471 0.94117647 0.34117647
0.87450980 0.93725490 0.33333333
0.93725490 0.93725490 0.32549020
0.99607843 0.93333333 0.31372549
1.00000000 0.92941176 0.30196078
1.00000000 0.92549020 0.28627451
0.62352941 0.99215686 0.38431373
0.63137255 0.99215686 0.38431373
0.64705882 0.99215686 0.38039216
0.67450980 0.99215686 0.38039216
0.70980392 0.99215686 0.37647059
0.75294118 0.99215686 0.37254902
0.80000000 0.98823529 0.36862745
0.85098039 0.98823529 0.36470588
0.90588235 0.98823529 0.35686275
0.96470588 0.98823529 0.34901961
1.00000000 0.98431373 0.34117647
1.00000000 0.98431373 0.32941176
1.00000000 0.98039216 0.31372549
0.00000000 0.00000000 0.09411765
0.00784314 0.00000000 0.08627451
0.04313725 0.00000000 0.08235294
0.10980392 0.00000000 0.07450980
0.21176471 0.00000000 0.05882353
0.33333333 0.00000000 0.04313725
0.45882353 0.00000000 0.02745098
0.57647059 0.00000000 0.01176471
0.68235294 0.00000000 0.00392157
0.76862745 0.00000000 0.00000000
0.84705882 0.00000000 0.00000000
0.92549020 0.00000000 0.00000000
1.00000000 0.00000000 0.00000000
0.00000000 0.01960784 0.11764706
0.01176471 0.01568627 0.11372549
0.05490196 0.01568627 0.10980392
0.12156863 0.01176471 0.10196078
0.21960784 0.00784314 0.09019608
0.34117647 0.00392157 0.07058824
0.46666667 0.00000000 0.05490196
0.58039216 0.00000000 0.03529412
0.67843137 0.00000000 0.01960784
0.76470588 0.00000000 0.01176471
0.84313725 0.00000000 0.00392157
0.92156863 0.00000000 0.00000000
0.99607843 0.00000000 0.00000000
0.01568627 0.07843137 0.14117647
0.03137255 0.07450980 0.13725490
0.06666667 0.07058824 0.13333333
0.14117647 0.06274510 0.12549020
0.23921569 0.05490196 0.11372549
0.35686275 0.04705882 0.09803922
0.48235294 0.03529412 0.07843137
0.59215686 0.02352941 0.06274510
0.69019608 0.01176471 0.04313725
0.77254902 0.00784314 0.02745098
0.84705882 0.00000000 0.01568627
0.92156863 0.00000000 0.00784314
0.99215686 0.00000000 0.00000000
0.05490196 0.17254902 0.17254902
0.07058824 0.17254902 0.17254902
0.10588235 0.16470588 0.16470588
0.16078431 0.15686275 0.15686275
0.26666667 0.14901961 0.14509804
0.38431373 0.13725490 0.12941176
0.50588235 0.12156863 0.11372549
0.61176471 0.10588235 0.09411765
0.70588235 0.08235294 0.07843137
0.78431373 0.06274510 0.06274510
0.85882353 0.03529412 0.04705882
0.93333333 0.01568627 0.02745098
0.99607843 0.00000000 0.01176471
0.03137255 0.30980392 0.21176471
0.05490196 0.30588235 0.20784314
0.09019608 0.30196078 0.20392157
0.16862745 0.29411765 0.19607843
0.29411765 0.28627451 0.18431373
0.41568627 0.27450980 0.17254902
0.53725490 0.25882353 0.15294118
0.63921569 0.23921569 0.13725490
0.72941176 0.21568627 0.12549020
0.80784314 0.18823529 0.10980392
0.87843137 0.15294118 0.09019608
0.94901961 0.10980392 0.07058824
1.00000000 0.05882353 0.04705882
0.00000000 0.44705882 0.24705882
0.00392157 0.44313725 0.24705882
0.07058824 0.44313725 0.24313725
0.17647059 0.43529412 0.23529412
0.31764706 0.43137255 0.22352941
0.44313725 0.41960784 0.21176471
0.56470588 0.40784314 0.19607843
0.66274510 0.39607843 0.18039216
0.75294118 0.37647059 0.16862745
0.83137255 0.35686275 0.15686275
0.90588235 0.32549020 0.14509804
0.97647059 0.28627451 0.12549020
1.00000000 0.22352941 0.10588235
0.00000000 0.57254902 0.28627451
0.00000000 0.57254902 0.28235294
0.07450980 0.57254902 0.27843137
0.20000000 0.56862745 0.27058824
0.34117647 0.56470588 0.26274510
0.47058824 0.55686275 0.25098039
0.58823529 0.54901961 0.23529412
0.68235294 0.54117647 0.22352941
0.76862745 0.52941176 0.21176471
0.84705882 0.51372549 0.20000000
0.92549020 0.49411765 0.18431373
0.99607843 0.47058824 0.17254902
1.00000000 0.42745098 0.15686275
0.00000000 0.66666667 0.31764706
0.02745098 0.66274510 0.31372549
0.12156863 0.66274510 0.30980392
0.25098039 0.66274510 0.30588235
0.38039216 0.65882353 0.29411765
0.50196078 0.65490196 0.28627451
0.61176471 0.64705882 0.27450980
0.69803922 0.64313725 0.26274510
0.78431373 0.63529412 0.25098039
0.85882353 0.62745098 0.23921569
0.93725490 0.61176471 0.22745098
1.00000000 0.59607843 0.21568627
1.00000000 0.57254902 0.19607843
0.09803922 0.74901961 0.34901961
0.13333333 0.74901961 0.34901961
0.22745098 0.74901961 0.34509804
0.32941176 0.74509804 0.34117647
0.43921569 0.74509804 0.33333333
0.54509804 0.74117647 0.32156863
0.63921569 0.73725490 0.31372549
0.71764706 0.73333333 0.30588235
0.79607843 0.72549020 0.29411765
0.87058824 0.72156863 0.28627451
0.94509804 0.70980392 0.27450980
1.00000000 0.70196078 0.25882353
1.00000000 0.68235294 0.24705882
0.24705882 0.82745098 0.38431373
0.28235294 0.82745098 0.38431373
0.33725490 0.82352941 0.38039216
0.41568627 0.82352941 0.37647059
0.50196078 0.82352941 0.36862745
0.58823529 0.81960784 0.36078431
0.67058824 0.81568627 0.35294118
0.73725490 0.81568627 0.34509804
0.81176471 0.81176471 0.33725490
0.88627451 0.80392157 0.32941176
0.95686275 0.80000000 0.31764706
1.00000000 0.79215686 0.30588235
1.00000000 0.77647059 0.29411765
0.38431373 0.89411765 0.41960784
0.40392157 0.89411765 0.41568627
0.44313725 0.89411765 0.41568627
0.49803922 0.89411765 0.41176471
0.56078431 0.89019608 0.40392157
0.63137255 0.89019608 0.40000000
0.69803922 0.88627451 0.39607843
0.76078431 0.88627451 0.38823529
0.83137255 0.88235294 0.38039216
0.89803922 0.87843137 0.37254902
0.96862745 0.87450980 0.36470588
1.00000000 0.87058824 0.35294118
1.00000000 0.86274510 0.34117647
0.49803922 0.94509804 0.44705882
0.51372549 0.94509804 0.44705882
0.53725490 0.94509804 0.44705882
0.57647059 0.94509804 0.44313725
0.62352941 0.94509804 0.43921569
0.67450980 0.94509804 0.43529412
0.73333333 0.94117647 0.43137255
0.79215686 0.94117647 0.42352941
0.85490196 0.94117647 0.41960784
0.92156863 0.93725490 0.41176471
0.98431373 0.93333333 0.40392157
1.00000000 0.93333333 0.39215686
1.00000000 0.92549020 0.38039216
0.60000000 0.99215686 0.46666667
0.60784314 0.99215686 0.46274510
0.62352941 0.99215686 0.46274510
0.65098039 0.99215686 0.46274510
0.68627451 0.99215686 0.45882353
0.73333333 0.99215686 0.45490196
0.78039216 0.99215686 0.45098039
0.83137255 0.99215686 0.44705882
0.89019608 0.98823529 0.43921569
0.94901961 0.98823529 0.43529412
1.00000000 0.98823529 0.42745098
1.00000000 0.98431373 0.41568627
1.00000000 0.98431373 0.40000000
0.00000000 0.00000000 0.15294118
0.00000000 0.00000000 0.14509804
0.03137255 0.00000000 0.14117647
0.09803922 0.00000000 0.13725490
0.19607843 0.00000000 0.12549020
0.32156863 0.00000000 0.10980392
0.45098039 0.00000000 0.09411765
0.56470588 0.00000000 0.07450980
0.67058824 0.00000000 0.05882353
0.75686275 0.00000000 0.04705882
0.83921569 0.00000000 0.03137255
0.91764706 0.00000000 0.01960784
0.98823529 0.00000000 0.01176471
0.00000000 0.01568627 0.18431373
0.00392157 0.01568627 0.18431373
0.03529412 0.01176471 0.18039216
0.10588235 0.00784314 0.17254902
0.20392157 0.00392157 0.16078431
0.32549020 0.00392157 0.14509804
0.45098039 0.00000000 0.12941176
0.56470588 0.00000000 0.10980392
0.66666667 0.00000000 0.09411765
0.75294118 0.00000000 0.08235294
0.83137255 0.00000000 0.06666667
0.90980392 0.00000000 0.05490196
0.98431373 0.00000000 0.03921569
0.00392157 0.07058824 0.21568627
0.01568627 0.06666667 0.21176471
0.04705882 0.06274510 0.20784314
0.12156863 0.05490196 0.20392157
0.21960784 0.04705882 0.19215686
0.34117647 0.03921569 0.17647059
0.46666667 0.02745098 0.16078431
0.57647059 0.01568627 0.14509804
0.67450980 0.00784314 0.12549020
0.75686275 0.00392157 0.11372549
0.83137255 0.00000000 0.09803922
0.90588235 0.00000000 0.08235294
0.98039216 0.00000000 0.06274510
0.03529412 0.16078431 0.25098039
0.05098039 0.15686275 0.25098039
0.08235294 0.15294118 0.24705882
0.13725490 0.14509804 0.23921569
0.24705882 0.13333333 0.22745098
0.36470588 0.12156863 0.21568627
