core/profiles/src/main/assets/luts/fuji_velvia_50.cube
# Source: RawTherapee Film Simulation Collection (HaldCLUT.zip)
# Converted from: HaldCLUT/Color/Fuji/Fuji Velvia 50.png
TITLE "fuji_velvia_50"
LUT_3D_SIZE 5
DOMAIN_MIN 0.0 0.0 0.0
DOMAIN_MAX 1.0 1.0 1.0
0.00000000 0.00000000 0.00000000
0.16078431 0.00000000 0.00000000
0.45882353 0.00000000 0.00000000
0.72549020 0.00000000 0.00000000
0.98823529 0.00000000 0.00000000
0.03137255 0.19607843 0.01568627
0.17254902 0.17254902 0.01568627
0.46666667 0.12549020 0.01568627
0.72941176 0.06666667 0.00784314
0.99215686 0.00784314 0.00000000
0.00000000 0.50588235 0.06274510
0.09803922 0.49019608 0.06274510
0.45490196 0.45882353 0.05882353
0.72941176 0.41960784 0.04705882
1.00000000 0.36862745 0.01960784
0.00000000 0.78039216 0.09019608
0.01176471 0.77254902 0.09411765
0.43137255 0.74901961 0.09803922
0.71372549 0.71764706 0.09019608
0.99607843 0.67450980 0.05098039
0.00000000 1.00000000 0.15686275
0.02745098 1.00000000 0.15294118
0.40392157 1.00000000 0.14509804
0.69411765 1.00000000 0.11764706
0.98039216 0.98431373 0.00000000
0.00000000 0.00000000 0.09019608
0.15686275 0.00000000 0.09411765
0.46274510 0.00000000 0.09019608
0.73333333 0.00000000 0.07058824
1.00000000 0.00000000 0.03529412
0.03529412 0.19215686 0.16862745
0.17254902 0.16862745 0.16862745
0.47058824 0.12156863 0.16862745
0.73725490 0.06274510 0.14901961
1.00000000 0.00392157 0.09411765
0.00000000 0.50980392 0.23529412
0.09019608 0.49411765 0.23529412
0.45882353 0.46274510 0.23529412
0.73333333 0.41960784 0.22352941
1.00000000 0.37254902 0.17647059
0.00000000 0.78431373 0.29019608
0.00392157 0.77254902 0.29019608
0.43529412 0.74901961 0.29019608
0.71764706 0.72156863 0.28235294
1.00000000 0.67843137 0.23921569
0.00000000 1.00000000 0.32941176
0.03137255 1.00000000 0.32941176
0.40784314 1.00000000 0.32549020
0.69803922 1.00000000 0.31372549
0.98431373 0.98823529 0.25098039
0.00000000 0.00000000 0.32941176
0.14901961 0.00000000 0.33333333
0.46666667 0.00000000 0.33333333
0.73725490 0.00000000 0.32549020
1.00000000 0.00000000 0.29411765
0.03137255 0.18431373 0.39215686
0.16470588 0.16078431 0.39607843
0.47058824 0.10980392 0.40000000
0.74117647 0.04705882 0.39607843
1.00000000 0.00000000 0.37647059
0.00000000 0.50980392 0.45490196
0.06666667 0.49411765 0.45882353
0.46274510 0.45882353 0.45882353
0.73725490 0.41960784 0.45882353
1.00000000 0.36862745 0.44313725
0.00000000 0.78823529 0.51372549
0.00000000 0.77647059 0.51372549
0.43137255 0.75294118 0.51764706
0.72156863 0.72156863 0.51764706
1.00000000 0.67843137 0.50196078
0.00000000 1.00000000 0.55686275
0.02352941 1.00000000 0.55686275
0.40784314 1.00000000 0.55686275
0.70196078 1.00000000 0.55294118
0.99215686 0.99215686 0.52549020
0.00000000 0.00000000 0.52941176
0.12941176 0.00000000 0.53725490
0.46274510 0.00000000 0.54509804
0.74117647 0.00000000 0.54509804
1.00000000 0.00000000 0.53333333
0.02352941 0.15686275 0.60000000
0.14509804 0.13333333 0.60392157
0.46666667 0.07450980 0.61176471
0.74509804 0.01568627 0.61176471
1.00000000 0.00000000 0.60392157
0.00000000 0.50588235 0.65882353
0.05098039 0.49019608 0.65882353
0.45490196 0.45490196 0.66666667
0.74117647 0.41176471 0.66666667
1.00000000 0.35686275 0.66274510
0.00000000 0.78823529 0.70980392
0.00000000 0.78039216 0.71372549
0.42352941 0.75294118 0.71764706
0.72156863 0.72156863 0.72156863
1.00000000 0.67843137 0.71764706
0.00000000 1.00000000 0.76470588
0.00000000 1.00000000 0.76862745
0.39607843 1.00000000 0.76862745
0.70588235 1.00000000 0.77254902
0.99607843 1.00000000 0.76078431
0.00000000 0.00000000 0.72549020
0.09411765 0.00000000 0.73333333
0.44705882 0.00000000 0.74117647
0.74117647 0.00000000 0.74509804
1.00000000 0.00000000 0.74509804
0.00784314 0.10196078 0.79607843
0.09803922 0.08235294 0.80000000
0.45098039 0.01960784 0.80784314
0.74117647 0.00000000 0.81176471
1.00000000 0.00000000 0.81568627
0.00000000 0.49411765 0.85882353
0.01960784 0.47058824 0.86274510
0.43921569 0.43137255 0.87058824
0.73725490 0.38431373 0.87450980
1.00000000 0.32156863 0.87843137
0.00000000 0.78823529 0.92156863
0.00000000 0.77647059 0.92549020
0.38431373 0.74509804 0.92941176
0.71372549 0.70980392 0.93725490
1.00000000 0.66274510 0.94117647
0.00000000 1.00000000 0.98431373
0.00000000 1.00000000 0.98823529
0.31764706 1.00000000 0.99215686
0.67843137 1.00000000 0.99607843
1.00000000 1.00000000 1.00000000
