core/profiles/src/main/assets/luts/fuji_neopan_1600.cube
# Source: RawTherapee Film Simulation Collection (HaldCLUT.zip)
# Converted from: HaldCLUT/Black-and-White/Fuji/Fuji Neopan 1600 2.png
TITLE "fuji_neopan_1600"
LUT_3D_SIZE 7
DOMAIN_MIN 0.0 0.0 0.0
DOMAIN_MAX 1.0 1.0 1.0
0.03921569 0.03921569 0.03921569
0.03921569 0.03921569 0.03921569
0.04705882 0.04705882 0.04705882
0.08235294 0.08235294 0.08235294
0.16470588 0.16470588 0.16470588
0.28235294 0.28235294 0.28235294
0.49019608 0.49019608 0.49019608
0.04705882 0.04705882 0.04705882
0.05490196 0.05490196 0.05490196
0.08627451 0.08627451 0.08627451
0.14117647 0.14117647 0.14117647
0.21960784 0.21960784 0.21960784
0.32941176 0.32941176 0.32941176
0.53725490 0.53725490 0.53725490
0.10980392 0.10980392 0.10980392
0.12156863 0.12156863 0.12156863
0.16862745 0.16862745 0.16862745
0.26666667 0.26666667 0.26666667
0.36078431 0.36078431 0.36078431
0.46274510 0.46274510 0.46274510
0.65098039 0.65098039 0.65098039
0.25098039 0.25098039 0.25098039
0.25882353 0.25882353 0.25882353
0.28627451 0.28627451 0.28627451
0.35686275 0.35686275 0.35686275
0.48627451 0.48627451 0.48627451
0.63137255 0.63137255 0.63137255
0.77647059 0.77647059 0.77647059
0.40392157 0.40392157 0.40392157
0.42745098 0.42745098 0.42745098
0.43921569 0.43921569 0.43921569
0.50196078 0.50196078 0.50196078
0.58823529 0.58823529 0.58823529
0.72549020 0.72549020 0.72549020
0.84313725 0.84313725 0.84313725
0.67058824 0.67058824 0.67058824
0.67843137 0.67843137 0.67843137
0.68627451 0.68627451 0.68627451
0.71764706 0.71764706 0.71764706
0.76862745 0.76862745 0.76862745
0.82745098 0.82745098 0.82745098
0.92941176 0.92941176 0.92941176
0.92156863 0.92156863 0.92156863
0.92156863 0.92156863 0.92156863
0.92941176 0.92941176 0.92941176
0.93725490 0.93725490 0.93725490
0.96078431 0.96078431 0.96078431
0.97647059 0.97647059 0.97647059
0.99607843 0.99607843 0.99607843
0.03921569 0.03921569 0.03921569
0.04705882 0.04705882 0.04705882
0.06274510 0.06274510 0.06274510
0.10588235 0.10588235 0.10588235
0.18823529 0.18823529 0.18823529
0.29019608 0.29019608 0.29019608
0.46666667 0.46666667 0.46666667
0.05098039 0.05098039 0.05098039
0.07058824 0.07058824 0.07058824
0.10196078 0.10196078 0.10196078
0.16078431 0.16078431 0.16078431
0.23529412 0.23529412 0.23529412
0.34117647 0.34117647 0.34117647
0.52549020 0.52549020 0.52549020
0.15686275 0.15686275 0.15686275
0.15686275 0.15686275 0.15686275
0.19607843 0.19607843 0.19607843
0.29411765 0.29411765 0.29411765
0.36470588 0.36470588 0.36470588
0.46666667 0.46666667 0.46666667
0.64705882 0.64705882 0.64705882
0.29411765 0.29411765 0.29411765
0.29411765 0.29411765 0.29411765
0.31764706 0.31764706 0.31764706
0.38431373 0.38431373 0.38431373
0.50588235 0.50588235 0.50588235
0.64705882 0.64705882 0.64705882
0.77254902 0.77254902 0.77254902
0.43529412 0.43529412 0.43529412
0.45882353 0.45882353 0.45882353
0.47058824 0.47058824 0.47058824
0.52549020 0.52549020 0.52549020
0.60784314 0.60784314 0.60784314
0.73333333 0.73333333 0.73333333
0.84705882 0.84705882 0.84705882
0.69019608 0.69019608 0.69019608
0.69803922 0.69803922 0.69803922
0.70588235 0.70588235 0.70588235
0.73333333 0.73333333 0.73333333
0.77647059 0.77647059 0.77647059
0.83529412 0.83529412 0.83529412
0.92941176 0.92941176 0.92941176
0.92549020 0.92549020 0.92549020
0.92549020 0.92549020 0.92549020
0.93333333 0.93333333 0.93333333
0.94117647 0.94117647 0.94117647
0.95686275 0.95686275 0.95686275
0.98039216 0.98039216 0.98039216
0.99607843 0.99607843 0.99607843
0.05098039 0.05098039 0.05098039
0.07058824 0.07058824 0.07058824
0.11764706 0.11764706 0.11764706
0.16078431 0.16078431 0.16078431
0.23137255 0.23137255 0.23137255
0.32549020 0.32549020 0.32549020
0.48627451 0.48627451 0.48627451
0.09019608 0.09019608 0.09019608
0.11764706 0.11764706 0.11764706
0.16078431 0.16078431 0.16078431
0.20784314 0.20784314 0.20784314
0.27450980 0.27450980 0.27450980
0.37254902 0.37254902 0.37254902
0.54509804 0.54509804 0.54509804
0.16078431 0.16078431 0.16078431
0.19215686 0.19215686 0.19215686
0.27058824 0.27058824 0.27058824
0.32156863 0.32156863 0.32156863
0.38823529 0.38823529 0.38823529
0.49019608 0.49019608 0.49019608
0.65882353 0.65882353 0.65882353
0.34901961 0.34901961 0.34901961
0.37254902 0.37254902 0.37254902
0.39607843 0.39607843 0.39607843
0.44705882 0.44705882 0.44705882
0.55294118 0.55294118 0.55294118
0.66666667 0.66666667 0.66666667
0.78039216 0.78039216 0.78039216
0.51764706 0.51764706 0.51764706
0.54117647 0.54117647 0.54117647
0.54901961 0.54901961 0.54901961
0.58039216 0.58039216 0.58039216
0.64705882 0.64705882 0.64705882
0.75686275 0.75686275 0.75686275
0.85882353 0.85882353 0.85882353
0.72549020 0.72549020 0.72549020
0.73725490 0.73725490 0.73725490
0.74117647 0.74117647 0.74117647
0.75294118 0.75294118 0.75294118
0.79607843 0.79607843 0.79607843
0.85098039 0.85098039 0.85098039
0.93725490 0.93725490 0.93725490
0.93333333 0.93333333 0.93333333
0.93333333 0.93333333 0.93333333
0.94117647 0.94117647 0.94117647
0.94509804 0.94509804 0.94509804
0.96078431 0.96078431 0.96078431
0.98039216 0.98039216 0.98039216
0.99607843 0.99607843 0.99607843
0.11764706 0.11764706 0.11764706
0.14509804 0.14509804 0.14509804
0.20784314 0.20784314 0.20784314
0.27843137 0.27843137 0.27843137
0.29803922 0.29803922 0.29803922
0.41176471 0.41176471 0.41176471
0.57647059 0.57647059 0.57647059
0.17254902 0.17254902 0.17254902
0.19607843 0.19607843 0.19607843
0.25882353 0.25882353 0.25882353
0.32156863 0.32156863 0.32156863
0.34509804 0.34509804 0.34509804
0.45490196 0.45490196 0.45490196
0.61960784 0.61960784 0.61960784
0.21960784 0.21960784 0.21960784
0.26274510 0.26274510 0.26274510
0.34901961 0.34901961 0.34901961
0.41568627 0.41568627 0.41568627
0.45098039 0.45098039 0.45098039
0.54509804 0.54509804 0.54509804
0.67843137 0.67843137 0.67843137
0.34901961 0.34901961 0.34901961
0.37254902 0.37254902 0.37254902
0.43529412 0.43529412 0.43529412
0.54117647 0.54117647 0.54117647
0.59607843 0.59607843 0.59607843
0.67450980 0.67450980 0.67450980
0.77647059 0.77647059 0.77647059
0.54509804 0.54509804 0.54509804
0.58431373 0.58431373 0.58431373
0.62352941 0.62352941 0.62352941
0.66274510 0.66274510 0.66274510
0.70588235 0.70588235 0.70588235
0.78823529 0.78823529 0.78823529
0.87450980 0.87450980 0.87450980
0.77254902 0.77254902 0.77254902
0.78431373 0.78431373 0.78431373
0.79215686 0.79215686 0.79215686
0.80000000 0.80000000 0.80000000
0.82352941 0.82352941 0.82352941
0.87058824 0.87058824 0.87058824
0.94901961 0.94901961 0.94901961
0.94509804 0.94509804 0.94509804
0.94901961 0.94901961 0.94901961
0.95294118 0.95294118 0.95294118
0.95686275 0.95686275 0.95686275
0.96470588 0.96470588 0.96470588
0.98431373 0.98431373 0.98431373
0.99607843 0.99607843 0.99607843
0.23529412 0.23529412 0.23529412
0.26274510 0.26274510 0.26274510
0.32549020 0.32549020 0.32549020
0.42745098 0.42745098 0.42745098
0.48235294 0.48235294 0.48235294
0.49803922 0.49803922 0.49803922
0.67450980 0.67450980 0.67450980
0.30196078 0.30196078 0.30196078
0.32156863 0.32156863 0.32156863
0.37647059 0.37647059 0.37647059
0.46666667 0.46666667 0.46666667
0.52549020 0.52549020 0.52549020
0.54509804 0.54509804 0.54509804
0.70980392 0.70980392 0.70980392
0.38039216 0.38039216 0.38039216
0.41176471 0.41176471 0.41176471
0.45882353 0.45882353 0.45882353
0.54117647 0.54117647 0.54117647
0.60000000 0.60000000 0.60000000
0.62745098 0.62745098 0.62745098
0.75294118 0.75294118 0.75294118
0.41960784 0.41960784 0.41960784
0.44313725 0.44313725 0.44313725
0.50196078 0.50196078 0.50196078
0.62745098 0.62745098 0.62745098
0.68627451 0.68627451 0.68627451
0.72156863 0.72156863 0.72156863
0.80392157 0.80392157 0.80392157
0.54509804 0.54509804 0.54509804
0.58039216 0.58039216 0.58039216
0.62352941 0.62352941 0.62352941
0.69019608 0.69019608 0.69019608
0.76862745 0.76862745 0.76862745
0.80784314 0.80784314 0.80784314
0.87058824 0.87058824 0.87058824
0.77647059 0.77647059 0.77647059
0.78823529 0.78823529 0.78823529
0.80784314 0.80784314 0.80784314
0.84313725 0.84313725 0.84313725
0.86666667 0.86666667 0.86666667
0.90196078 0.90196078 0.90196078
0.96470588 0.96470588 0.96470588
0.95686275 0.95686275 0.95686275
0.95686275 0.95686275 0.95686275
0.96470588 0.96470588 0.96470588
0.97254902 0.97254902 0.97254902
0.98039216 0.98039216 0.98039216
0.98823529 0.98823529 0.98823529
1.00000000 1.00000000 1.00000000
0.45098039 0.45098039 0.45098039
0.47450980 0.47450980 0.47450980
0.52941176 0.52941176 0.52941176
0.61960784 0.61960784 0.61960784
0.70588235 0.70588235 0.70588235
0.73725490 0.73725490 0.73725490
0.75294118 0.75294118 0.75294118
0.50196078 0.50196078 0.50196078
0.51764706 0.51764706 0.51764706
0.57254902 0.57254902 0.57254902
0.65098039 0.65098039 0.65098039
0.72941176 0.72941176 0.72941176
0.76078431 0.76078431 0.76078431
0.77647059 0.77647059 0.77647059
0.57254902 0.57254902 0.57254902
0.59215686 0.59215686 0.59215686
0.63529412 0.63529412 0.63529412
0.69411765 0.69411765 0.69411765
0.76078431 0.76078431 0.76078431
0.78823529 0.78823529 0.78823529
0.81176471 0.81176471 0.81176471
0.57647059 0.57647059 0.57647059
0.61176471 0.61176471 0.61176471
0.68627451 0.68627451 0.68627451
0.74117647 0.74117647 0.74117647
0.79607843 0.79607843 0.79607843
0.83137255 0.83137255 0.83137255
0.85882353 0.85882353 0.85882353
0.63921569 0.63921569 0.63921569
0.66666667 0.66666667 0.66666667
0.69803922 0.69803922 0.69803922
0.74509804 0.74509804 0.74509804
0.83529412 0.83529412 0.83529412
0.87450980 0.87450980 0.87450980
0.90980392 0.90980392 0.90980392
0.78039216 0.78039216 0.78039216
0.78823529 0.78823529 0.78823529
0.81176471 0.81176471 0.81176471
0.84705882 0.84705882 0.84705882
0.88627451 0.88627451 0.88627451
0.94117647 0.94117647 0.94117647
0.97254902 0.97254902 0.97254902
0.95686275 0.95686275 0.95686275
0.96078431 0.96078431 0.96078431
0.96470588 0.96470588 0.96470588
0.98039216 0.98039216 0.98039216
0.98823529 0.98823529 0.98823529
0.99215686 0.99215686 0.99215686
1.00000000 1.00000000 1.00000000
0.77254902 0.77254902 0.77254902
0.78039216 0.78039216 0.78039216
0.80784314 0.80784314 0.80784314
0.84313725 0.84313725 0.84313725
0.88235294 0.88235294 0.88235294
0.92549020 0.92549020 0.92549020
0.94117647 0.94117647 0.94117647
0.79607843 0.79607843 0.79607843
0.80000000 0.80000000 0.80000000
0.82352941 0.82352941 0.82352941
0.85490196 0.85490196 0.85490196
0.89019608 0.89019608 0.89019608
0.92941176 0.92941176 0.92941176
0.94509804 0.94509804 0.94509804
0.81176471 0.81176471 0.81176471
0.81960784 0.81960784 0.81960784
0.83921569 0.83921569 0.83921569
0.86666667 0.86666667 0.86666667
0.90196078 0.90196078 0.90196078
0.94117647 0.94117647 0.94117647
0.95686275 0.95686275 0.95686275
0.82745098 0.82745098 0.82745098
0.83529412 0.83529412 0.83529412
0.85098039 0.85098039 0.85098039
0.88235294 0.88235294 0.88235294
0.91764706 0.91764706 0.91764706
0.95294118 0.95294118 0.95294118
0.96862745 0.96862745 0.96862745
0.76470588 0.76470588 0.76470588
0.78823529 0.78823529 0.78823529
0.82745098 0.82745098 0.82745098
0.89019608 0.89019608 0.89019608
0.92941176 0.92941176 0.92941176
0.96470588 0.96470588 0.96470588
0.98431373 0.98431373 0.98431373
0.87843137 0.87843137 0.87843137
0.88627451 0.88627451 0.88627451
0.89803922 0.89803922 0.89803922
0.91372549 0.91372549 0.91372549
0.94117647 0.94117647 0.94117647
0.98431373 0.98431373 0.98431373
0.99607843 0.99607843 0.99607843
0.96470588 0.96470588 0.96470588
0.96470588 0.96470588 0.96470588
0.97254902 0.97254902 0.97254902
0.98039216 0.98039216 0.98039216
0.98823529 0.98823529 0.98823529
0.99607843 0.99607843 0.99607843
1.00000000 1.00000000 1.00000000
