core/profiles/src/main/assets/luts/fuji_superia_800.cube
# Source: RawTherapee Film Simulation Collection (HaldCLUT.zip)
# Converted from: HaldCLUT/Color/Fuji/Fuji Superia 800 2.png
TITLE "fuji_superia_800"
LUT_3D_SIZE 13
DOMAIN_MIN 0.0 0.0 0.0
DOMAIN_MAX 1.0 1.0 1.0
0.00392157 0.06666667 0.07058824
0.00784314 0.06666667 0.06666667
0.04705882 0.07058824 0.06666667
0.12549020 0.07843137 0.06666667
0.21960784 0.08627451 0.06274510
0.33333333 0.08627451 0.05490196
0.45882353 0.07450980 0.04313725
0.57254902 0.05098039 0.02745098
0.69803922 0.03137255 0.01176471
0.80000000 0.05098039 0.00000000
0.89019608 0.10588235 0.00000000
0.96862745 0.16470588 0.00000000
1.00000000 0.24705882 0.00000000
0.00000000 0.07450980 0.07058824
0.00784314 0.07843137 0.07058824
0.05882353 0.09019608 0.07058824
0.13725490 0.09803922 0.06666667
0.22745098 0.10588235 0.05882353
0.34117647 0.10588235 0.05098039
0.46666667 0.10196078 0.03921569
0.58823529 0.08627451 0.02352941
0.70588235 0.08235294 0.01176471
0.80392157 0.10196078 0.00000000
0.89019608 0.14117647 0.00000000
0.97254902 0.19607843 0.00000000
1.00000000 0.26666667 0.00000000
0.00000000 0.13333333 0.06666667
0.00000000 0.13333333 0.06274510
0.05882353 0.14509804 0.05882353
0.16470588 0.15294118 0.05490196
0.25098039 0.14509804 0.05490196
0.36470588 0.14901961 0.04313725
0.49411765 0.14901961 0.03529412
0.60784314 0.14901961 0.01960784
0.71764706 0.15294118 0.00784314
0.80784314 0.16862745 0.00000000
0.89411765 0.20000000 0.00000000
0.97647059 0.24313725 0.00000000
1.00000000 0.30196078 0.00000000
0.00000000 0.22745098 0.07058824
0.00000000 0.22745098 0.07058824
0.00000000 0.23137255 0.05882353
0.15294118 0.24313725 0.03137255
0.30588235 0.25490196 0.00784314
0.41960784 0.23921569 0.01960784
0.52941176 0.22745098 0.02352941
0.63137255 0.23137255 0.01176471
0.73333333 0.23921569 0.00000000
0.81960784 0.25098039 0.00000000
0.90196078 0.27450980 0.00000000
0.97647059 0.30980392 0.00000000
1.00000000 0.35686275 0.00000000
0.00000000 0.36078431 0.08627451
0.00000000 0.36470588 0.08627451
0.00000000 0.36862745 0.08235294
0.09803922 0.38039216 0.05098039
0.30196078 0.38823529 0.00000000
0.49019608 0.40392157 0.00000000
0.58823529 0.37254902 0.00000000
0.66666667 0.34509804 0.00000000
0.75294118 0.33333333 0.00000000
0.83529412 0.34117647 0.00000000
0.90980392 0.36078431 0.00000000
0.97647059 0.38431373 0.00000000
1.00000000 0.42745098 0.00000000
0.00000000 0.51372549 0.10980392
0.00000000 0.51764706 0.11372549
0.00000000 0.51372549 0.10980392
0.00000000 0.52156863 0.08627451
0.27843137 0.52549020 0.01568627
0.45882353 0.52941176 0.00000000
0.63921569 0.54901961 0.00000000
0.71372549 0.50980392 0.00000000
0.78039216 0.47058824 0.00000000
0.84705882 0.44705882 0.00000000
0.91764706 0.45098039 0.00000000
0.98431373 0.47058824 0.00000000
1.00000000 0.50196078 0.00000000
0.00000000 0.64313725 0.15686275
0.00000000 0.64313725 0.15686275
0.00000000 0.64705882 0.16078431
0.00000000 0.64705882 0.15294118
0.26666667 0.64705882 0.11372549
0.43921569 0.65098039 0.02352941
0.58431373 0.64705882 0.00000000
0.72941176 0.65882353 0.00000000
0.81176471 0.62745098 0.00000000
0.87058824 0.59607843 0.00000000
0.92941176 0.56862745 0.00000000
0.98431373 0.55686275 0.00000000
1.00000000 0.58039216 0.00000000
0.00000000 0.72549020 0.21568627
0.00000000 0.73725490 0.22745098
0.00000000 0.73333333 0.22352941
0.10196078 0.73725490 0.22745098
0.29019608 0.73333333 0.20392157
0.43529412 0.73725490 0.16470588
0.56078431 0.73333333 0.09411765
0.67843137 0.72941176 0.00000000
0.81176471 0.73725490 0.00000000
0.88235294 0.71372549 0.00000000
0.93725490 0.68627451 0.00000000
0.98823529 0.67058824 0.00000000
1.00000000 0.65882353 0.03921569
0.00000000 0.80784314 0.30980392
0.04313725 0.81568627 0.31764706
0.16862745 0.81568627 0.31764706
0.26666667 0.81176471 0.31764706
0.36470588 0.81176471 0.31372549
0.46274510 0.81176471 0.28627451
0.56470588 0.81176471 0.25098039
0.66274510 0.80784314 0.20392157
0.76862745 0.80784314 0.12941176
0.87058824 0.80784314 0.00000000
0.94509804 0.80000000 0.00000000
0.98823529 0.78039216 0.00000000
1.00000000 0.76470588 0.10196078
0.32941176 0.87450980 0.42745098
0.34901961 0.87450980 0.43137255
0.37647059 0.87450980 0.43137255
0.41960784 0.87450980 0.43137255
0.47450980 0.87450980 0.43529412
0.53333333 0.87058824 0.42352941
0.60784314 0.87058824 0.39607843
0.67843137 0.87058824 0.36470588
0.75686275 0.86666667 0.32156863
0.83921569 0.86666667 0.26666667
0.92156863 0.86666667 0.18823529
0.98823529 0.86274510 0.14509804
1.00000000 0.84705882 0.19607843
0.50980392 0.91764706 0.54901961
0.51764706 0.91764706 0.55294118
0.52941176 0.91764706 0.54901961
0.55686275 0.91764706 0.55294118
0.58823529 0.91764706 0.55686275
0.62352941 0.91372549 0.55686275
0.66666667 0.91372549 0.53725490
0.71372549 0.91764706 0.51764706
0.76862745 0.91372549 0.48627451
0.83137255 0.91372549 0.44705882
0.89803922 0.91372549 0.40000000
0.96078431 0.90980392 0.34117647
1.00000000 0.91764706 0.30980392
0.63921569 0.95294118 0.65882353
0.64313725 0.95294118 0.66274510
0.65098039 0.95294118 0.66274510
0.66666667 0.95294118 0.66274510
0.68235294 0.94901961 0.66274510
0.70588235 0.94901961 0.66274510
0.73333333 0.95294118 0.65882353
0.76078431 0.95294118 0.64705882
0.80000000 0.95294118 0.63137255
0.83921569 0.95294118 0.60784314
0.88627451 0.95294118 0.58039216
0.93725490 0.94901961 0.53725490
0.99215686 0.94901961 0.49019608
0.73725490 0.98039216 0.74901961
0.73725490 0.97647059 0.74901961
0.74117647 0.97647059 0.74901961
0.75294118 0.97647059 0.74901961
0.76470588 0.98039216 0.75294118
0.78039216 0.98039216 0.75686275
0.79607843 0.97647059 0.75686275
0.81176471 0.97647059 0.74901961
0.83529412 0.98039216 0.74117647
0.86274510 0.98039216 0.72941176
0.89019608 0.98039216 0.71372549
0.92549020 0.98039216 0.69803922
0.96470588 0.98039216 0.67843137
0.00392157 0.06666667 0.07843137
0.01176471 0.06666667 0.07843137
0.04313725 0.06274510 0.08235294
0.12941176 0.06274510 0.07450980
0.22352941 0.07843137 0.07843137
0.33333333 0.07843137 0.07843137
0.45490196 0.07058824 0.07843137
0.57647059 0.05098039 0.07450980
0.68627451 0.03921569 0.06666667
0.78823529 0.05882353 0.05490196
0.87843137 0.10196078 0.03921569
0.95686275 0.16078431 0.02352941
1.00000000 0.23529412 0.01176471
0.00000000 0.07843137 0.08235294
0.00784314 0.07843137 0.08235294
0.06274510 0.08235294 0.08235294
0.14117647 0.09411765 0.08235294
0.23137255 0.10196078 0.08235294
0.34509804 0.10196078 0.07843137
0.46666667 0.09803922 0.07450980
0.58431373 0.08627451 0.07058824
0.69803922 0.09019608 0.06666667
0.79607843 0.10588235 0.05490196
0.88235294 0.14117647 0.03529412
0.96078431 0.18823529 0.01960784
1.00000000 0.25882353 0.01176471
0.00000000 0.13333333 0.09803922
0.00000000 0.13333333 0.09411765
0.05490196 0.14117647 0.08627451
0.15686275 0.14509804 0.08235294
0.25490196 0.14509804 0.08627451
0.36470588 0.14901961 0.07843137
0.49411765 0.14901961 0.07843137
0.60784314 0.15294118 0.07450980
0.70980392 0.15686275 0.06274510
0.80392157 0.17254902 0.05098039
0.89411765 0.20392157 0.03529412
0.96470588 0.23921569 0.01568627
1.00000000 0.29803922 0.01176471
0.00000000 0.22745098 0.10980392
0.00000000 0.22745098 0.10980392
0.00000000 0.23137255 0.10588235
0.15294118 0.23921569 0.08627451
0.30196078 0.24705882 0.07058824
0.41176471 0.23137255 0.07843137
0.53333333 0.23137255 0.07843137
0.63137255 0.23137255 0.07058824
0.72941176 0.23921569 0.05882353
0.81960784 0.25490196 0.04705882
0.89803922 0.27450980 0.02745098
0.97254902 0.30588235 0.01176471
1.00000000 0.35686275 0.01568627
0.00000000 0.36078431 0.13333333
0.00000000 0.36078431 0.13333333
0.00000000 0.36470588 0.13333333
0.11372549 0.37647059 0.11372549
0.30196078 0.38431373 0.07058824
0.48235294 0.39215686 0.00392157
0.58431373 0.36470588 0.03529412
0.66274510 0.34117647 0.05490196
0.74509804 0.33333333 0.04705882
0.83137255 0.34509804 0.03529412
0.90588235 0.36078431 0.01960784
0.97647059 0.38431373 0.00784314
1.00000000 0.42745098 0.01960784
0.00000000 0.50980392 0.15686275
0.00000000 0.51372549 0.16078431
0.00000000 0.51372549 0.15686275
0.01568627 0.51764706 0.14509804
0.28627451 0.52156863 0.10588235
0.45882353 0.52549020 0.02352941
0.63529412 0.54117647 0.00000000
0.70980392 0.50588235 0.00000000
0.77647059 0.46666667 0.00000000
0.84313725 0.43921569 0.01960784
0.91372549 0.45098039 0.01568627
0.98039216 0.46666667 0.00784314
1.00000000 0.50196078 0.03529412
0.00000000 0.64313725 0.20000000
0.00000000 0.64313725 0.20000000
0.00000000 0.64313725 0.19607843
0.01176471 0.64313725 0.20000000
0.28235294 0.64313725 0.16862745
0.44313725 0.64705882 0.11764706
0.58823529 0.64705882 0.00392157
0.72941176 0.65882353 0.00000000
0.80392157 0.62352941 0.00000000
0.86666667 0.58823529 0.00000000
0.92941176 0.56862745 0.00000000
0.98431373 0.55686275 0.03921569
1.00000000 0.58039216 0.07450980
0.00000000 0.72156863 0.24705882
0.00000000 0.73725490 0.25882353
0.00000000 0.73725490 0.25882353
0.15686275 0.73333333 0.25882353
0.30980392 0.73333333 0.24313725
0.44313725 0.73333333 0.21176471
0.56862745 0.73333333 0.15686275
0.67843137 0.72941176 0.07058824
0.80784314 0.73333333 0.00000000
0.88235294 0.71372549 0.00000000
0.93333333 0.68627451 0.00000000
0.98823529 0.67058824 0.03137255
1.00000000 0.65882353 0.10588235
0.00392157 0.80784314 0.33333333
0.13725490 0.81568627 0.34509804
0.21176471 0.81176471 0.34509804
0.29411765 0.81176471 0.34509804
0.38039216 0.80784314 0.34509804
0.47450980 0.81176471 0.32156863
0.57254902 0.80784314 0.28627451
0.66666667 0.80784314 0.24313725
0.76862745 0.80784314 0.18039216
0.87450980 0.81176471 0.05882353
0.94509804 0.80000000 0.00784314
0.98823529 0.77647059 0.09019608
1.00000000 0.76470588 0.14901961
0.35294118 0.87450980 0.44705882
0.37254902 0.87450980 0.45490196
0.39607843 0.87450980 0.45098039
0.43921569 0.87450980 0.45490196
0.48627451 0.87058824 0.45490196
0.54901961 0.87450980 0.44705882
0.61176471 0.87058824 0.41960784
0.68235294 0.87058824 0.39215686
0.76078431 0.86666667 0.34901961
0.84313725 0.86666667 0.29803922
0.92156863 0.86666667 0.22745098
0.98823529 0.86274510 0.19215686
1.00000000 0.85098039 0.23137255
0.51764706 0.91764706 0.56470588
0.52941176 0.91764706 0.56862745
0.54509804 0.91764706 0.56862745
0.56470588 0.91372549 0.56470588
0.59215686 0.91764706 0.56862745
0.63137255 0.91372549 0.56862745
0.67058824 0.91372549 0.55294118
0.71764706 0.91764706 0.53333333
0.77254902 0.91764706 0.50588235
0.83529412 0.91372549 0.47058824
0.89411765 0.91372549 0.42352941
0.96078431 0.91372549 0.36470588
1.00000000 0.91764706 0.33725490
0.64313725 0.95294118 0.66666667
0.64705882 0.94901961 0.66666667
0.65490196 0.95294118 0.67058824
0.67058824 0.95294118 0.67058824
0.68627451 0.95294118 0.67058824
0.70980392 0.95294118 0.67450980
0.73333333 0.94901961 0.66666667
0.76078431 0.94901961 0.65490196
0.80000000 0.95294118 0.63921569
0.84313725 0.95294118 0.61960784
0.88627451 0.95294118 0.59215686
0.93725490 0.95294118 0.55294118
0.99215686 0.94901961 0.50588235
0.74117647 0.97647059 0.75294118
0.74117647 0.97647059 0.75294118
0.74901961 0.98039216 0.75686275
0.75686275 0.98039216 0.75686275
0.76862745 0.98039216 0.75686275
0.78039216 0.98039216 0.76078431
0.79607843 0.97647059 0.76078431
0.81568627 0.98039216 0.75686275
0.83529412 0.98039216 0.74509804
0.86274510 0.98039216 0.73725490
0.89019608 0.98039216 0.72156863
0.92941176 0.98039216 0.70588235
0.96862745 0.98039216 0.68627451
0.00000000 0.06666667 0.11764706
0.01176471 0.06274510 0.11764706
0.05490196 0.06274510 0.12156863
0.12549020 0.06666667 0.12941176
0.23137255 0.05490196 0.12941176
0.34509804 0.02352941 0.11372549
0.45882353 0.05490196 0.12549020
0.57647059 0.05882353 0.13333333
0.68627451 0.05098039 0.12941176
0.78431373 0.07058824 0.12156863
0.87450980 0.11372549 0.11372549
0.95686275 0.16862745 0.10980392
1.00000000 0.23921569 0.10980392
0.00000000 0.07843137 0.12941176
0.00392157 0.08235294 0.12941176
0.06274510 0.08627451 0.13333333
0.13725490 0.09411765 0.13725490
0.24313725 0.08235294 0.12941176
0.35294118 0.09803922 0.13333333
0.47450980 0.10588235 0.13725490
0.58823529 0.09803922 0.13333333
0.69411765 0.09803922 0.12941176
0.79215686 0.11372549 0.12156863
0.88235294 0.14901961 0.11372549
0.96078431 0.19607843 0.10588235
1.00000000 0.26274510 0.10980392
0.00000000 0.13333333 0.14117647
0.00000000 0.13333333 0.14117647
0.05882353 0.13725490 0.14509804
0.15294118 0.14509804 0.14509804
0.25490196 0.15294118 0.14117647
0.36862745 0.15294118 0.14117647
0.49803922 0.15294118 0.13725490
0.60392157 0.15686275 0.13725490
0.70980392 0.16078431 0.12941176
0.80000000 0.17647059 0.12156863
0.88627451 0.20784314 0.11764706
0.96470588 0.24313725 0.10980392
1.00000000 0.30196078 0.10980392
0.00000000 0.22352941 0.16862745
0.00000000 0.22352941 0.17254902
0.02352941 0.22352941 0.16470588
0.15686275 0.23137255 0.15294118
0.29803922 0.23529412 0.14901961
0.41176471 0.23137255 0.14901961
0.52941176 0.23529412 0.14509804
0.63137255 0.23921569 0.14117647
0.72549020 0.24313725 0.12941176
0.81176471 0.25490196 0.12549020
0.89411765 0.27843137 0.11372549
0.96862745 0.30980392 0.10980392
1.00000000 0.36078431 0.11372549
0.00000000 0.35686275 0.20392157
0.00000000 0.36078431 0.19607843
0.00000000 0.36078431 0.19215686
0.14117647 0.36470588 0.18431373
0.30980392 0.37647059 0.15686275
0.47450980 0.38039216 0.13725490
0.57647059 0.35294118 0.14117647
0.65490196 0.33333333 0.14117647
0.74509804 0.33725490 0.13333333
0.82745098 0.34901961 0.12549020
0.90588235 0.36470588 0.11764706
0.97647059 0.38823529 0.11372549
1.00000000 0.42745098 0.12156863
0.00000000 0.50588235 0.22352941
0.00000000 0.50588235 0.22352941
0.00000000 0.50588235 0.22352941
0.12156863 0.50980392 0.22352941
0.29803922 0.51372549 0.19215686
0.46274510 0.52156863 0.15294118
0.62352941 0.52549020 0.09411765
0.70196078 0.49411765 0.11372549
0.76862745 0.45882353 0.12549020
0.83921569 0.44313725 0.12941176
0.91372549 0.45490196 0.12156863
0.98039216 0.47450980 0.12549020
1.00000000 0.50588235 0.13725490
0.00000000 0.64313725 0.26666667
0.00000000 0.64313725 0.26666667
0.00000000 0.63921569 0.26666667
0.14509804 0.63921569 0.26274510
0.30980392 0.64313725 0.24705882
0.45098039 0.64313725 0.21176471
0.59215686 0.64313725 0.16078431
0.72941176 0.65098039 0.05882353
0.80000000 0.61568627 0.08627451
0.86274510 0.58431373 0.10980392
0.92549020 0.56470588 0.12941176
0.98039216 0.56078431 0.14117647
1.00000000 0.58431373 0.15686275
0.00000000 0.72156863 0.30588235
0.00000000 0.73333333 0.31764706
0.07058824 0.73333333 0.31764706
0.22745098 0.73333333 0.31764706
0.34117647 0.72941176 0.30980392
0.45882353 0.72941176 0.28235294
0.57254902 0.72549020 0.23921569
0.68235294 0.72549020 0.18823529
0.81176471 0.73333333 0.08627451
0.87843137 0.70588235 0.09803922
0.93333333 0.68235294 0.12941176
0.98431373 0.66274510 0.15294118
1.00000000 0.65490196 0.18431373
0.16862745 0.80392157 0.38039216
0.22352941 0.81176471 0.39215686
0.27058824 0.80784314 0.39215686
0.33725490 0.80784314 0.39215686
0.41176471 0.80784314 0.39215686
0.49019608 0.80784314 0.37254902
0.58039216 0.80784314 0.34117647
0.67058824 0.80392157 0.30588235
0.77254902 0.80784314 0.25882353
0.87450980 0.80784314 0.18823529
0.94117647 0.79607843 0.16862745
0.98431373 0.77647059 0.19215686
1.00000000 0.76078431 0.22352941
0.39215686 0.87058824 0.48627451
0.40784314 0.87058824 0.49019608
0.43137255 0.87058824 0.49019608
0.46666667 0.87058824 0.49411765
0.51372549 0.87058824 0.49411765
0.56470588 0.87058824 0.48627451
0.62352941 0.87058824 0.46666667
0.68627451 0.86666667 0.43529412
0.76470588 0.86666667 0.40000000
0.84313725 0.86666667 0.35294118
0.92156863 0.86666667 0.29411765
0.98431373 0.86274510 0.26666667
1.00000000 0.84705882 0.29019608
0.54117647 0.91764706 0.59215686
0.54901961 0.91372549 0.59215686
0.56078431 0.91764706 0.59215686
0.58431373 0.91764706 0.59215686
0.61176471 0.91372549 0.59607843
0.64313725 0.91372549 0.59607843
0.68235294 0.91764706 0.58431373
0.72549020 0.91764706 0.56470588
0.77647059 0.91372549 0.53725490
0.83137255 0.90980392 0.50196078
0.89803922 0.91372549 0.46274510
0.96078431 0.90980392 0.40784314
1.00000000 0.91372549 0.38431373
0.65490196 0.94901961 0.68235294
0.65882353 0.94901961 0.68627451
0.66666667 0.94901961 0.68627451
0.67843137 0.94901961 0.68627451
0.69803922 0.94901961 0.69019608
0.72156863 0.95294118 0.69019608
0.74117647 0.94901961 0.68627451
0.76862745 0.94901961 0.67450980
0.80392157 0.95294118 0.66274510
0.84313725 0.95294118 0.63921569
0.88627451 0.94901961 0.61568627
0.93725490 0.95294118 0.58039216
0.98823529 0.94901961 0.53333333
0.74901961 0.98039216 0.76470588
0.74901961 0.98039216 0.76470588
0.75294118 0.97647059 0.76078431
0.76078431 0.97647059 0.76470588
0.77254902 0.98039216 0.76862745
0.78823529 0.97647059 0.76862745
0.80392157 0.98039216 0.77254902
0.81960784 0.98039216 0.76470588
0.83921569 0.97647059 0.75686275
0.86274510 0.98039216 0.74509804
0.89411765 0.98039216 0.73333333
0.92549020 0.98039216 0.71372549
0.96862745 0.98431373 0.69803922
0.00000000 0.06666667 0.18431373
0.00784314 0.06274510 0.18431373
0.06666667 0.06274510 0.18823529
0.13725490 0.06274510 0.19215686
0.22352941 0.06666667 0.19607843
0.34901961 0.05882353 0.20392157
0.48235294 0.00000000 0.19607843
0.59607843 0.00000000 0.17254902
0.69019608 0.00000000 0.18039216
0.78431373 0.08627451 0.19607843
0.87058824 0.12549020 0.18823529
0.95294118 0.18039216 0.18823529
1.00000000 0.24705882 0.18823529
0.00000000 0.08235294 0.19607843
0.00000000 0.08627451 0.20000000
0.06274510 0.08627451 0.19607843
0.14509804 0.09411765 0.20392157
0.23529412 0.10196078 0.20392157
0.35686275 0.09019608 0.20784314
0.49411765 0.02352941 0.19607843
0.60392157 0.00000000 0.18823529
0.69803922 0.07843137 0.19607843
0.78823529 0.12941176 0.19607843
0.87450980 0.16078431 0.19215686
0.95686275 0.20784314 0.18823529
1.00000000 0.26666667 0.18823529
0.00000000 0.12941176 0.20784314
0.00000000 0.12941176 0.20784314
0.06274510 0.14117647 0.21176471
0.15686275 0.14509804 0.21568627
0.25882353 0.15686275 0.21960784
0.38431373 0.14117647 0.21176471
0.50980392 0.13333333 0.20392157
0.60392157 0.16470588 0.21176471
0.70196078 0.17254902 0.20784314
0.79607843 0.18823529 0.20000000
0.88627451 0.21568627 0.19607843
0.96078431 0.25098039 0.19215686
1.00000000 0.30980392 0.19607843
0.00000000 0.21568627 0.22352941
0.00000000 0.21960784 0.22745098
0.05098039 0.21960784 0.22745098
0.16862745 0.22745098 0.23137255
0.29019608 0.23529412 0.23529412
0.41176471 0.24313725 0.23137255
0.52941176 0.24705882 0.22745098
0.62745098 0.25098039 0.22352941
0.72156863 0.25098039 0.21176471
0.80784314 0.26666667 0.20392157
0.89019608 0.28627451 0.20000000
0.96470588 0.31764706 0.19607843
1.00000000 0.36470588 0.20000000
0.00000000 0.35686275 0.27450980
0.00000000 0.35686275 0.27450980
0.09803922 0.35294118 0.27450980
0.18823529 0.35686275 0.26666667
0.32156863 0.36862745 0.25098039
0.45882353 0.35686275 0.23921569
0.56078431 0.34117647 0.23529412
0.65098039 0.34117647 0.22745098
0.73725490 0.34509804 0.21960784
0.82352941 0.35294118 0.21176471
0.89803922 0.36862745 0.20392157
0.97254902 0.39607843 0.20392157
1.00000000 0.43529412 0.20784314
0.00000000 0.49803922 0.32156863
0.00000000 0.49411765 0.31764706
0.06666667 0.49803922 0.30588235
0.20392157 0.50196078 0.30196078
0.32549020 0.50588235 0.29019608
0.47058824 0.50980392 0.26274510
0.61176471 0.50588235 0.23137255
0.69019608 0.47843137 0.23137255
0.76078431 0.44705882 0.22745098
0.83529412 0.45098039 0.21960784
0.90980392 0.45882353 0.21568627
0.97647059 0.47843137 0.21568627
1.00000000 0.50980392 0.21960784
0.00000000 0.63137255 0.35294118
0.00000000 0.63137255 0.34117647
0.10196078 0.63137255 0.34117647
0.23529412 0.62745098 0.34117647
0.34901961 0.63137255 0.33725490
0.46666667 0.63137255 0.30980392
0.59215686 0.63137255 0.27058824
0.72549020 0.63921569 0.22745098
0.79215686 0.60000000 0.22745098
0.85882353 0.57647059 0.23137255
0.91372549 0.55294118 0.23137255
0.97647059 0.56470588 0.23137255
1.00000000 0.58823529 0.24313725
0.00000000 0.71372549 0.37647059
0.14901961 0.72549020 0.39215686
0.21960784 0.72549020 0.39215686
0.30196078 0.72549020 0.38823529
0.38823529 0.72549020 0.38823529
0.47843137 0.72156863 0.36862745
0.58039216 0.72156863 0.33333333
0.68235294 0.71764706 0.29411765
0.80784314 0.72941176 0.23921569
0.87058824 0.70196078 0.23921569
0.92549020 0.67843137 0.24313725
0.98039216 0.65882353 0.25098039
1.00000000 0.65882353 0.26666667
0.28235294 0.80392157 0.45098039
0.31372549 0.80392157 0.45490196
0.34509804 0.80392157 0.45490196
0.39215686 0.80392157 0.45490196
0.45490196 0.80392157 0.45882353
0.52156863 0.80392157 0.45098039
0.59607843 0.80392157 0.42352941
0.67843137 0.80392157 0.39215686
0.77254902 0.80000000 0.34901961
0.87450980 0.80784314 0.29411765
0.93725490 0.79215686 0.28627451
0.98431373 0.77647059 0.29411765
1.00000000 0.76078431 0.30588235
0.44313725 0.86666667 0.53725490
0.45882353 0.86666667 0.54117647
0.47843137 0.86666667 0.54117647
0.50588235 0.87058824 0.54509804
0.54509804 0.86666667 0.54509804
0.58823529 0.86666667 0.54509804
0.63921569 0.86666667 0.52549020
0.69803922 0.86666667 0.50196078
0.76862745 0.86666667 0.47058824
0.84313725 0.86274510 0.42745098
0.92156863 0.86274510 0.37647059
0.98039216 0.85882353 0.35686275
1.00000000 0.84705882 0.37254902
0.57254902 0.91764706 0.62745098
0.58039216 0.91372549 0.62745098
0.59215686 0.91764706 0.63137255
0.60784314 0.91372549 0.63137255
0.63529412 0.91372549 0.63137255
0.66274510 0.91372549 0.63137255
0.69803922 0.91372549 0.62745098
0.73333333 0.91372549 0.60784314
0.78039216 0.90980392 0.58431373
0.83529412 0.91372549 0.55686275
0.89803922 0.91372549 0.52156863
0.95686275 0.90980392 0.47058824
1.00000000 0.91372549 0.45490196
0.67450980 0.94901961 0.70588235
0.67843137 0.94901961 0.70980392
0.68627451 0.95294118 0.70980392
0.69803922 0.95294118 0.71372549
0.71372549 0.94901961 0.70980392
0.72941176 0.94901961 0.70980392
0.75294118 0.94901961 0.71372549
0.77647059 0.94901961 0.70196078
0.80784314 0.94901961 0.69019608
0.84705882 0.94901961 0.67058824
0.88627451 0.94901961 0.64705882
0.93725490 0.94901961 0.61568627
0.98823529 0.94901961 0.57647059
0.75686275 0.97647059 0.77647059
0.76078431 0.97647059 0.78039216
0.76470588 0.97647059 0.77647059
0.76862745 0.97647059 0.77647059
0.78039216 0.97647059 0.78039216
0.79215686 0.97647059 0.78039216
0.80784314 0.97647059 0.78431373
0.82745098 0.98039216 0.78039216
0.84313725 0.97647059 0.76862745
0.86666667 0.97647059 0.76078431
0.89411765 0.97647059 0.74901961
0.92941176 0.98039216 0.73725490
0.96470588 0.98039216 0.71764706
0.00000000 0.06274510 0.26274510
0.00000000 0.06274510 0.26666667
0.06274510 0.05882353 0.26666667
0.14901961 0.06274510 0.27450980
0.24313725 0.06274510 0.28235294
0.33725490 0.06274510 0.27843137
0.48627451 0.04705882 0.29803922
0.60392157 0.00000000 0.29019608
0.71372549 0.00000000 0.27058824
0.80784314 0.00000000 0.24313725
0.88627451 0.00000000 0.24705882
0.95686275 0.14509804 0.25882353
1.00000000 0.25490196 0.27058824
0.00000000 0.08627451 0.27450980
0.00000000 0.08627451 0.27450980
0.06666667 0.09019608 0.27843137
0.16078431 0.09803922 0.28235294
0.25490196 0.09803922 0.28627451
0.35294118 0.10196078 0.29019608
0.50196078 0.09803922 0.30588235
0.61568627 0.03529412 0.29803922
0.71764706 0.00000000 0.27058824
0.81176471 0.00000000 0.24705882
0.89019608 0.07843137 0.25882353
0.95294118 0.20000000 0.26666667
1.00000000 0.27450980 0.27450980
0.00000000 0.13333333 0.29019608
0.00000000 0.14117647 0.29019608
0.06666667 0.14509804 0.29411765
0.16862745 0.14901961 0.29411765
0.27450980 0.15686275 0.30196078
0.38431373 0.16470588 0.30980392
0.51764706 0.16470588 0.31372549
0.62352941 0.12549020 0.29411765
0.72549020 0.07058824 0.27058824
0.80784314 0.12941176 0.27058824
0.88235294 0.21176471 0.27450980
0.95294118 0.26274510 0.27450980
1.00000000 0.31372549 0.27843137
0.00000000 0.20784314 0.30196078
0.00000000 0.20784314 0.30196078
0.01568627 0.21176471 0.30588235
0.18823529 0.23137255 0.31764706
0.30196078 0.24313725 0.32549020
