core/profiles/src/main/assets/luts/fuji_400h.cube
# Source: RawTherapee Film Simulation Collection (HaldCLUT.zip)
# Converted from: HaldCLUT/Color/Fuji/Fuji 400H 2.png
TITLE "fuji_400h"
LUT_3D_SIZE 7
DOMAIN_MIN 0.0 0.0 0.0
DOMAIN_MAX 1.0 1.0 1.0
0.01960784 0.01960784 0.01176471
0.12549020 0.02352941 0.01176471
0.33333333 0.00000000 0.00784314
0.60784314 0.00000000 0.00000000
0.81568627 0.00000000 0.00000000
0.95686275 0.07843137 0.00000000
1.00000000 0.23529412 0.00000000
0.00000000 0.13333333 0.01568627
0.10980392 0.13725490 0.00784314
0.34117647 0.14509804 0.00000000
0.60784314 0.12941176 0.00000000
0.80784314 0.14901961 0.00000000
0.94509804 0.22352941 0.00000000
1.00000000 0.30980392 0.00000000
0.00000000 0.32549020 0.00000000
0.00000000 0.32156863 0.00000000
0.30196078 0.33725490 0.00000000
0.58823529 0.36078431 0.00000000
0.78431373 0.36862745 0.00000000
0.92549020 0.40000000 0.00000000
1.00000000 0.43921569 0.00000000
0.00000000 0.53333333 0.00000000
0.00000000 0.52549020 0.00000000
0.24313725 0.52549020 0.00000000
0.52549020 0.53333333 0.00000000
0.73725490 0.55686275 0.00000000
0.89019608 0.56470588 0.00000000
1.00000000 0.56862745 0.00000000
0.00000000 0.67843137 0.04705882
0.00000000 0.67843137 0.07450980
0.24705882 0.66274510 0.10196078
0.49803922 0.67058824 0.03137255
0.68627451 0.67843137 0.00000000
0.85490196 0.69803922 0.00000000
1.00000000 0.69803922 0.00000000
0.13333333 0.80784314 0.24313725
0.22352941 0.80392157 0.25098039
0.36078431 0.80000000 0.26666667
0.50980392 0.79607843 0.26666667
0.65882353 0.80392157 0.23921569
0.80784314 0.81176471 0.19607843
0.98431373 0.83529412 0.18431373
0.43921569 0.95294118 0.50980392
0.46274510 0.94901961 0.51372549
0.52156863 0.94901961 0.52941176
0.60000000 0.94509804 0.55294118
0.69411765 0.95294118 0.54901961
0.81176471 0.96078431 0.54117647
0.95686275 0.96862745 0.52941176
0.04705882 0.02745098 0.11372549
0.14117647 0.02745098 0.11764706
0.35686275 0.00000000 0.12156863
0.62352941 0.00000000 0.12941176
0.82352941 0.00000000 0.14117647
0.95294118 0.10588235 0.14117647
1.00000000 0.25098039 0.16470588
0.00000000 0.14901961 0.12549020
0.14117647 0.15294118 0.12941176
0.36470588 0.15294118 0.12941176
0.62745098 0.13333333 0.12549020
0.81176471 0.15686275 0.12156863
0.94509804 0.23529412 0.12156863
1.00000000 0.31764706 0.14901961
0.00000000 0.36078431 0.14117647
0.04705882 0.34509804 0.13333333
0.33333333 0.35294118 0.11764706
0.60784314 0.36470588 0.06274510
0.78823529 0.37254902 0.03137255
0.92549020 0.40392157 0.04313725
1.00000000 0.44313725 0.10196078
0.00000000 0.55294118 0.13725490
0.00000000 0.54509804 0.14509804
0.27843137 0.53333333 0.14901961
0.54509804 0.54509804 0.10196078
0.74509804 0.56078431 0.00000000
0.89411765 0.56078431 0.00000000
1.00000000 0.56862745 0.00000000
0.00000000 0.68627451 0.18823529
0.00000000 0.68235294 0.19607843
0.29019608 0.67058824 0.21568627
0.50588235 0.67058824 0.19215686
0.69019608 0.68235294 0.14901961
0.85490196 0.69803922 0.07450980
1.00000000 0.69803922 0.00000000
0.18431373 0.81176471 0.30980392
0.25490196 0.80784314 0.31372549
0.38039216 0.80392157 0.32549020
0.51764706 0.80000000 0.32941176
0.65882353 0.80392157 0.30980392
0.81176471 0.81568627 0.27843137
0.98039216 0.83137255 0.26666667
0.44705882 0.95294118 0.52941176
0.47058824 0.94901961 0.53333333
0.52549020 0.94901961 0.54901961
0.60784314 0.94901961 0.57254902
0.69411765 0.95294118 0.56862745
0.81568627 0.96078431 0.56078431
0.95686275 0.97254902 0.55294118
0.04705882 0.03529412 0.31764706
0.17647059 0.03137255 0.32156863
0.38823529 0.00000000 0.34117647
0.64313725 0.00000000 0.34117647
0.83137255 0.00000000 0.34509804
0.95686275 0.08235294 0.35294118
1.00000000 0.33333333 0.41960784
0.00000000 0.14901961 0.32941176
0.18431373 0.16470588 0.33725490
0.40392157 0.16470588 0.35294118
0.65490196 0.09411765 0.34901961
0.82745098 0.14509804 0.35686275
0.94509804 0.27450980 0.38039216
1.00000000 0.37647059 0.41176471
0.00000000 0.37647059 0.36078431
0.09411765 0.38039216 0.36470588
0.40784314 0.39215686 0.37254902
0.63921569 0.39215686 0.36862745
0.79607843 0.40392157 0.36862745
0.92156863 0.43137255 0.36862745
1.00000000 0.47058824 0.39215686
0.00000000 0.58823529 0.38039216
0.19607843 0.58431373 0.38431373
0.37647059 0.56470588 0.37254902
0.58039216 0.56470588 0.36078431
0.75686275 0.56862745 0.32941176
0.89803922 0.56470588 0.31372549
1.00000000 0.58039216 0.34117647
0.13333333 0.70980392 0.39215686
0.21960784 0.70588235 0.38823529
0.37647059 0.69019608 0.38823529
0.53333333 0.68235294 0.38823529
0.70196078 0.69019608 0.36862745
0.85882353 0.70196078 0.34117647
1.00000000 0.69411765 0.30980392
0.26666667 0.81960784 0.43529412
0.32156863 0.81960784 0.43921569
0.41568627 0.80784314 0.44313725
0.52941176 0.80000000 0.45098039
0.66274510 0.80392157 0.43921569
0.81176471 0.81568627 0.41960784
0.98039216 0.83137255 0.41568627
0.46274510 0.95294118 0.58039216
0.48235294 0.95294118 0.58431373
0.53725490 0.95294118 0.59215686
0.61176471 0.94901961 0.60784314
0.70588235 0.95294118 0.61960784
0.81960784 0.96078431 0.61176471
0.95686275 0.96862745 0.60392157
0.11764706 0.04705882 0.54117647
0.24705882 0.03529412 0.54901961
0.45098039 0.00000000 0.56078431
0.66666667 0.00000000 0.58039216
0.81176471 0.00000000 0.56470588
0.95686275 0.00000000 0.55294118
1.00000000 0.27843137 0.55686275
0.12941176 0.17647059 0.54901961
0.25490196 0.17647059 0.55294118
0.45882353 0.18039216 0.56470588
0.66666667 0.18823529 0.58431373
0.81176471 0.16078431 0.56862745
0.94901961 0.23529412 0.56078431
1.00000000 0.36470588 0.56862745
0.00000000 0.34117647 0.54509804
0.17647059 0.35294118 0.55294118
0.44705882 0.38823529 0.56862745
0.65098039 0.41568627 0.58823529
0.80000000 0.40392157 0.57254902
0.92156863 0.45098039 0.57254902
1.00000000 0.50980392 0.59215686
0.00000000 0.58823529 0.57647059
0.17254902 0.58823529 0.57647059
0.42745098 0.59215686 0.58039216
0.62745098 0.60000000 0.59215686
0.76470588 0.60000000 0.58431373
0.89019608 0.60392157 0.58431373
1.00000000 0.61568627 0.59215686
0.25490196 0.73333333 0.58039216
0.34509804 0.73333333 0.58431373
0.48235294 0.72156863 0.58823529
0.59215686 0.70588235 0.57647059
0.71764706 0.70588235 0.56862745
0.86274510 0.70196078 0.54117647
1.00000000 0.69411765 0.52941176
0.42745098 0.83529412 0.60784314
0.46274510 0.83137255 0.60784314
0.48627451 0.82745098 0.58823529
0.57254902 0.81176471 0.58039216
0.67450980 0.80784314 0.58039216
0.81568627 0.81960784 0.56862745
0.98039216 0.83529412 0.56470588
0.48235294 0.95686275 0.65098039
0.50196078 0.96078431 0.65098039
0.54901961 0.95686275 0.65490196
0.62745098 0.95294118 0.66666667
0.71372549 0.94901961 0.68235294
0.82745098 0.96078431 0.67843137
0.96470588 0.96862745 0.67058824
0.30588235 0.07058824 0.70588235
0.38039216 0.06274510 0.70588235
0.52941176 0.06274510 0.70980392
0.69411765 0.12549020 0.72156863
0.82352941 0.17254902 0.72941176
0.92549020 0.18431373 0.70980392
1.00000000 0.25882353 0.69411765
0.31372549 0.20000000 0.70588235
0.38431373 0.20000000 0.70980392
0.52941176 0.21176471 0.71372549
0.69019608 0.25098039 0.72156863
0.81568627 0.29019608 0.72941176
0.92156863 0.29411765 0.70980392
1.00000000 0.34509804 0.69803922
0.25490196 0.36078431 0.69803922
0.35686275 0.37647059 0.70196078
0.50980392 0.39215686 0.70588235
0.67058824 0.43137255 0.71764706
0.80000000 0.46666667 0.72941176
0.90980392 0.46274510 0.71372549
1.00000000 0.49411765 0.70588235
0.15294118 0.54117647 0.69019608
0.26666667 0.54117647 0.69019608
0.43137255 0.54117647 0.69019608
0.63529412 0.58431373 0.70980392
0.77254902 0.61960784 0.72549020
0.89411765 0.61176471 0.71764706
1.00000000 0.63529412 0.72156863
0.26666667 0.71764706 0.70980392
0.34117647 0.72156863 0.71372549
0.47450980 0.72156863 0.71372549
0.61960784 0.72156863 0.71764706
0.75294118 0.73333333 0.72941176
0.87058824 0.73333333 0.72156863
0.99607843 0.73333333 0.72549020
0.40784314 0.85882353 0.72156863
0.44705882 0.85490196 0.71764706
0.52941176 0.85098039 0.72156863
0.63921569 0.83921569 0.72156863
0.71372549 0.82352941 0.70980392
0.83137255 0.82745098 0.70588235
0.98823529 0.83529412 0.69803922
0.52941176 0.96862745 0.74901961
0.54901961 0.96470588 0.74901961
0.60392157 0.96470588 0.75686275
0.65490196 0.96470588 0.74901961
0.73333333 0.96078431 0.75294118
0.83529412 0.96078431 0.75686275
0.97647059 0.97647059 0.75686275
0.49411765 0.18039216 0.83529412
0.53333333 0.18823529 0.83921569
0.61568627 0.20784314 0.83921569
0.72549020 0.26274510 0.84313725
0.82745098 0.34117647 0.84313725
0.93333333 0.38431373 0.84705882
1.00000000 0.38823529 0.82745098
0.49019608 0.27058824 0.83529412
0.52941176 0.27450980 0.83529412
0.61176471 0.29411765 0.83529412
0.72156863 0.33725490 0.83921569
0.81960784 0.40392157 0.84313725
0.92941176 0.44313725 0.85098039
1.00000000 0.43921569 0.82745098
0.46666667 0.41568627 0.82745098
0.50588235 0.41960784 0.82745098
0.59215686 0.43921569 0.83137255
0.70196078 0.47058824 0.83529412
0.80784314 0.52156863 0.83921569
0.90980392 0.54509804 0.84313725
1.00000000 0.54117647 0.82745098
0.33725490 0.52941176 0.81176471
0.39607843 0.53333333 0.81568627
0.53725490 0.56078431 0.81960784
0.66666667 0.59215686 0.82352941
0.78431373 0.62745098 0.83529412
0.89803922 0.65490196 0.84313725
1.00000000 0.64705882 0.83529412
0.32156863 0.67843137 0.81176471
0.37254902 0.67843137 0.81568627
0.47450980 0.67843137 0.81568627
0.59215686 0.67450980 0.80784314
0.75686275 0.71764706 0.82745098
0.88627451 0.75294118 0.84313725
1.00000000 0.74509804 0.83921569
0.40000000 0.83921569 0.83529412
0.43529412 0.83529412 0.83137255
0.51764706 0.83921569 0.83529412
0.62352941 0.83921569 0.83529412
0.74117647 0.84313725 0.83921569
0.87843137 0.85882353 0.85098039
0.99215686 0.85490196 0.84705882
0.48627451 0.98039216 0.84705882
0.51372549 0.98431373 0.84705882
0.57647059 0.98039216 0.84705882
0.66666667 0.97647059 0.85490196
0.76470588 0.97254902 0.85490196
0.85490196 0.96470588 0.84705882
0.98823529 0.97647059 0.85098039
0.64313725 0.43921569 0.96078431
0.65882353 0.44313725 0.95686275
0.70588235 0.46274510 0.96078431
0.76862745 0.49411765 0.95686275
0.84313725 0.52941176 0.95294118
0.93725490 0.58039216 0.95294118
1.00000000 0.58823529 0.95686275
0.64313725 0.48627451 0.96078431
0.65490196 0.49019608 0.95686275
0.70196078 0.50588235 0.95686275
0.76470588 0.52549020 0.95686275
0.84313725 0.56078431 0.95294118
0.93725490 0.60392157 0.95294118
1.00000000 0.60784314 0.95686275
0.63137255 0.56470588 0.95686275
0.64705882 0.56862745 0.95686275
0.69411765 0.58039216 0.95686275
0.75686275 0.59607843 0.95294118
0.83921569 0.61960784 0.95294118
0.93333333 0.65490196 0.95294118
1.00000000 0.65882353 0.95686275
0.60000000 0.64313725 0.95686275
0.62352941 0.65098039 0.95686275
0.66666667 0.65490196 0.95294118
0.74117647 0.67058824 0.95294118
0.82745098 0.68627451 0.95294118
0.92941176 0.71372549 0.95294118
1.00000000 0.72156863 0.95686275
0.50588235 0.70588235 0.95294118
0.52941176 0.70588235 0.95294118
0.59215686 0.70980392 0.95294118
0.69411765 0.72941176 0.95294118
0.80392157 0.75294118 0.95294118
0.91764706 0.77647059 0.95294118
1.00000000 0.79607843 0.96078431
0.50196078 0.83137255 0.96078431
0.52549020 0.83529412 0.96470588
0.57254902 0.83529412 0.96470588
0.64705882 0.83137255 0.96078431
0.74117647 0.83137255 0.96078431
0.89411765 0.85490196 0.96078431
1.00000000 0.87843137 0.96470588
0.49019608 0.97647059 0.96862745
0.50980392 0.97647059 0.96862745
0.56862745 0.98039216 0.97254902
0.64705882 0.97647059 0.96862745
0.74901961 0.98039216 0.97254902
0.87058824 0.98039216 0.97254902
1.00000000 0.98431373 0.97647059
