core/profiles/src/main/assets/luts/fuji_superia_800.cube
# Source: RawTherapee Film Simulation Collection (HaldCLUT.zip)
# Converted from: HaldCLUT/Color/Fuji/Fuji Superia 800 2.png
TITLE "fuji_superia_800"
LUT_3D_SIZE 5
DOMAIN_MIN 0.0 0.0 0.0
DOMAIN_MAX 1.0 1.0 1.0
0.00392157 0.06666667 0.07058824
0.12549020 0.07843137 0.06666667
0.45882353 0.07450980 0.04313725
0.80000000 0.05098039 0.00000000
1.00000000 0.24705882 0.00000000
0.00000000 0.22745098 0.07058824
0.15294118 0.24313725 0.03137255
0.52941176 0.22745098 0.02352941
0.81960784 0.25098039 0.00000000
1.00000000 0.35686275 0.00000000
0.00000000 0.64313725 0.15686275
0.00000000 0.64705882 0.15294118
0.58431373 0.64705882 0.00000000
0.87058824 0.59607843 0.00000000
1.00000000 0.58039216 0.00000000
0.32941176 0.87450980 0.42745098
0.41960784 0.87450980 0.43137255
0.60784314 0.87058824 0.39607843
0.83921569 0.86666667 0.26666667
1.00000000 0.84705882 0.19607843
0.73725490 0.98039216 0.74901961
0.75294118 0.97647059 0.74901961
0.79607843 0.97647059 0.75686275
0.86274510 0.98039216 0.72941176
0.96470588 0.98039216 0.67843137
0.00000000 0.06666667 0.18431373
0.13725490 0.06274510 0.19215686
0.48235294 0.00000000 0.19607843
0.78431373 0.08627451 0.19607843
1.00000000 0.24705882 0.18823529
0.00000000 0.21568627 0.22352941
0.16862745 0.22745098 0.23137255
0.52941176 0.24705882 0.22745098
0.80784314 0.26666667 0.20392157
1.00000000 0.36470588 0.20000000
0.00000000 0.63137255 0.35294118
0.23529412 0.62745098 0.34117647
0.59215686 0.63137255 0.27058824
0.85882353 0.57647059 0.23137255
1.00000000 0.58823529 0.24313725
0.44313725 0.86666667 0.53725490
0.50588235 0.87058824 0.54509804
0.63921569 0.86666667 0.52549020
0.84313725 0.86274510 0.42745098
1.00000000 0.84705882 0.37254902
0.75686275 0.97647059 0.77647059
0.76862745 0.97647059 0.77647059
0.80784314 0.97647059 0.78431373
0.86666667 0.97647059 0.76078431
0.96470588 0.98039216 0.71764706
0.00000000 0.06666667 0.44705882
0.17647059 0.07058824 0.45490196
0.50588235 0.02745098 0.48235294
0.81568627 0.11764706 0.49411765
1.00000000 0.15686275 0.45098039
0.00000000 0.21176471 0.48627451
0.22745098 0.23529412 0.49803922
0.54509804 0.25490196 0.50980392
0.82352941 0.31764706 0.51372549
1.00000000 0.29803922 0.44313725
0.11764706 0.58039216 0.56862745
0.33333333 0.58039216 0.56470588
0.58431373 0.57647059 0.55686275
0.81960784 0.56862745 0.52156863
1.00000000 0.60000000 0.50196078
0.59607843 0.85490196 0.71372549
0.63921569 0.85490196 0.71764706
0.70588235 0.85490196 0.70588235
0.84313725 0.85490196 0.65882353
1.00000000 0.83529412 0.61176471
0.79607843 0.97254902 0.83137255
0.80784314 0.97254902 0.83137255
0.83529412 0.97254902 0.83529412
0.88235294 0.97647059 0.82745098
0.96470588 0.98039216 0.79607843
0.12156863 0.09411765 0.73725490
0.30196078 0.09019608 0.73725490
0.56470588 0.07058824 0.73725490
0.81960784 0.14117647 0.74901961
1.00000000 0.39215686 0.76470588
0.18039216 0.24313725 0.74509804
0.32941176 0.24313725 0.74509804
0.58431373 0.26274510 0.74901961
0.82745098 0.32156863 0.76078431
1.00000000 0.50588235 0.77254902
0.00000000 0.47058824 0.74117647
0.25490196 0.47843137 0.74901961
0.58823529 0.53333333 0.75686275
0.81960784 0.58823529 0.76862745
0.98431373 0.69803922 0.79607843
0.52549020 0.82352941 0.80392157
0.58431373 0.82745098 0.80784314
0.69803922 0.82352941 0.80784314
0.82745098 0.82352941 0.80392157
0.97647059 0.81568627 0.77647059
0.83921569 0.97254902 0.89803922
0.84705882 0.96862745 0.89803922
0.88235294 0.97254902 0.90588235
0.90980392 0.97254902 0.90196078
0.97254902 0.98039216 0.88627451
0.56470588 0.31764706 0.95686275
0.61568627 0.32549020 0.95294118
0.75294118 0.36862745 0.95294118
0.89803922 0.44705882 0.94901961
1.00000000 0.55686275 0.94509804
0.57254902 0.41960784 0.95294118
0.62352941 0.42745098 0.95294118
0.75294118 0.45882353 0.94901961
0.89803922 0.52549020 0.94901961
1.00000000 0.61176471 0.94509804
0.53725490 0.59215686 0.95294118
0.60000000 0.60392157 0.95294118
0.73333333 0.62352941 0.94901961
0.87843137 0.66666667 0.94901961
0.99607843 0.72941176 0.94901961
0.52941176 0.80000000 0.94901961
0.56078431 0.79607843 0.94901961
0.64705882 0.78039216 0.95294118
0.84313725 0.81176471 0.94901961
0.98039216 0.85098039 0.95294118
0.80392157 0.96862745 0.96470588
0.81568627 0.97254902 0.96470588
0.85098039 0.97254902 0.96470588
0.90588235 0.97254902 0.96862745
0.98039216 0.98039216 0.97647059
