core/profiles/src/main/assets/luts/fuji_velvia_50.cube
# Source: RawTherapee Film Simulation Collection (HaldCLUT.zip)
# Converted from: HaldCLUT/Color/Fuji/Fuji Velvia 50.png
TITLE "fuji_velvia_50"
LUT_3D_SIZE 13
DOMAIN_MIN 0.0 0.0 0.0
DOMAIN_MAX 1.0 1.0 1.0
0.00000000 0.00000000 0.00000000
0.01960784 0.00000000 0.00000000
0.07058824 0.00000000 0.00000000
0.16078431 0.00000000 0.00000000
0.27058824 0.00000000 0.00000000
0.36862745 0.00000000 0.00000000
0.45882353 0.00000000 0.00000000
0.54509804 0.00000000 0.00000000
0.63921569 0.00000000 0.00000000
0.72549020 0.00000000 0.00000000
0.81176471 0.00000000 0.00000000
0.89803922 0.00000000 0.00000000
0.98823529 0.00000000 0.00000000
0.00392157 0.02352941 0.00000000
0.01960784 0.01960784 0.00000000
0.07058824 0.01568627 0.00000000
0.16078431 0.00784314 0.00000000
0.27058824 0.00000000 0.00000000
0.36862745 0.00000000 0.00000000
0.45882353 0.00000000 0.00000000
0.54117647 0.00000000 0.00000000
0.63921569 0.00000000 0.00000000
0.72549020 0.00000000 0.00000000
0.80784314 0.00000000 0.00000000
0.89411765 0.00000000 0.00000000
0.98823529 0.00000000 0.00000000
0.01568627 0.08235294 0.00392157
0.03137255 0.07843137 0.00392157
0.07058824 0.07058824 0.00392157
0.16862745 0.05490196 0.00392157
0.27843137 0.03921569 0.00784314
0.37254902 0.02352941 0.00392157
0.46274510 0.01176471 0.00392157
0.54901961 0.00392157 0.00392157
0.64313725 0.00000000 0.00392157
0.72941176 0.00000000 0.00392157
0.81176471 0.00000000 0.00000000
0.89803922 0.00000000 0.00000000
0.98823529 0.00000000 0.00000000
0.03137255 0.19607843 0.01568627
0.05490196 0.19215686 0.01568627
0.09803922 0.18823529 0.01568627
0.17254902 0.17254902 0.01568627
0.28235294 0.15686275 0.01568627
0.37647059 0.14117647 0.01568627
0.46666667 0.12549020 0.01568627
0.55294118 0.10588235 0.01176471
0.64705882 0.08627451 0.01176471
0.72941176 0.06666667 0.00784314
0.81568627 0.04705882 0.00784314
0.90196078 0.02352941 0.00392157
0.99215686 0.00784314 0.00000000
0.01568627 0.31372549 0.02745098
0.02352941 0.30980392 0.02745098
0.07058824 0.30196078 0.02745098
0.15686275 0.29019608 0.02745098
0.27450980 0.27843137 0.02745098
0.37254902 0.26274510 0.02745098
0.46274510 0.25098039 0.02745098
0.55294118 0.23529412 0.02352941
0.64705882 0.21568627 0.02352941
0.73333333 0.20000000 0.01960784
0.81568627 0.18039216 0.01568627
0.90588235 0.16078431 0.01176471
0.99607843 0.13725490 0.00392157
0.00000000 0.41176471 0.04313725
0.00000000 0.40784314 0.04313725
0.00000000 0.40000000 0.04705882
0.14509804 0.39215686 0.04705882
0.26666667 0.38039216 0.04705882
0.36470588 0.36862745 0.04313725
0.46274510 0.35294118 0.04313725
0.55294118 0.34117647 0.03921569
0.64705882 0.32549020 0.03529412
0.73333333 0.30980392 0.03137255
0.81568627 0.29411765 0.02745098
0.90588235 0.27843137 0.01960784
0.99607843 0.25490196 0.01176471
0.00000000 0.50588235 0.06274510
0.00000000 0.50196078 0.06274510
0.00784314 0.49803922 0.06274510
0.09803922 0.49019608 0.06274510
0.24705882 0.48235294 0.06274510
0.35294118 0.47058824 0.06274510
0.45490196 0.45882353 0.05882353
0.54901961 0.44705882 0.05882353
0.64313725 0.43529412 0.05490196
0.72941176 0.41960784 0.04705882
0.81568627 0.40392157 0.03921569
0.90588235 0.38823529 0.03137255
1.00000000 0.36862745 0.01960784
0.00000000 0.60000000 0.07843137
0.00000000 0.59607843 0.07843137
0.00392157 0.59215686 0.07843137
0.07450980 0.58823529 0.07843137
0.21176471 0.58039216 0.07843137
0.33333333 0.56862745 0.07843137
0.44705882 0.55686275 0.07843137
0.54509804 0.54509804 0.07450980
0.63529412 0.53333333 0.07058824
0.72549020 0.52156863 0.06274510
0.81176471 0.50980392 0.05490196
0.90588235 0.49411765 0.04313725
0.99607843 0.47450980 0.03137255
0.00000000 0.69019608 0.09411765
0.00000000 0.69019608 0.09411765
0.00000000 0.68627451 0.09411765
0.04313725 0.67843137 0.09803922
0.17254902 0.67450980 0.09803922
0.32156863 0.66666667 0.09411765
0.44313725 0.65490196 0.09411765
0.53725490 0.64313725 0.09019608
0.63137255 0.63137255 0.09019608
0.71764706 0.61960784 0.08235294
0.81176471 0.60784314 0.07058824
0.90588235 0.59215686 0.05882353
0.99607843 0.57647059 0.03921569
0.00000000 0.78039216 0.09019608
0.00000000 0.78039216 0.09019608
0.00000000 0.77647059 0.09019608
0.01176471 0.77254902 0.09411765
0.13333333 0.76470588 0.09411765
0.30980392 0.75686275 0.09411765
0.43137255 0.74901961 0.09803922
0.52941176 0.73725490 0.09803922
0.62352941 0.72941176 0.09803922
0.71372549 0.71764706 0.09019608
0.80784314 0.70588235 0.08627451
0.90196078 0.69019608 0.07058824
0.99607843 0.67450980 0.05098039
0.00000000 0.87450980 0.11372549
0.00000000 0.87450980 0.11372549
0.00000000 0.87058824 0.11372549
0.00000000 0.86666667 0.11372549
0.09803922 0.86274510 0.11372549
0.28627451 0.85490196 0.10980392
0.41568627 0.84705882 0.10980392
0.50980392 0.83921569 0.10196078
0.60784314 0.82745098 0.09411765
0.70588235 0.81960784 0.07843137
0.80392157 0.80784314 0.07058824
0.90196078 0.79215686 0.06666667
0.99607843 0.78039216 0.04705882
0.00000000 0.97254902 0.14509804
0.00000000 0.96862745 0.14509804
0.00000000 0.96862745 0.14117647
0.00000000 0.96470588 0.14117647
0.01568627 0.96078431 0.14117647
0.23921569 0.95294118 0.14117647
0.38431373 0.94509804 0.13725490
0.48627451 0.93725490 0.13333333
0.59215686 0.92941176 0.12156863
0.69411765 0.92156863 0.10980392
0.79607843 0.90980392 0.07843137
0.89411765 0.89803922 0.01176471
0.98823529 0.88627451 0.00392157
0.00000000 1.00000000 0.15686275
0.00000000 1.00000000 0.15686275
0.00000000 1.00000000 0.15686275
0.02745098 1.00000000 0.15294118
0.13333333 1.00000000 0.15294118
0.29019608 1.00000000 0.14901961
0.40392157 1.00000000 0.14509804
0.49803922 1.00000000 0.14117647
0.59607843 1.00000000 0.13333333
0.69411765 1.00000000 0.11764706
0.79215686 1.00000000 0.09411765
0.89019608 0.99607843 0.03921569
0.98039216 0.98431373 0.00000000
0.00000000 0.00000000 0.00784314
0.01960784 0.00000000 0.00784314
0.07058824 0.00000000 0.01176471
0.15686275 0.00000000 0.01176471
0.27058824 0.00000000 0.01176471
0.36862745 0.00000000 0.00784314
0.45882353 0.00000000 0.01176471
0.54509804 0.00000000 0.00784314
0.64313725 0.00000000 0.00784314
0.72941176 0.00000000 0.00392157
0.81176471 0.00000000 0.00392157
0.90196078 0.00000000 0.00000000
0.99215686 0.00000000 0.00000000
0.00392157 0.02352941 0.01960784
0.01960784 0.01960784 0.01960784
0.07058824 0.01176471 0.01960784
0.15686275 0.00392157 0.01960784
0.27058824 0.00000000 0.01960784
0.36862745 0.00000000 0.01960784
0.45882353 0.00000000 0.01960784
0.54509804 0.00000000 0.01568627
0.63921569 0.00000000 0.01568627
0.72941176 0.00000000 0.01176471
0.81176471 0.00000000 0.00784314
0.89803922 0.00000000 0.00392157
0.99215686 0.00000000 0.00392157
0.01568627 0.08235294 0.02745098
0.03137255 0.07843137 0.02745098
0.07058824 0.07058824 0.02745098
0.16862745 0.05490196 0.02745098
0.27843137 0.03529412 0.02745098
0.37647059 0.02352941 0.02745098
0.46274510 0.01176471 0.02745098
0.54901961 0.00392157 0.02352941
0.64313725 0.00000000 0.02352941
0.72941176 0.00000000 0.01960784
0.81176471 0.00000000 0.01568627
0.90196078 0.00000000 0.01176471
0.99215686 0.00000000 0.00392157
0.03137255 0.19607843 0.04313725
0.05490196 0.19215686 0.04313725
0.09803922 0.18431373 0.04313725
0.17254902 0.17254902 0.04313725
0.28235294 0.15686275 0.04313725
0.37647059 0.14117647 0.03921569
0.46666667 0.12549020 0.03921569
0.55294118 0.10588235 0.03529412
0.64705882 0.08627451 0.03137255
0.73333333 0.06666667 0.02745098
0.81568627 0.04313725 0.02352941
0.90588235 0.02352941 0.01568627
0.99607843 0.00784314 0.01176471
0.01568627 0.31372549 0.05490196
0.02352941 0.30980392 0.05490196
0.07058824 0.30196078 0.05882353
0.15686275 0.29019608 0.05882353
0.27450980 0.27843137 0.05882353
0.37254902 0.26274510 0.05882353
0.46666667 0.24705882 0.05490196
0.55294118 0.23529412 0.05098039
0.64705882 0.21568627 0.04705882
0.73333333 0.20000000 0.04313725
0.81960784 0.18039216 0.03529412
0.90588235 0.16078431 0.02745098
0.99607843 0.13725490 0.01568627
0.00000000 0.41176471 0.07450980
0.00000000 0.40784314 0.07450980
0.00000000 0.40000000 0.07450980
0.14509804 0.39215686 0.07450980
0.26666667 0.38039216 0.07450980
0.36470588 0.36862745 0.07450980
0.46274510 0.35686275 0.07058824
0.55294118 0.34117647 0.07058824
0.64705882 0.32549020 0.06666667
0.73333333 0.30980392 0.05882353
0.81960784 0.29411765 0.05098039
0.90980392 0.27843137 0.03921569
0.99607843 0.25490196 0.02745098
0.00000000 0.50588235 0.09411765
0.00000000 0.50588235 0.09411765
0.00784314 0.49803922 0.09411765
0.09411765 0.49019608 0.09411765
0.24705882 0.48235294 0.09411765
0.35294118 0.47058824 0.09411765
0.45882353 0.45882353 0.09019608
0.55294118 0.44705882 0.08627451
0.64313725 0.43529412 0.08235294
0.72941176 0.41960784 0.07450980
0.81960784 0.40392157 0.06666667
0.90980392 0.38823529 0.05490196
1.00000000 0.36862745 0.03921569
0.00000000 0.60000000 0.10980392
0.00000000 0.59607843 0.10980392
0.00392157 0.59215686 0.10980392
0.07450980 0.58823529 0.10980392
0.21176471 0.58039216 0.10980392
0.33725490 0.56862745 0.10980392
0.45098039 0.55686275 0.10980392
0.54509804 0.54901961 0.10588235
0.63921569 0.53333333 0.10196078
0.72549020 0.52156863 0.09411765
0.81568627 0.50980392 0.08235294
0.90588235 0.49411765 0.07058824
1.00000000 0.47450980 0.05098039
0.00000000 0.69019608 0.11764706
0.00000000 0.69019608 0.11764706
0.00000000 0.68627451 0.12156863
0.04313725 0.68235294 0.12156863
0.17254902 0.67450980 0.12156863
0.32156863 0.66666667 0.12156863
0.44313725 0.65490196 0.12156863
0.53725490 0.64313725 0.12156863
0.63137255 0.63529412 0.11764706
0.72156863 0.61960784 0.10980392
0.81176471 0.60784314 0.10196078
0.90588235 0.59215686 0.08627451
0.99607843 0.57647059 0.06666667
0.00000000 0.78039216 0.14117647
0.00000000 0.78039216 0.14117647
0.00000000 0.77647059 0.14117647
0.01176471 0.77254902 0.14117647
0.13333333 0.76470588 0.14117647
0.30980392 0.75686275 0.14117647
0.43529412 0.74901961 0.13725490
0.52941176 0.73725490 0.13333333
0.62352941 0.72941176 0.12549020
0.71372549 0.71764706 0.11764706
0.80784314 0.70588235 0.11372549
0.90588235 0.69019608 0.10196078
0.99607843 0.67843137 0.07843137
0.00000000 0.87450980 0.16470588
0.00000000 0.87450980 0.16470588
0.00000000 0.87058824 0.16470588
0.00000000 0.86666667 0.16470588
0.09803922 0.86274510 0.16470588
0.28627451 0.85490196 0.16470588
0.41568627 0.84705882 0.16078431
0.50980392 0.83921569 0.15686275
0.60784314 0.82745098 0.15294118
0.70588235 0.81960784 0.14117647
0.80392157 0.80784314 0.12156863
0.90196078 0.79215686 0.09019608
0.99607843 0.78039216 0.07450980
0.00000000 0.97254902 0.18039216
0.00000000 0.97254902 0.18039216
0.00000000 0.96862745 0.18039216
0.00000000 0.96470588 0.18039216
0.01568627 0.96078431 0.18039216
0.23921569 0.95294118 0.18039216
0.38431373 0.94509804 0.17647059
0.48627451 0.94117647 0.17254902
0.59215686 0.92941176 0.16862745
0.69411765 0.92156863 0.15686275
0.79607843 0.90980392 0.14117647
0.89411765 0.89803922 0.10588235
0.98823529 0.88627451 0.01568627
0.00000000 1.00000000 0.19607843
0.00000000 1.00000000 0.19607843
0.00000000 1.00000000 0.19607843
0.02745098 1.00000000 0.19607843
0.13333333 1.00000000 0.19215686
0.29019608 1.00000000 0.18823529
0.40392157 1.00000000 0.18823529
0.49803922 1.00000000 0.18039216
0.59607843 1.00000000 0.17254902
0.69411765 1.00000000 0.16078431
0.79215686 1.00000000 0.14117647
0.89019608 0.99607843 0.10980392
0.98431373 0.98431373 0.00784314
0.00000000 0.00000000 0.03529412
0.01960784 0.00000000 0.03529412
0.06666667 0.00000000 0.03529412
0.15686275 0.00000000 0.03921569
0.27058824 0.00000000 0.03529412
0.37254902 0.00000000 0.03529412
0.45882353 0.00000000 0.03529412
0.54901961 0.00000000 0.03137255
0.64313725 0.00000000 0.02745098
0.72941176 0.00000000 0.02352941
0.81568627 0.00000000 0.01960784
0.90196078 0.00000000 0.01568627
0.99607843 0.00000000 0.00784314
0.00392157 0.02352941 0.05490196
0.01960784 0.01960784 0.05490196
0.06666667 0.01176471 0.05490196
0.15686275 0.00392157 0.05490196
0.27058824 0.00000000 0.05490196
0.36862745 0.00000000 0.05490196
0.45882353 0.00000000 0.05098039
0.54509804 0.00000000 0.05098039
0.64313725 0.00000000 0.04313725
0.72941176 0.00000000 0.03921569
0.81568627 0.00000000 0.03137255
0.90196078 0.00000000 0.02352941
0.99215686 0.00000000 0.01568627
0.01568627 0.07843137 0.07058824
0.03137255 0.07450980 0.07058824
0.07058824 0.07058824 0.07058824
0.16862745 0.05490196 0.07058824
0.27843137 0.03529412 0.07058824
0.37647059 0.01960784 0.07058824
0.46274510 0.01176471 0.06666667
0.54901961 0.00392157 0.06274510
0.64705882 0.00000000 0.05882353
0.73333333 0.00000000 0.05098039
0.81568627 0.00000000 0.04313725
0.90196078 0.00000000 0.03529412
0.99607843 0.00000000 0.02352941
0.03137255 0.19607843 0.09019608
0.05490196 0.19215686 0.09019608
0.09411765 0.18431373 0.09019608
0.17254902 0.16862745 0.09019608
0.28235294 0.15294118 0.09019608
0.38039216 0.13725490 0.08627451
0.46666667 0.12156863 0.08627451
0.55686275 0.10588235 0.08235294
0.65098039 0.08627451 0.07450980
0.73333333 0.06666667 0.06666667
0.81960784 0.04313725 0.05882353
0.90588235 0.02352941 0.04705882
0.99607843 0.00392157 0.03529412
0.01568627 0.31372549 0.10980392
0.01960784 0.30980392 0.10980392
0.07058824 0.30196078 0.10980392
0.15686275 0.29019608 0.10980392
0.27450980 0.27843137 0.10980392
0.37254902 0.26274510 0.10980392
0.46666667 0.24705882 0.10588235
0.55686275 0.23529412 0.10196078
0.65098039 0.21568627 0.09803922
0.73725490 0.20000000 0.09019608
0.81960784 0.18039216 0.07843137
0.90980392 0.16078431 0.06666667
0.99607843 0.13333333 0.04705882
0.00000000 0.41176471 0.13333333
0.00000000 0.40784314 0.13333333
0.00000000 0.40000000 0.13333333
0.14509804 0.39215686 0.13333333
0.26666667 0.38039216 0.13333333
0.36862745 0.36862745 0.13333333
0.46274510 0.35686275 0.13333333
0.55686275 0.34117647 0.12941176
0.64705882 0.32549020 0.12156863
0.73333333 0.30980392 0.11372549
0.81960784 0.29411765 0.10196078
0.90980392 0.27843137 0.08627451
1.00000000 0.25490196 0.06666667
0.00000000 0.50980392 0.15294118
0.00000000 0.50588235 0.15294118
0.00784314 0.49803922 0.15294118
0.09411765 0.49411765 0.15686275
0.24705882 0.48235294 0.15686275
0.35294118 0.47450980 0.15686275
0.45882353 0.46274510 0.15294118
0.55294118 0.44705882 0.15294118
0.64705882 0.43529412 0.14901961
0.73333333 0.41960784 0.13725490
0.81960784 0.40784314 0.12941176
0.90980392 0.38823529 0.11372549
1.00000000 0.36862745 0.08627451
0.00000000 0.60000000 0.16862745
0.00000000 0.60000000 0.16862745
0.00392157 0.59607843 0.16862745
0.07058824 0.58823529 0.16862745
0.21176471 0.58039216 0.16862745
0.33725490 0.57254902 0.16862745
0.45098039 0.56078431 0.16862745
0.54509804 0.54901961 0.16470588
0.63921569 0.53725490 0.16078431
0.72549020 0.52156863 0.15686275
0.81568627 0.50980392 0.14509804
0.90980392 0.49411765 0.12941176
1.00000000 0.47450980 0.10588235
0.00000000 0.69019608 0.19215686
0.00000000 0.69019608 0.19215686
0.00000000 0.68627451 0.19215686
0.03529412 0.68235294 0.19215686
0.17254902 0.67450980 0.19215686
0.32156863 0.66666667 0.19215686
0.44313725 0.65490196 0.19215686
0.53725490 0.64705882 0.18823529
0.63137255 0.63529412 0.18431373
0.72156863 0.62352941 0.17647059
0.81176471 0.60784314 0.16078431
0.90588235 0.59607843 0.14509804
1.00000000 0.58039216 0.12549020
0.00000000 0.78039216 0.21176471
0.00000000 0.78039216 0.21176471
0.00000000 0.77647059 0.21568627
0.00784314 0.77254902 0.21568627
0.13333333 0.76470588 0.21568627
0.30980392 0.75686275 0.21568627
0.43529412 0.74901961 0.21176471
0.52941176 0.74117647 0.21176471
0.62352941 0.72941176 0.20392157
0.71764706 0.71764706 0.20000000
0.81176471 0.70588235 0.18823529
0.90588235 0.69411765 0.16862745
1.00000000 0.67843137 0.13333333
0.00000000 0.87843137 0.23137255
0.00000000 0.87450980 0.23137255
0.00000000 0.87450980 0.23137255
0.00000000 0.86666667 0.23137255
0.09803922 0.86274510 0.23137255
0.28627451 0.85490196 0.23137255
0.41568627 0.84705882 0.23137255
0.50980392 0.83921569 0.22745098
0.60784314 0.83137255 0.22352941
0.70588235 0.81960784 0.21960784
0.80392157 0.80784314 0.20784314
0.90196078 0.79607843 0.18823529
0.99607843 0.78039216 0.14901961
0.00000000 0.97254902 0.24313725
0.00000000 0.97254902 0.24313725
0.00000000 0.96862745 0.24313725
0.00000000 0.96470588 0.24705882
0.01176471 0.96078431 0.24705882
0.23921569 0.95686275 0.24705882
0.38039216 0.94901961 0.24313725
0.48627451 0.94117647 0.24313725
0.59215686 0.93333333 0.23921569
0.69411765 0.92156863 0.23137255
0.79607843 0.90980392 0.22352941
0.89411765 0.89803922 0.20392157
0.99215686 0.88627451 0.16078431
0.00000000 1.00000000 0.25882353
0.00000000 1.00000000 0.25882353
0.00000000 1.00000000 0.25882353
0.03137255 1.00000000 0.25882353
0.13725490 1.00000000 0.25882353
0.29019608 1.00000000 0.25490196
0.40392157 1.00000000 0.25098039
0.49803922 1.00000000 0.25098039
0.59607843 1.00000000 0.24313725
0.69411765 1.00000000 0.23529412
0.79215686 1.00000000 0.21960784
0.89019608 0.99607843 0.19215686
0.98431373 0.98823529 0.14117647
0.00000000 0.00000000 0.09019608
0.01960784 0.00000000 0.09019608
0.06666667 0.00000000 0.09019608
0.15686275 0.00000000 0.09411765
0.27058824 0.00000000 0.09019608
0.37254902 0.00000000 0.09019608
0.46274510 0.00000000 0.09019608
0.54901961 0.00000000 0.08235294
0.64705882 0.00000000 0.07843137
0.73333333 0.00000000 0.07058824
0.81960784 0.00000000 0.05882353
0.90588235 0.00000000 0.04705882
1.00000000 0.00000000 0.03529412
0.00392157 0.02352941 0.12156863
0.01960784 0.01960784 0.12156863
0.06666667 0.01176471 0.12156863
0.15686275 0.00392157 0.12156863
0.27058824 0.00000000 0.12156863
0.37254902 0.00000000 0.12156863
0.46274510 0.00000000 0.11764706
0.54901961 0.00000000 0.11372549
0.64313725 0.00000000 0.10588235
0.73333333 0.00000000 0.09803922
0.81568627 0.00000000 0.08627451
0.90588235 0.00000000 0.07058824
0.99607843 0.00000000 0.05490196
0.01568627 0.07843137 0.14509804
0.03137255 0.07450980 0.14509804
0.07058824 0.06666667 0.14509804
0.16862745 0.05098039 0.14509804
0.27843137 0.03529412 0.14509804
0.37647059 0.01960784 0.14509804
0.46666667 0.00784314 0.14117647
0.55294118 0.00392157 0.13725490
0.64705882 0.00000000 0.12941176
0.73333333 0.00000000 0.12156863
0.81960784 0.00000000 0.10588235
0.90588235 0.00000000 0.09019608
0.99607843 0.00000000 0.07058824
0.03529412 0.19215686 0.16862745
0.05098039 0.19215686 0.16862745
0.09411765 0.18431373 0.16862745
0.17254902 0.16862745 0.16862745
0.28235294 0.15294118 0.16862745
0.38039216 0.13725490 0.16862745
0.47058824 0.12156863 0.16862745
0.55686275 0.10196078 0.16470588
0.65098039 0.08235294 0.15686275
0.73725490 0.06274510 0.14901961
0.81960784 0.04313725 0.13725490
0.90980392 0.01960784 0.11764706
1.00000000 0.00392157 0.09411765
0.01568627 0.31372549 0.18823529
0.01960784 0.30980392 0.19215686
0.06666667 0.30196078 0.19215686
0.15294118 0.29019608 0.19215686
0.27450980 0.27450980 0.19215686
0.37647059 0.26274510 0.19215686
0.46666667 0.24705882 0.19215686
0.55686275 0.23137255 0.18823529
0.65098039 0.21568627 0.18431373
0.73725490 0.20000000 0.17647059
0.82352941 0.18039216 0.16470588
0.91372549 0.15686275 0.14901961
1.00000000 0.13333333 0.12156863
0.00000000 0.41176471 0.21176471
0.00000000 0.40784314 0.21176471
0.00000000 0.40000000 0.21176471
0.14509804 0.39215686 0.21568627
0.26666667 0.38039216 0.21568627
0.36862745 0.36862745 0.21568627
0.46666667 0.35686275 0.21568627
0.55686275 0.34117647 0.21176471
0.65098039 0.32549020 0.20784314
0.73725490 0.30980392 0.20000000
0.82352941 0.29411765 0.19215686
0.91372549 0.27843137 0.17647059
1.00000000 0.25490196 0.14901961
0.00000000 0.50980392 0.23529412
0.00000000 0.50588235 0.23529412
0.00392157 0.50196078 0.23529412
0.09019608 0.49411765 0.23529412
0.24313725 0.48627451 0.23529412
0.35294118 0.47450980 0.23529412
0.45882353 0.46274510 0.23529412
0.55294118 0.44705882 0.23137255
0.64705882 0.43529412 0.22745098
0.73333333 0.41960784 0.22352941
0.81960784 0.40784314 0.21176471
0.91372549 0.38823529 0.20000000
1.00000000 0.37254902 0.17647059
0.00000000 0.60000000 0.25098039
0.00000000 0.60000000 0.25098039
0.00392157 0.59607843 0.25098039
0.07058824 0.58823529 0.25098039
0.20784314 0.58039216 0.25490196
0.33725490 0.57254902 0.25490196
0.45098039 0.56078431 0.25098039
0.54509804 0.54901961 0.25098039
0.63921569 0.53725490 0.24705882
0.72941176 0.52549020 0.24313725
0.81960784 0.50980392 0.23137255
0.90980392 0.49411765 0.21960784
1.00000000 0.47450980 0.19607843
0.00000000 0.69411765 0.27058824
0.00000000 0.69019608 0.27058824
0.00000000 0.68627451 0.27058824
0.03137255 0.68235294 0.27058824
0.17254902 0.67450980 0.27058824
0.32156863 0.66666667 0.27058824
0.44313725 0.65490196 0.27058824
0.53725490 0.64705882 0.27058824
0.63137255 0.63529412 0.26666667
0.72156863 0.62352941 0.26274510
0.81568627 0.61176471 0.25490196
0.90980392 0.59607843 0.24313725
1.00000000 0.58039216 0.21960784
0.00000000 0.78431373 0.29019608
0.00000000 0.78039216 0.29019608
0.00000000 0.78039216 0.29019608
0.00392157 0.77254902 0.29019608
0.13333333 0.76862745 0.29019608
0.30980392 0.76078431 0.29019608
0.43529412 0.74901961 0.29019608
0.52941176 0.74117647 0.29019608
0.62352941 0.72941176 0.28627451
0.71764706 0.72156863 0.28235294
0.81176471 0.70588235 0.27450980
0.90980392 0.69411765 0.26274510
1.00000000 0.67843137 0.23921569
0.00000000 0.87843137 0.30588235
0.00000000 0.87843137 0.30588235
0.00000000 0.87450980 0.30588235
0.00000000 0.87058824 0.30588235
0.10196078 0.86274510 0.30588235
0.28627451 0.85882353 0.30588235
0.41568627 0.84705882 0.30588235
0.50980392 0.83921569 0.30588235
0.61176471 0.83137255 0.30588235
0.70588235 0.81960784 0.30196078
0.80784314 0.80784314 0.29411765
0.90196078 0.79607843 0.28235294
1.00000000 0.78039216 0.25882353
0.00000000 0.97647059 0.31764706
0.00000000 0.97254902 0.31764706
0.00000000 0.97254902 0.31764706
0.00000000 0.96862745 0.31764706
0.00784314 0.96078431 0.31764706
0.23921569 0.95686275 0.31764706
0.38039216 0.94901961 0.31764706
0.48627451 0.94117647 0.31764706
0.59215686 0.93333333 0.31764706
0.69411765 0.92549020 0.31372549
0.79607843 0.91372549 0.30588235
0.89803922 0.90196078 0.29411765
0.99215686 0.88627451 0.26666667
0.00000000 1.00000000 0.32941176
0.00000000 1.00000000 0.32941176
0.00000000 1.00000000 0.32941176
0.03137255 1.00000000 0.32941176
0.13725490 1.00000000 0.32941176
0.29411765 1.00000000 0.32941176
0.40784314 1.00000000 0.32549020
0.49803922 1.00000000 0.32549020
0.60000000 1.00000000 0.32156863
0.69803922 1.00000000 0.31372549
0.79607843 1.00000000 0.30196078
0.89019608 1.00000000 0.28627451
0.98431373 0.98823529 0.25098039
0.00000000 0.00000000 0.17254902
0.01960784 0.00000000 0.17254902
0.06666667 0.00000000 0.17647059
0.15294118 0.00000000 0.17647059
0.27058824 0.00000000 0.17647059
0.37254902 0.00000000 0.17254902
0.46274510 0.00000000 0.17254902
0.55294118 0.00000000 0.16862745
0.64705882 0.00000000 0.16078431
0.73333333 0.00000000 0.15294118
0.81960784 0.00000000 0.13725490
0.90980392 0.00000000 0.11764706
1.00000000 0.00000000 0.09411765
0.00392157 0.02352941 0.20784314
0.01960784 0.01960784 0.20784314
0.06666667 0.01176471 0.20784314
0.15686275 0.00784314 0.20784314
0.27058824 0.00000000 0.20784314
0.37254902 0.00000000 0.20784314
0.46274510 0.00000000 0.20784314
0.54901961 0.00000000 0.20392157
0.64705882 0.00000000 0.19607843
0.73333333 0.00000000 0.18823529
0.81960784 0.00000000 0.18039216
0.90588235 0.00000000 0.16078431
1.00000000 0.00000000 0.13333333
0.01176471 0.07843137 0.22745098
0.02745098 0.07450980 0.22745098
0.06666667 0.06666667 0.23137255
0.16862745 0.05098039 0.23137255
0.27843137 0.03137255 0.23137255
0.37647059 0.01960784 0.23137255
0.46666667 0.00784314 0.23137255
0.55294118 0.00000000 0.22745098
0.65098039 0.00000000 0.22352941
0.73725490 0.00000000 0.21568627
0.81960784 0.00000000 0.20392157
0.90980392 0.00000000 0.18823529
1.00000000 0.00000000 0.16470588
0.03529412 0.19215686 0.25098039
0.05098039 0.18823529 0.25098039
0.09411765 0.18039216 0.25098039
0.16862745 0.16862745 0.25490196
0.28235294 0.14901961 0.25490196
0.38039216 0.13333333 0.25490196
