core/profiles/src/main/assets/luts/fuji_velvia_50.cube
# Source: RawTherapee Film Simulation Collection (HaldCLUT.zip)
# Converted from: HaldCLUT/Color/Fuji/Fuji Velvia 50.png
TITLE "fuji_velvia_50"
LUT_3D_SIZE 7
DOMAIN_MIN 0.0 0.0 0.0
DOMAIN_MAX 1.0 1.0 1.0
0.00000000 0.00000000 0.00000000
0.07058824 0.00000000 0.00000000
0.27058824 0.00000000 0.00000000
0.45882353 0.00000000 0.00000000
0.63921569 0.00000000 0.00000000
0.81176471 0.00000000 0.00000000
0.98823529 0.00000000 0.00000000
0.01568627 0.08235294 0.00392157
0.07058824 0.07058824 0.00392157
0.27843137 0.03921569 0.00784314
0.46274510 0.01176471 0.00392157
0.64313725 0.00000000 0.00392157
0.81176471 0.00000000 0.00000000
0.98823529 0.00000000 0.00000000
0.01568627 0.31372549 0.02745098
0.07058824 0.30196078 0.02745098
0.27450980 0.27843137 0.02745098
0.46274510 0.25098039 0.02745098
0.64705882 0.21568627 0.02352941
0.81568627 0.18039216 0.01568627
0.99607843 0.13725490 0.00392157
0.00000000 0.50588235 0.06274510
0.00784314 0.49803922 0.06274510
0.24705882 0.48235294 0.06274510
0.45490196 0.45882353 0.05882353
0.64313725 0.43529412 0.05490196
0.81568627 0.40392157 0.03921569
1.00000000 0.36862745 0.01960784
0.00000000 0.69019608 0.09411765
0.00000000 0.68627451 0.09411765
0.17254902 0.67450980 0.09803922
0.44313725 0.65490196 0.09411765
0.63137255 0.63137255 0.09019608
0.81176471 0.60784314 0.07058824
0.99607843 0.57647059 0.03921569
0.00000000 0.87450980 0.11372549
0.00000000 0.87058824 0.11372549
0.09803922 0.86274510 0.11372549
0.41568627 0.84705882 0.10980392
0.60784314 0.82745098 0.09411765
0.80392157 0.80784314 0.07058824
0.99607843 0.78039216 0.04705882
0.00000000 1.00000000 0.15686275
0.00000000 1.00000000 0.15686275
0.13333333 1.00000000 0.15294118
0.40392157 1.00000000 0.14509804
0.59607843 1.00000000 0.13333333
0.79215686 1.00000000 0.09411765
0.98039216 0.98431373 0.00000000
0.00000000 0.00000000 0.03529412
0.06666667 0.00000000 0.03529412
0.27058824 0.00000000 0.03529412
0.45882353 0.00000000 0.03529412
0.64313725 0.00000000 0.02745098
0.81568627 0.00000000 0.01960784
0.99607843 0.00000000 0.00784314
0.01568627 0.07843137 0.07058824
0.07058824 0.07058824 0.07058824
0.27843137 0.03529412 0.07058824
0.46274510 0.01176471 0.06666667
0.64705882 0.00000000 0.05882353
0.81568627 0.00000000 0.04313725
0.99607843 0.00000000 0.02352941
0.01568627 0.31372549 0.10980392
0.07058824 0.30196078 0.10980392
0.27450980 0.27843137 0.10980392
0.46666667 0.24705882 0.10588235
0.65098039 0.21568627 0.09803922
0.81960784 0.18039216 0.07843137
0.99607843 0.13333333 0.04705882
0.00000000 0.50980392 0.15294118
0.00784314 0.49803922 0.15294118
0.24705882 0.48235294 0.15686275
0.45882353 0.46274510 0.15294118
0.64705882 0.43529412 0.14901961
0.81960784 0.40784314 0.12941176
1.00000000 0.36862745 0.08627451
0.00000000 0.69019608 0.19215686
0.00000000 0.68627451 0.19215686
0.17254902 0.67450980 0.19215686
0.44313725 0.65490196 0.19215686
0.63137255 0.63529412 0.18431373
0.81176471 0.60784314 0.16078431
1.00000000 0.58039216 0.12549020
0.00000000 0.87843137 0.23137255
0.00000000 0.87450980 0.23137255
0.09803922 0.86274510 0.23137255
0.41568627 0.84705882 0.23137255
0.60784314 0.83137255 0.22352941
0.80392157 0.80784314 0.20784314
0.99607843 0.78039216 0.14901961
0.00000000 1.00000000 0.25882353
0.00000000 1.00000000 0.25882353
0.13725490 1.00000000 0.25882353
0.40392157 1.00000000 0.25098039
0.59607843 1.00000000 0.24313725
0.79215686 1.00000000 0.21960784
0.98431373 0.98823529 0.14117647
0.00000000 0.00000000 0.17254902
0.06666667 0.00000000 0.17647059
0.27058824 0.00000000 0.17647059
0.46274510 0.00000000 0.17254902
0.64705882 0.00000000 0.16078431
0.81960784 0.00000000 0.13725490
1.00000000 0.00000000 0.09411765
0.01176471 0.07843137 0.22745098
0.06666667 0.06666667 0.23137255
0.27843137 0.03137255 0.23137255
0.46666667 0.00784314 0.23137255
0.65098039 0.00000000 0.22352941
0.81960784 0.00000000 0.20392157
1.00000000 0.00000000 0.16470588
0.01568627 0.31372549 0.27058824
0.06666667 0.30196078 0.27450980
0.27450980 0.27450980 0.27450980
0.47058824 0.24705882 0.27450980
0.65490196 0.21568627 0.27058824
0.82352941 0.17647059 0.25882353
1.00000000 0.12941176 0.22352941
0.00000000 0.50980392 0.30980392
0.00000000 0.50196078 0.30980392
0.24313725 0.48627451 0.31372549
0.45882353 0.46274510 0.31372549
0.64705882 0.43529412 0.30980392
0.82352941 0.40784314 0.30196078
1.00000000 0.36862745 0.27450980
0.00000000 0.69411765 0.34509804
0.00000000 0.69019608 0.34509804
0.16862745 0.67843137 0.34509804
0.44313725 0.65882353 0.34901961
0.63529412 0.63529412 0.34509804
0.81568627 0.61176471 0.33725490
1.00000000 0.58039216 0.31764706
0.00000000 0.87843137 0.38039216
0.00000000 0.87450980 0.38039216
0.10196078 0.86666667 0.38039216
0.41176471 0.85098039 0.38039216
0.61176471 0.83137255 0.38039216
0.80784314 0.81176471 0.37254902
1.00000000 0.78431373 0.34901961
0.00000000 1.00000000 0.40392157
0.00000000 1.00000000 0.40392157
0.13725490 1.00000000 0.40392157
0.40784314 1.00000000 0.40392157
0.60000000 1.00000000 0.39607843
0.79607843 1.00000000 0.38431373
0.98823529 0.98823529 0.34509804
0.00000000 0.00000000 0.32941176
0.06274510 0.00000000 0.32941176
0.26666667 0.00000000 0.33333333
0.46666667 0.00000000 0.33333333
0.65098039 0.00000000 0.32941176
0.82352941 0.00000000 0.31764706
1.00000000 0.00000000 0.29411765
0.01176471 0.07058824 0.37254902
0.06274510 0.06274510 0.37647059
0.27450980 0.02745098 0.38039216
0.46666667 0.00392157 0.38039216
0.65098039 0.00000000 0.37647059
0.82352941 0.00000000 0.37254902
1.00000000 0.00000000 0.35294118
0.01176471 0.30980392 0.41176471
0.06666667 0.29803922 0.41568627
0.27058824 0.27058824 0.41960784
0.47058824 0.23921569 0.41960784
0.65490196 0.20784314 0.41960784
0.82745098 0.16862745 0.41568627
1.00000000 0.12156863 0.40000000
0.00000000 0.50980392 0.45490196
0.00000000 0.50196078 0.45490196
0.23921569 0.48627451 0.45882353
0.46274510 0.45882353 0.45882353
0.65098039 0.43529412 0.46274510
0.82745098 0.40392157 0.45882353
1.00000000 0.36862745 0.44313725
0.00000000 0.69803922 0.49411765
0.00000000 0.69019608 0.49411765
0.15686275 0.67843137 0.49803922
0.44313725 0.65882353 0.49803922
0.63529412 0.63529412 0.49803922
0.81960784 0.61176471 0.49803922
1.00000000 0.58039216 0.48235294
0.00000000 0.88235294 0.52941176
0.00000000 0.87843137 0.53333333
0.08627451 0.87058824 0.53333333
0.40784314 0.85490196 0.53333333
0.61176471 0.83529412 0.53725490
0.81176471 0.81176471 0.53333333
1.00000000 0.78431373 0.51764706
0.00000000 1.00000000 0.55686275
0.00000000 1.00000000 0.55686275
0.12941176 1.00000000 0.55686275
0.40784314 1.00000000 0.55686275
0.60392157 1.00000000 0.55686275
0.80000000 1.00000000 0.54901961
0.99215686 0.99215686 0.52549020
0.00000000 0.00000000 0.45882353
0.05882353 0.00000000 0.46274510
0.26274510 0.00000000 0.46666667
0.46274510 0.00000000 0.47058824
0.65098039 0.00000000 0.47058824
0.82745098 0.00000000 0.46666667
1.00000000 0.00000000 0.45098039
0.01176471 0.06274510 0.50980392
0.05490196 0.05098039 0.51372549
0.26666667 0.01960784 0.51764706
0.46666667 0.00000000 0.52156863
0.65098039 0.00000000 0.52156863
0.82745098 0.00000000 0.51764706
1.00000000 0.00000000 0.50588235
0.00784314 0.29803922 0.55294118
0.06666667 0.29019608 0.55686275
0.26666667 0.25882353 0.56078431
0.47058824 0.22745098 0.56078431
0.65882353 0.19215686 0.56470588
0.83137255 0.15686275 0.56078431
1.00000000 0.10588235 0.55294118
0.00000000 0.50980392 0.59215686
0.00000000 0.50196078 0.59215686
0.22745098 0.48235294 0.59607843
0.45882353 0.45490196 0.60000000
0.65098039 0.42745098 0.60000000
0.83137255 0.40000000 0.60000000
1.00000000 0.36078431 0.59215686
0.00000000 0.69803922 0.62745098
0.00000000 0.69019608 0.62745098
0.13725490 0.67843137 0.63137255
0.43921569 0.65882353 0.63137255
0.63529412 0.63529412 0.63529412
0.82352941 0.60784314 0.63529412
1.00000000 0.57647059 0.62745098
0.00000000 0.88627451 0.66274510
0.00000000 0.88235294 0.66274510
0.03921569 0.87058824 0.66274510
0.40392157 0.85490196 0.66666667
0.61176471 0.83921569 0.67058824
0.81176471 0.81568627 0.67058824
1.00000000 0.78431373 0.66274510
0.00000000 1.00000000 0.69411765
0.00000000 1.00000000 0.69411765
0.09803922 1.00000000 0.69411765
0.40392157 1.00000000 0.69411765
0.60392157 1.00000000 0.69411765
0.80392157 1.00000000 0.69411765
0.99607843 0.99607843 0.67843137
0.00000000 0.00000000 0.60000000
0.04705882 0.00000000 0.60392157
0.24705882 0.00000000 0.60784314
0.45882353 0.00000000 0.61176471
0.65098039 0.00000000 0.61568627
0.83137255 0.00000000 0.61176471
1.00000000 0.00000000 0.60784314
0.00784314 0.04705882 0.64313725
0.04313725 0.03529412 0.64705882
0.25098039 0.01176471 0.65098039
0.45882353 0.00000000 0.65490196
0.65098039 0.00000000 0.65882353
0.82745098 0.00000000 0.65882353
1.00000000 0.00000000 0.65490196
0.01960784 0.28235294 0.68235294
0.05882353 0.27058824 0.68627451
0.25098039 0.24313725 0.69019608
0.46666667 0.20784314 0.69411765
0.65882353 0.16862745 0.69803922
0.83529412 0.12941176 0.69803922
1.00000000 0.07450980 0.69411765
0.00000000 0.50588235 0.72156863
0.00000000 0.49411765 0.72549020
0.20392157 0.47450980 0.72549020
0.45098039 0.44705882 0.72941176
0.65098039 0.41960784 0.73333333
0.83137255 0.38823529 0.73725490
1.00000000 0.34901961 0.73333333
0.00000000 0.69803922 0.76078431
0.00000000 0.69019608 0.76078431
0.11372549 0.67450980 0.76470588
0.42745098 0.65490196 0.76862745
0.63137255 0.63137255 0.77254902
0.82745098 0.60392157 0.77254902
1.00000000 0.56862745 0.77254902
0.00000000 0.89019608 0.80000000
0.00000000 0.88235294 0.80000000
0.00000000 0.87450980 0.80392157
0.38431373 0.85490196 0.80784314
0.60392157 0.83921569 0.81176471
0.81176471 0.81176471 0.81176471
1.00000000 0.78431373 0.81176471
0.00000000 1.00000000 0.83921569
0.00000000 1.00000000 0.84313725
0.06666667 1.00000000 0.84313725
0.38431373 1.00000000 0.84705882
0.59607843 1.00000000 0.84705882
0.80784314 1.00000000 0.85098039
1.00000000 1.00000000 0.84313725
0.00000000 0.00000000 0.72549020
0.03137255 0.00000000 0.73333333
0.21960784 0.00000000 0.73725490
0.44705882 0.00000000 0.74117647
0.64705882 0.00000000 0.74509804
0.83137255 0.00000000 0.74901961
1.00000000 0.00000000 0.74509804
0.00392157 0.02745098 0.77254902
0.02745098 0.01960784 0.77647059
0.21568627 0.00392157 0.78039216
0.44705882 0.00000000 0.78823529
0.64313725 0.00000000 0.79215686
0.82745098 0.00000000 0.79607843
1.00000000 0.00000000 0.79215686
0.01176471 0.24705882 0.81568627
0.03529412 0.23921569 0.81960784
0.22352941 0.20784314 0.82352941
0.45490196 0.16862745 0.82745098
0.65098039 0.12549020 0.83137255
0.83529412 0.08235294 0.83529412
1.00000000 0.01960784 0.83529412
0.00000000 0.49411765 0.85882353
0.00000000 0.48235294 0.85882353
0.15686275 0.45882353 0.86274510
0.43921569 0.43137255 0.87058824
0.64313725 0.40000000 0.87450980
0.83137255 0.36470588 0.87843137
1.00000000 0.32156863 0.87843137
0.00000000 0.69019608 0.89803922
0.00000000 0.68627451 0.90196078
0.06274510 0.66666667 0.90588235
0.40392157 0.64313725 0.90980392
0.62352941 0.61960784 0.91372549
0.82352941 0.59215686 0.91764706
1.00000000 0.55294118 0.92156863
0.00000000 0.88627451 0.94117647
0.00000000 0.88235294 0.94509804
0.00000000 0.87058824 0.94509804
0.34509804 0.85098039 0.94901961
0.58823529 0.83137255 0.95686275
0.80784314 0.80784314 0.96078431
1.00000000 0.77647059 0.96470588
0.00000000 1.00000000 0.98431373
0.00000000 1.00000000 0.98823529
0.00000000 1.00000000 0.98823529
0.31764706 1.00000000 0.99215686
0.56470588 1.00000000 0.99607843
0.79215686 1.00000000 1.00000000
1.00000000 1.00000000 1.00000000
