core/profiles/src/main/assets/luts/fuji_400h.cube
# Source: RawTherapee Film Simulation Collection (HaldCLUT.zip)
# Converted from: HaldCLUT/Color/Fuji/Fuji 400H 2.png
TITLE "fuji_400h"
LUT_3D_SIZE 13
DOMAIN_MIN 0.0 0.0 0.0
DOMAIN_MAX 1.0 1.0 1.0
0.01960784 0.01960784 0.01176471
0.05882353 0.01960784 0.01176471
0.12549020 0.02352941 0.01176471
0.21568627 0.02352941 0.01176471
0.33333333 0.00000000 0.00784314
0.47450980 0.00000000 0.00000000
0.60784314 0.00000000 0.00000000
0.71764706 0.00000000 0.00000000
0.81568627 0.00000000 0.00000000
0.89019608 0.00000000 0.00000000
0.95686275 0.07843137 0.00000000
1.00000000 0.16470588 0.00000000
1.00000000 0.23529412 0.00000000
0.01176471 0.06274510 0.01568627
0.05490196 0.06666667 0.01176471
0.12941176 0.07450980 0.00784314
0.21960784 0.07450980 0.00784314
0.33725490 0.05882353 0.00000000
0.47058824 0.01568627 0.00000000
0.60784314 0.00000000 0.00000000
0.71764706 0.00000000 0.00000000
0.81568627 0.00000000 0.00000000
0.88627451 0.05882353 0.00000000
0.94901961 0.14117647 0.00000000
1.00000000 0.20392157 0.00000000
1.00000000 0.26274510 0.00000000
0.00000000 0.13333333 0.01568627
0.02352941 0.12941176 0.01176471
0.10980392 0.13725490 0.00784314
0.21568627 0.14509804 0.00000000
0.34117647 0.14509804 0.00000000
0.47450980 0.13725490 0.00000000
0.60784314 0.12941176 0.00000000
0.71764706 0.12941176 0.00000000
0.80784314 0.14901961 0.00000000
0.88235294 0.18039216 0.00000000
0.94509804 0.22352941 0.00000000
1.00000000 0.26666667 0.00000000
1.00000000 0.30980392 0.00000000
0.00000000 0.21568627 0.00392157
0.00000000 0.21568627 0.01176471
0.06666667 0.21568627 0.00392157
0.18823529 0.22352941 0.00000000
0.32941176 0.24313725 0.00000000
0.47058824 0.24705882 0.00000000
0.60392157 0.24313725 0.00000000
0.70588235 0.25098039 0.00000000
0.80000000 0.26666667 0.00000000
0.87058824 0.28627451 0.00000000
0.93725490 0.31372549 0.00000000
0.99607843 0.34117647 0.00000000
1.00000000 0.36862745 0.00000000
0.00000000 0.32549020 0.00000000
0.00000000 0.32156863 0.00000000
0.00000000 0.32156863 0.00000000
0.15686275 0.32941176 0.00000000
0.30196078 0.33725490 0.00000000
0.45882353 0.35686275 0.00000000
0.58823529 0.36078431 0.00000000
0.69019608 0.36078431 0.00000000
0.78431373 0.36862745 0.00000000
0.85490196 0.38431373 0.00000000
0.92549020 0.40000000 0.00000000
0.98039216 0.41568627 0.00000000
1.00000000 0.43921569 0.00000000
0.00000000 0.43529412 0.00000000
0.00000000 0.43529412 0.00000000
0.00000000 0.42352941 0.00000000
0.09019608 0.43137255 0.00000000
0.27058824 0.43529412 0.00000000
0.41960784 0.44705882 0.00000000
0.56862745 0.46274510 0.00000000
0.66666667 0.46666667 0.00000000
0.75686275 0.47058824 0.00000000
0.83921569 0.47058824 0.00000000
0.90588235 0.48235294 0.00000000
0.97254902 0.49411765 0.00000000
1.00000000 0.50588235 0.00000000
0.00000000 0.53333333 0.00000000
0.00000000 0.52941176 0.00000000
0.00000000 0.52549020 0.00000000
0.00000000 0.51764706 0.00000000
0.24313725 0.52549020 0.00000000
0.39215686 0.52941176 0.00000000
0.52549020 0.53333333 0.00000000
0.64313725 0.54901961 0.00000000
0.73725490 0.55686275 0.00000000
0.81960784 0.56078431 0.00000000
0.89019608 0.56470588 0.00000000
0.95686275 0.56078431 0.00000000
1.00000000 0.56862745 0.00000000
0.00000000 0.60392157 0.00000000
0.00000000 0.60784314 0.00000000
0.00000000 0.60000000 0.00000000
0.00000000 0.59607843 0.01176471
0.23137255 0.59215686 0.00000000
0.38039216 0.60000000 0.00000000
0.50196078 0.60000000 0.00000000
0.60784314 0.60392157 0.00000000
0.72156863 0.62352941 0.00000000
0.79607843 0.62745098 0.00000000
0.87058824 0.62745098 0.00000000
0.94117647 0.63137255 0.00000000
1.00000000 0.62745098 0.00000000
0.00000000 0.67843137 0.04705882
0.00000000 0.68235294 0.06274510
0.00000000 0.67843137 0.07450980
0.07450980 0.67058824 0.08627451
0.24705882 0.66274510 0.10196078
0.38039216 0.66666667 0.07843137
0.49803922 0.67058824 0.03137255
0.58823529 0.67058824 0.00000000
0.68627451 0.67843137 0.00000000
0.77647059 0.69019608 0.00000000
0.85490196 0.69803922 0.00000000
0.92549020 0.69803922 0.00000000
1.00000000 0.69803922 0.00000000
0.00000000 0.74509804 0.14901961
0.00000000 0.74509804 0.15686275
0.02352941 0.74117647 0.16078431
0.19607843 0.73725490 0.16862745
0.30196078 0.73333333 0.18039216
0.40000000 0.72941176 0.17647059
0.50196078 0.73333333 0.16470588
0.58431373 0.73725490 0.14509804
0.66666667 0.73725490 0.10980392
0.74901961 0.74509804 0.05490196
0.83137255 0.74901961 0.00000000
0.91372549 0.76078431 0.00000000
0.98823529 0.76470588 0.00000000
0.13333333 0.80784314 0.24313725
0.17254902 0.80784314 0.24705882
0.22352941 0.80392157 0.25098039
0.29411765 0.80392157 0.25882353
0.36078431 0.80000000 0.26666667
0.43137255 0.79607843 0.27450980
0.50980392 0.79607843 0.26666667
0.58431373 0.80000000 0.25882353
0.65882353 0.80392157 0.23921569
0.73333333 0.80784314 0.21960784
0.80784314 0.81176471 0.19607843
0.89019608 0.81568627 0.16078431
0.98431373 0.83529412 0.18431373
0.29803922 0.87843137 0.36078431
0.31372549 0.87843137 0.36470588
0.34117647 0.87843137 0.36862745
0.38039216 0.87450980 0.37254902
0.42745098 0.87058824 0.37647059
0.47843137 0.86666667 0.38823529
0.53725490 0.87058824 0.39607843
0.59607843 0.87058824 0.38823529
0.66274510 0.87450980 0.38039216
0.72941176 0.88235294 0.37254902
0.80000000 0.88235294 0.35686275
0.87450980 0.88627451 0.33725490
0.95294118 0.88627451 0.31372549
0.43921569 0.95294118 0.50980392
0.44705882 0.94901961 0.50980392
0.46274510 0.94901961 0.51372549
0.48627451 0.94901961 0.51764706
0.52156863 0.94901961 0.52941176
0.55686275 0.94901961 0.54117647
0.60000000 0.94509804 0.55294118
0.64313725 0.94901961 0.54901961
0.69411765 0.95294118 0.54901961
0.75294118 0.95686275 0.54509804
0.81176471 0.96078431 0.54117647
0.88235294 0.96470588 0.53333333
0.95686275 0.96862745 0.52941176
0.03137255 0.02352941 0.04705882
0.06666667 0.02352941 0.05098039
0.13333333 0.01568627 0.05098039
0.22352941 0.00784314 0.05098039
0.34117647 0.00000000 0.05882353
0.47843137 0.00000000 0.05490196
0.61176471 0.00000000 0.04705882
0.72156863 0.00000000 0.03529412
0.81568627 0.00000000 0.02352941
0.89019608 0.00000000 0.01176471
0.94901961 0.07843137 0.00000000
1.00000000 0.16862745 0.00000000
1.00000000 0.23921569 0.02352941
0.01176471 0.07058824 0.05490196
0.06274510 0.07058824 0.05490196
0.13333333 0.07450980 0.05098039
0.22745098 0.07450980 0.05490196
0.34509804 0.05882353 0.05098039
0.47843137 0.01568627 0.04705882
0.61176471 0.00000000 0.03529412
0.72156863 0.00000000 0.02352941
0.81568627 0.00000000 0.01176471
0.89019608 0.06666667 0.00000000
0.94901961 0.14117647 0.00000000
1.00000000 0.20784314 0.00000000
1.00000000 0.26666667 0.01568627
0.00000000 0.14117647 0.05882353
0.04705882 0.13725490 0.05490196
0.12156863 0.14117647 0.05490196
0.22745098 0.14901961 0.04313725
0.34901961 0.14509804 0.03529412
0.47843137 0.13725490 0.02352941
0.61568627 0.12941176 0.01176471
0.72156863 0.12941176 0.00000000
0.80784314 0.14901961 0.00000000
0.88235294 0.18431373 0.00000000
0.94509804 0.22745098 0.00000000
1.00000000 0.26666667 0.00000000
1.00000000 0.30980392 0.00000000
0.00000000 0.23137255 0.05098039
0.00000000 0.22745098 0.05490196
0.08627451 0.22352941 0.05490196
0.20000000 0.23137255 0.03921569
0.34117647 0.24705882 0.01176471
0.48235294 0.24705882 0.00000000
0.61176471 0.24705882 0.00000000
0.70980392 0.25098039 0.00000000
0.80000000 0.26666667 0.00000000
0.87450980 0.28627451 0.00000000
0.93333333 0.30980392 0.00000000
0.99607843 0.34117647 0.00000000
1.00000000 0.37254902 0.00000000
0.00000000 0.33725490 0.03529412
0.00000000 0.33333333 0.04313725
0.00000000 0.32941176 0.05490196
0.17254902 0.33725490 0.03921569
0.31372549 0.34509804 0.00000000
0.46666667 0.35686275 0.00000000
0.59607843 0.36470588 0.00000000
0.69803922 0.36078431 0.00000000
0.78039216 0.36470588 0.00000000
0.85882353 0.38431373 0.00000000
0.92156863 0.40000000 0.00000000
0.98431373 0.41960784 0.00000000
1.00000000 0.43921569 0.00000000
0.00000000 0.44313725 0.01568627
0.00000000 0.44313725 0.02352941
0.00000000 0.43529412 0.03529412
0.11372549 0.43529412 0.03921569
0.28235294 0.43921569 0.00000000
0.42745098 0.45098039 0.00000000
0.57254902 0.46274510 0.00000000
0.67450980 0.47058824 0.00000000
0.76078431 0.47058824 0.00000000
0.83921569 0.47058824 0.00000000
0.90980392 0.48235294 0.00000000
0.96862745 0.49019608 0.00000000
1.00000000 0.50588235 0.00000000
0.00000000 0.54117647 0.01568627
0.00000000 0.53725490 0.01960784
0.00000000 0.52941176 0.03529412
0.02352941 0.52156863 0.06274510
0.25490196 0.52549020 0.02745098
0.40000000 0.53333333 0.00000000
0.53333333 0.54117647 0.00000000
0.64705882 0.55294118 0.00000000
0.73725490 0.55686275 0.00000000
0.81568627 0.56078431 0.00000000
0.89019608 0.56078431 0.00000000
0.95686275 0.56078431 0.00000000
1.00000000 0.56862745 0.00000000
0.00000000 0.60784314 0.04705882
0.00000000 0.61176471 0.05882353
0.00000000 0.60784314 0.07058824
0.01176471 0.60000000 0.08627451
0.24313725 0.59607843 0.08627451
0.38823529 0.60000000 0.05490196
0.50980392 0.60392157 0.00000000
0.61176471 0.60784314 0.00000000
0.71764706 0.62352941 0.00000000
0.80000000 0.63137255 0.00000000
0.87058824 0.62745098 0.00000000
0.94117647 0.63137255 0.00000000
1.00000000 0.62745098 0.00000000
0.00000000 0.67843137 0.10980392
0.00000000 0.68235294 0.12156863
0.00000000 0.68235294 0.12549020
0.11764706 0.67450980 0.13725490
0.25882353 0.66274510 0.14509804
0.39215686 0.67058824 0.13333333
0.50196078 0.67058824 0.10588235
0.59215686 0.67450980 0.07450980
0.68627451 0.67843137 0.00392157
0.78039216 0.69019608 0.00000000
0.85490196 0.69803922 0.00000000
0.92549020 0.69803922 0.00000000
1.00000000 0.69803922 0.00000000
0.00000000 0.74509804 0.18431373
0.00000000 0.74901961 0.18823529
0.08235294 0.74509804 0.19215686
0.21568627 0.74117647 0.20000000
0.30980392 0.73333333 0.20784314
0.40784314 0.73333333 0.21176471
0.50196078 0.73333333 0.19607843
0.58431373 0.73725490 0.18039216
0.66666667 0.74117647 0.15686275
0.74901961 0.74509804 0.12156863
0.83137255 0.75294118 0.06274510
0.91372549 0.76078431 0.03529412
0.99215686 0.76470588 0.01960784
0.14901961 0.80784314 0.26666667
0.18823529 0.81176471 0.27058824
0.23921569 0.80784314 0.27450980
0.29803922 0.80392157 0.27843137
0.36862745 0.80000000 0.28627451
0.43529412 0.79215686 0.29411765
0.51372549 0.79607843 0.29019608
0.58823529 0.80392157 0.28235294
0.66274510 0.80392157 0.26666667
0.73333333 0.80784314 0.25098039
0.80784314 0.81176471 0.22352941
0.89019608 0.81960784 0.19607843
0.98431373 0.83529412 0.21568627
0.30196078 0.87843137 0.37254902
0.31764706 0.87450980 0.37647059
0.34509804 0.87450980 0.38039216
0.38431373 0.87450980 0.38431373
0.43137255 0.87450980 0.39215686
0.48235294 0.87058824 0.40392157
0.53725490 0.86666667 0.40784314
0.59607843 0.87058824 0.40000000
0.66274510 0.87450980 0.39607843
0.72941176 0.88235294 0.38823529
0.80000000 0.88235294 0.37254902
0.87450980 0.88627451 0.35686275
0.95686275 0.89019608 0.33333333
0.43921569 0.94901961 0.51372549
0.45098039 0.94901961 0.51764706
0.46666667 0.95294118 0.52156863
0.49019608 0.95294118 0.52941176
0.52156863 0.94901961 0.53725490
0.56078431 0.94901961 0.54901961
0.60000000 0.94509804 0.55686275
0.64313725 0.94901961 0.56078431
0.69411765 0.95294118 0.55686275
0.75294118 0.95686275 0.55294118
0.81176471 0.96078431 0.54901961
0.88235294 0.96470588 0.54509804
0.95686275 0.97254902 0.53725490
0.04705882 0.02745098 0.11372549
0.08235294 0.02745098 0.11372549
0.14117647 0.02745098 0.11764706
0.23137255 0.00784314 0.11764706
0.35686275 0.00000000 0.12156863
0.49019608 0.00000000 0.12156863
0.62352941 0.00000000 0.12941176
0.72941176 0.00000000 0.14117647
0.82352941 0.00000000 0.14117647
0.89019608 0.00000000 0.13725490
0.95294118 0.10588235 0.14117647
1.00000000 0.18823529 0.14509804
1.00000000 0.25098039 0.16470588
0.02352941 0.07058824 0.12156863
0.07843137 0.07843137 0.12156863
0.14509804 0.08235294 0.12549020
0.23921569 0.06666667 0.12156863
0.36078431 0.04705882 0.12549020
0.49803922 0.00000000 0.12941176
0.62745098 0.00000000 0.14117647
0.72941176 0.00000000 0.13725490
0.81960784 0.00000000 0.13333333
0.88627451 0.08627451 0.13333333
0.94901961 0.16078431 0.13333333
1.00000000 0.21960784 0.14117647
1.00000000 0.27843137 0.16078431
0.00000000 0.14901961 0.12549020
0.05098039 0.14901961 0.12549020
0.14117647 0.15294118 0.12941176
0.24313725 0.15686275 0.12941176
0.36470588 0.15294118 0.12941176
0.49411765 0.14117647 0.12549020
0.62745098 0.13333333 0.12549020
0.72549020 0.13333333 0.12156863
0.81176471 0.15686275 0.12156863
0.88235294 0.19215686 0.12156863
0.94509804 0.23529412 0.12156863
1.00000000 0.27450980 0.12941176
1.00000000 0.31764706 0.14901961
0.00000000 0.25098039 0.13333333
0.00784314 0.24705882 0.13333333
0.11764706 0.23921569 0.12941176
0.22352941 0.24313725 0.12549020
0.36470588 0.25098039 0.11372549
0.49803922 0.24705882 0.10196078
0.62352941 0.25098039 0.10196078
0.72156863 0.25490196 0.09803922
0.80392157 0.26666667 0.09019608
0.87450980 0.29019608 0.09019608
0.93333333 0.31764706 0.09411765
0.99215686 0.34509804 0.10588235
1.00000000 0.38039216 0.13333333
0.00000000 0.36078431 0.14117647
0.00000000 0.35686275 0.12941176
0.04705882 0.34509804 0.13333333
0.19607843 0.34509804 0.13333333
0.33333333 0.35294118 0.11764706
0.48235294 0.36862745 0.09411765
0.60784314 0.36470588 0.06274510
0.70588235 0.36078431 0.03137255
0.78823529 0.37254902 0.03137255
0.85882353 0.38431373 0.03137255
0.92549020 0.40392157 0.04313725
0.98431373 0.42352941 0.06274510
1.00000000 0.44313725 0.10196078
0.00000000 0.46274510 0.12549020
0.00000000 0.45882353 0.12941176
0.00000000 0.45098039 0.13333333
0.15686275 0.44313725 0.14509804
0.30196078 0.44705882 0.12549020
0.44313725 0.45882353 0.10588235
0.58039216 0.46666667 0.05882353
0.67843137 0.47058824 0.01176471
0.76470588 0.47058824 0.00000000
0.84313725 0.47450980 0.00000000
0.90980392 0.48235294 0.00000000
0.97254902 0.49411765 0.00000000
1.00000000 0.50980392 0.04313725
0.00000000 0.55294118 0.13725490
0.00000000 0.54901961 0.14117647
0.00000000 0.54509804 0.14509804
0.11764706 0.53333333 0.15294118
0.27843137 0.53333333 0.14901961
0.41568627 0.54117647 0.12941176
0.54509804 0.54509804 0.10196078
0.65490196 0.55686275 0.05098039
0.74509804 0.56078431 0.00000000
0.81960784 0.56078431 0.00000000
0.89411765 0.56078431 0.00000000
0.96078431 0.56078431 0.00000000
1.00000000 0.56862745 0.00000000
0.00000000 0.61960784 0.15294118
0.00000000 0.61960784 0.16078431
0.00000000 0.61568627 0.16470588
0.12156863 0.60784314 0.17254902
0.27058824 0.60000000 0.17647059
0.40392157 0.60392157 0.16470588
0.51764706 0.60784314 0.13725490
0.61960784 0.61176471 0.11372549
0.72156863 0.62352941 0.05882353
0.80000000 0.62745098 0.00000000
0.87450980 0.63137255 0.00000000
0.94117647 0.62745098 0.00000000
1.00000000 0.62352941 0.00000000
0.00000000 0.68627451 0.18823529
0.00000000 0.68627451 0.19607843
0.00000000 0.68235294 0.19607843
0.16862745 0.67843137 0.20392157
0.29019608 0.67058824 0.21568627
0.40000000 0.67058824 0.20392157
0.50588235 0.67058824 0.19215686
0.59607843 0.67450980 0.17254902
0.69019608 0.68235294 0.14901961
0.78431373 0.69411765 0.10980392
0.85490196 0.69803922 0.07450980
0.92941176 0.69803922 0.01960784
1.00000000 0.69803922 0.00000000
0.00000000 0.74901961 0.23921569
0.00000000 0.74901961 0.24313725
0.14117647 0.74901961 0.24705882
0.24313725 0.74509804 0.25490196
0.33333333 0.73725490 0.25882353
0.41568627 0.73333333 0.26274510
0.50980392 0.73725490 0.25490196
0.58823529 0.73725490 0.23921569
0.67058824 0.74117647 0.22352941
0.74901961 0.74509804 0.20000000
0.83529412 0.75294118 0.17254902
0.91372549 0.76078431 0.16078431
0.98823529 0.76470588 0.15294118
0.18431373 0.81176471 0.30980392
0.21176471 0.81176471 0.30980392
0.25490196 0.80784314 0.31372549
0.31764706 0.80784314 0.31764706
0.38039216 0.80392157 0.32549020
0.44313725 0.79607843 0.33333333
0.51764706 0.80000000 0.32941176
0.58823529 0.80392157 0.32156863
0.65882353 0.80392157 0.30980392
0.73333333 0.80784314 0.29411765
0.81176471 0.81568627 0.27843137
0.89019608 0.81568627 0.25098039
0.98039216 0.83137255 0.26666667
0.30980392 0.87843137 0.39607843
0.32549020 0.87843137 0.40000000
0.35294118 0.87450980 0.40392157
0.38823529 0.87450980 0.40784314
0.43921569 0.87450980 0.41960784
0.49019608 0.87058824 0.42745098
0.54117647 0.86666667 0.43137255
0.60000000 0.87058824 0.42745098
0.66274510 0.87843137 0.42352941
0.72941176 0.87843137 0.41568627
0.80000000 0.88235294 0.40392157
0.87450980 0.88627451 0.38823529
0.95686275 0.89019608 0.36470588
0.44705882 0.95294118 0.52941176
0.45490196 0.95294118 0.53333333
0.47058824 0.94901961 0.53333333
0.49411765 0.94901961 0.54117647
0.52549020 0.94901961 0.54901961
0.56470588 0.94901961 0.56078431
0.60784314 0.94901961 0.57254902
0.64705882 0.94901961 0.57254902
0.69411765 0.95294118 0.56862745
0.75294118 0.95686275 0.56470588
0.81568627 0.96078431 0.56078431
0.88235294 0.96470588 0.55686275
0.95686275 0.97254902 0.55294118
0.05490196 0.03137255 0.20784314
0.09411765 0.03137255 0.20392157
0.16078431 0.03137255 0.20784314
0.24705882 0.01960784 0.21568627
0.35686275 0.00000000 0.21568627
0.50588235 0.00000000 0.21960784
0.63921569 0.00000000 0.22352941
0.74117647 0.00000000 0.22745098
0.82745098 0.00000000 0.23137255
0.89411765 0.04705882 0.26274510
0.94901961 0.15294118 0.26666667
1.00000000 0.21960784 0.27450980
1.00000000 0.28235294 0.28627451
0.03921569 0.08235294 0.21176471
0.09411765 0.08627451 0.21568627
0.16078431 0.08627451 0.21568627
0.25490196 0.08235294 0.22352941
0.36470588 0.04705882 0.21960784
0.50980392 0.00000000 0.21960784
0.63921569 0.00000000 0.22745098
0.74509804 0.00000000 0.23529412
0.82745098 0.00000000 0.24313725
0.89019608 0.13333333 0.26274510
0.94901961 0.19215686 0.26274510
1.00000000 0.25098039 0.27058824
1.00000000 0.30196078 0.28627451
0.00000000 0.14509804 0.21960784
0.05882353 0.14509804 0.21960784
0.16078431 0.16078431 0.22745098
0.25882353 0.16078431 0.22745098
0.38431373 0.14509804 0.22745098
0.51764706 0.12941176 0.23137255
0.64313725 0.11764706 0.23529412
0.73725490 0.15294118 0.25098039
0.81960784 0.18039216 0.25490196
0.88627451 0.21568627 0.25490196
0.94509804 0.25882353 0.25882353
1.00000000 0.29803922 0.26274510
1.00000000 0.34117647 0.28235294
0.00000000 0.25098039 0.23137255
0.00000000 0.25490196 0.23137255
0.12941176 0.25490196 0.23137255
0.25882353 0.26274510 0.23921569
0.39215686 0.26666667 0.23921569
0.52156863 0.26274510 0.23921569
0.63921569 0.26666667 0.24313725
0.72941176 0.27058824 0.23921569
0.80784314 0.28235294 0.23921569
0.87450980 0.30588235 0.23921569
0.93725490 0.33333333 0.24313725
0.99215686 0.36078431 0.25098039
1.00000000 0.39215686 0.27058824
0.00000000 0.38039216 0.24313725
0.00000000 0.38431373 0.24313725
0.12156863 0.37647059 0.24313725
0.24313725 0.36470588 0.24313725
0.36862745 0.37254902 0.23921569
0.50588235 0.37254902 0.21960784
0.62745098 0.36862745 0.21176471
0.71372549 0.37254902 0.21176471
0.79215686 0.38039216 0.21176471
0.86274510 0.39215686 0.21568627
0.92549020 0.41176471 0.21960784
0.98431373 0.43137255 0.23137255
1.00000000 0.45098039 0.25490196
0.00000000 0.48627451 0.25882353
0.00000000 0.48235294 0.25882353
0.04705882 0.47843137 0.24705882
0.21960784 0.46666667 0.24705882
0.33725490 0.46274510 0.24705882
0.47058824 0.47058824 0.23529412
0.59607843 0.47843137 0.21176471
0.69019608 0.47450980 0.19607843
0.77647059 0.47058824 0.17647059
0.84705882 0.47843137 0.18039216
0.90980392 0.48627451 0.18823529
0.97254902 0.49803922 0.20392157
1.00000000 0.51372549 0.22745098
0.00000000 0.57254902 0.26274510
0.00000000 0.56862745 0.24705882
0.00000000 0.56078431 0.25098039
0.19607843 0.55294118 0.25490196
0.31764706 0.54117647 0.25882353
0.43921569 0.54901961 0.24705882
0.55686275 0.55294118 0.23137255
0.66666667 0.56470588 0.21568627
0.74901961 0.56078431 0.19215686
0.82745098 0.56470588 0.17254902
0.89411765 0.55686275 0.14509804
0.95686275 0.56470588 0.16078431
1.00000000 0.57254902 0.19215686
0.00000000 0.63137255 0.25882353
0.00000000 0.63529412 0.26274510
0.00000000 0.62745098 0.26274510
0.20392157 0.61960784 0.26666667
0.31372549 0.61176471 0.27450980
0.42352941 0.60784314 0.26666667
0.53333333 0.61176471 0.25490196
0.62745098 0.61568627 0.23921569
0.72941176 0.63137255 0.21960784
0.80392157 0.63137255 0.19607843
0.87450980 0.63137255 0.17254902
0.94509804 0.62745098 0.14901961
1.00000000 0.62352941 0.13333333
0.00000000 0.69803922 0.28235294
0.00000000 0.69411765 0.28627451
0.10980392 0.69411765 0.28627451
0.23137255 0.68627451 0.29019608
0.32941176 0.67843137 0.29803922
0.42352941 0.67450980 0.29803922
0.51764706 0.67843137 0.28627451
0.60784314 0.68235294 0.27450980
0.69411765 0.68235294 0.25882353
0.78823529 0.69803922 0.23921569
0.85882353 0.70196078 0.22352941
0.92941176 0.69803922 0.20392157
1.00000000 0.69411765 0.18431373
0.05490196 0.75686275 0.31372549
0.13333333 0.75686275 0.32156863
0.20392157 0.75294118 0.32156863
0.28235294 0.74901961 0.32549020
0.35686275 0.74117647 0.32941176
0.43137255 0.73333333 0.33333333
0.51372549 0.73725490 0.32549020
0.59215686 0.73725490 0.31764706
0.67450980 0.74509804 0.30588235
0.75294118 0.74901961 0.29019608
0.83529412 0.75686275 0.27058824
0.91372549 0.76078431 0.26274510
0.99215686 0.76470588 0.25882353
0.22352941 0.81568627 0.36862745
0.24705882 0.81568627 0.36862745
0.28627451 0.81568627 0.37254902
0.33725490 0.81176471 0.37647059
0.39607843 0.80784314 0.38039216
0.45882353 0.80000000 0.38431373
0.52549020 0.80000000 0.38823529
0.58823529 0.80000000 0.38039216
0.65882353 0.80392157 0.36862745
0.73333333 0.80784314 0.35686275
0.81176471 0.81568627 0.34509804
0.89019608 0.81568627 0.32549020
0.98039216 0.83529412 0.34117647
0.32941176 0.87843137 0.43921569
0.34509804 0.88235294 0.44313725
0.36862745 0.87843137 0.44705882
0.40392157 0.87843137 0.45098039
0.44705882 0.87450980 0.45490196
0.49411765 0.87058824 0.45882353
0.54509804 0.86666667 0.47058824
0.60000000 0.87058824 0.46666667
0.66274510 0.87450980 0.46274510
0.72941176 0.87843137 0.45490196
0.80000000 0.88235294 0.44313725
0.87450980 0.88627451 0.43137255
0.95294118 0.89019608 0.41176471
0.45490196 0.95294118 0.55294118
0.46274510 0.95294118 0.55686275
0.47843137 0.95294118 0.55686275
0.49803922 0.94901961 0.56078431
0.52941176 0.94901961 0.56862745
0.56862745 0.94901961 0.57647059
0.61176471 0.94901961 0.58823529
0.65098039 0.94901961 0.59607843
0.69803922 0.94901961 0.58823529
0.75294118 0.95294118 0.58431373
0.81568627 0.95686275 0.58039216
0.88235294 0.96470588 0.58039216
0.95686275 0.97254902 0.57647059
0.04705882 0.03529412 0.31764706
0.10196078 0.03921569 0.32156863
0.17647059 0.03137255 0.32156863
0.27843137 0.02352941 0.32941176
0.38823529 0.00000000 0.34117647
0.49019608 0.00000000 0.33333333
0.64313725 0.00000000 0.34117647
0.74509804 0.00000000 0.33725490
0.83137255 0.00000000 0.34509804
0.89803922 0.00000000 0.34509804
0.95686275 0.08235294 0.35294118
1.00000000 0.21568627 0.37647059
1.00000000 0.33333333 0.41960784
0.04313725 0.09019608 0.32156863
0.10196078 0.09019608 0.32549020
0.18431373 0.09019608 0.32941176
0.28627451 0.09019608 0.33725490
0.39215686 0.06666667 0.34509804
0.50196078 0.00000000 0.33725490
0.65098039 0.00000000 0.34509804
0.74901961 0.00000000 0.34509804
0.83137255 0.00000000 0.34509804
0.89803922 0.03137255 0.34901961
0.95686275 0.16470588 0.36078431
1.00000000 0.27843137 0.39215686
1.00000000 0.34901961 0.41568627
0.00000000 0.14901961 0.32941176
0.08627451 0.16078431 0.33333333
0.18431373 0.16470588 0.33725490
0.28627451 0.16862745 0.34117647
0.40392157 0.16470588 0.35294118
0.51764706 0.14117647 0.34901961
0.65490196 0.09411765 0.34901961
0.74509804 0.10196078 0.34901961
0.82745098 0.14509804 0.35686275
0.89019608 0.20000000 0.36078431
0.94509804 0.27450980 0.38039216
0.99215686 0.33725490 0.40000000
1.00000000 0.37647059 0.41176471
0.00000000 0.24313725 0.33333333
0.00000000 0.24313725 0.33725490
0.14117647 0.24705882 0.34117647
0.28627451 0.26666667 0.35686275
0.41176471 0.27450980 0.36470588
0.53725490 0.26274510 0.36078431
