core/profiles/src/main/assets/luts/fuji_superia_800.cube
# Source: RawTherapee Film Simulation Collection (HaldCLUT.zip)
# Converted from: HaldCLUT/Color/Fuji/Fuji Superia 800 2.png
TITLE "fuji_superia_800"
LUT_3D_SIZE 7
DOMAIN_MIN 0.0 0.0 0.0
DOMAIN_MAX 1.0 1.0 1.0
0.00392157 0.06666667 0.07058824
0.04705882 0.07058824 0.06666667
0.21960784 0.08627451 0.06274510
0.45882353 0.07450980 0.04313725
0.69803922 0.03137255 0.01176471
0.89019608 0.10588235 0.00000000
1.00000000 0.24705882 0.00000000
0.00000000 0.13333333 0.06666667
0.05882353 0.14509804 0.05882353
0.25098039 0.14509804 0.05490196
0.49411765 0.14901961 0.03529412
0.71764706 0.15294118 0.00784314
0.89411765 0.20000000 0.00000000
1.00000000 0.30196078 0.00000000
0.00000000 0.36078431 0.08627451
0.00000000 0.36862745 0.08235294
0.30196078 0.38823529 0.00000000
0.58823529 0.37254902 0.00000000
0.75294118 0.33333333 0.00000000
0.90980392 0.36078431 0.00000000
1.00000000 0.42745098 0.00000000
0.00000000 0.64313725 0.15686275
0.00000000 0.64705882 0.16078431
0.26666667 0.64705882 0.11372549
0.58431373 0.64705882 0.00000000
0.81176471 0.62745098 0.00000000
0.92941176 0.56862745 0.00000000
1.00000000 0.58039216 0.00000000
0.00000000 0.80784314 0.30980392
0.16862745 0.81568627 0.31764706
0.36470588 0.81176471 0.31372549
0.56470588 0.81176471 0.25098039
0.76862745 0.80784314 0.12941176
0.94509804 0.80000000 0.00000000
1.00000000 0.76470588 0.10196078
0.50980392 0.91764706 0.54901961
0.52941176 0.91764706 0.54901961
0.58823529 0.91764706 0.55686275
0.66666667 0.91372549 0.53725490
0.76862745 0.91372549 0.48627451
0.89803922 0.91372549 0.40000000
1.00000000 0.91764706 0.30980392
0.73725490 0.98039216 0.74901961
0.74117647 0.97647059 0.74901961
0.76470588 0.98039216 0.75294118
0.79607843 0.97647059 0.75686275
0.83529412 0.98039216 0.74117647
0.89019608 0.98039216 0.71372549
0.96470588 0.98039216 0.67843137
0.00000000 0.06666667 0.11764706
0.05490196 0.06274510 0.12156863
0.23137255 0.05490196 0.12941176
0.45882353 0.05490196 0.12549020
0.68627451 0.05098039 0.12941176
0.87450980 0.11372549 0.11372549
1.00000000 0.23921569 0.10980392
0.00000000 0.13333333 0.14117647
0.05882353 0.13725490 0.14509804
0.25490196 0.15294118 0.14117647
0.49803922 0.15294118 0.13725490
0.70980392 0.16078431 0.12941176
0.88627451 0.20784314 0.11764706
1.00000000 0.30196078 0.10980392
0.00000000 0.35686275 0.20392157
0.00000000 0.36078431 0.19215686
0.30980392 0.37647059 0.15686275
0.57647059 0.35294118 0.14117647
0.74509804 0.33725490 0.13333333
0.90588235 0.36470588 0.11764706
1.00000000 0.42745098 0.12156863
0.00000000 0.64313725 0.26666667
0.00000000 0.63921569 0.26666667
0.30980392 0.64313725 0.24705882
0.59215686 0.64313725 0.16078431
0.80000000 0.61568627 0.08627451
0.92549020 0.56470588 0.12941176
1.00000000 0.58431373 0.15686275
0.16862745 0.80392157 0.38039216
0.27058824 0.80784314 0.39215686
0.41176471 0.80784314 0.39215686
0.58039216 0.80784314 0.34117647
0.77254902 0.80784314 0.25882353
0.94117647 0.79607843 0.16862745
1.00000000 0.76078431 0.22352941
0.54117647 0.91764706 0.59215686
0.56078431 0.91764706 0.59215686
0.61176471 0.91372549 0.59607843
0.68235294 0.91764706 0.58431373
0.77647059 0.91372549 0.53725490
0.89803922 0.91372549 0.46274510
1.00000000 0.91372549 0.38431373
0.74901961 0.98039216 0.76470588
0.75294118 0.97647059 0.76078431
0.77254902 0.98039216 0.76862745
0.80392157 0.98039216 0.77254902
0.83921569 0.97647059 0.75686275
0.89411765 0.98039216 0.73333333
0.96862745 0.98431373 0.69803922
0.00000000 0.06274510 0.26274510
0.06274510 0.05882353 0.26666667
0.24313725 0.06274510 0.28235294
0.48627451 0.04705882 0.29803922
0.71372549 0.00000000 0.27058824
0.88627451 0.00000000 0.24705882
1.00000000 0.25490196 0.27058824
0.00000000 0.13333333 0.29019608
0.06666667 0.14509804 0.29411765
0.27450980 0.15686275 0.30196078
0.51764706 0.16470588 0.31372549
0.72549020 0.07058824 0.27058824
0.88235294 0.21176471 0.27450980
1.00000000 0.31372549 0.27843137
0.00000000 0.33725490 0.33725490
0.07843137 0.34509804 0.34117647
0.32549020 0.34901961 0.34509804
0.55294118 0.35294118 0.32941176
0.73333333 0.35686275 0.31372549
0.89411765 0.37647059 0.29411765
1.00000000 0.44313725 0.29803922
0.17254902 0.62352941 0.43921569
0.27843137 0.61960784 0.43921569
0.39215686 0.61960784 0.42352941
0.59607843 0.61960784 0.37647059
0.78039216 0.58823529 0.34117647
0.90980392 0.56078431 0.32549020
1.00000000 0.59607843 0.32941176
0.38823529 0.79607843 0.52941176
0.41960784 0.80000000 0.52941176
0.49803922 0.79607843 0.52941176
0.61568627 0.80000000 0.50980392
0.77254902 0.80000000 0.44705882
0.92549020 0.78431373 0.39215686
1.00000000 0.75686275 0.39607843
0.60392157 0.90980392 0.67058824
0.62352941 0.91372549 0.67058824
0.65490196 0.90980392 0.67058824
0.71372549 0.90980392 0.67450980
0.78823529 0.90980392 0.63921569
0.89411765 0.90980392 0.58431373
1.00000000 0.90980392 0.52941176
0.76862745 0.97647059 0.79607843
0.77254902 0.97647059 0.79215686
0.79215686 0.97647059 0.79607843
0.81568627 0.97254902 0.79607843
0.85098039 0.97647059 0.79215686
0.89803922 0.98039216 0.77254902
0.96470588 0.98039216 0.74117647
0.00000000 0.06666667 0.44705882
0.05882353 0.07058824 0.45098039
0.27843137 0.06666667 0.45882353
0.50588235 0.02745098 0.48235294
0.70588235 0.04705882 0.48235294
0.90588235 0.14117647 0.49019608
1.00000000 0.15686275 0.45098039
0.00000000 0.15294118 0.46666667
0.09019608 0.15294118 0.47058824
0.30980392 0.15686275 0.48235294
0.52941176 0.16078431 0.49411765
0.72156863 0.19607843 0.49803922
0.90588235 0.23529412 0.49411765
1.00000000 0.23921569 0.45098039
0.00000000 0.29411765 0.49411765
0.01176471 0.30196078 0.50196078
0.34901961 0.33725490 0.51372549
0.56078431 0.35686275 0.52549020
0.74117647 0.39607843 0.52941176
0.90588235 0.36862745 0.48627451
1.00000000 0.41176471 0.45882353
0.11764706 0.58039216 0.56862745
0.24313725 0.58039216 0.56470588
0.41960784 0.58039216 0.56470588
0.58431373 0.57647059 0.55686275
0.74117647 0.56862745 0.52941176
0.89019608 0.57254902 0.50980392
1.00000000 0.60000000 0.50196078
0.48627451 0.78823529 0.66274510
0.52156863 0.78823529 0.66666667
0.58823529 0.78039216 0.66274510
0.65882353 0.78431373 0.65490196
0.77254902 0.78431373 0.61960784
0.90196078 0.76078431 0.57254902
1.00000000 0.74901961 0.55686275
0.69019608 0.90588235 0.76470588
0.70196078 0.90588235 0.76470588
0.70980392 0.90980392 0.75294118
0.74901961 0.90588235 0.75294118
0.80784314 0.90588235 0.74117647
0.89411765 0.90588235 0.70196078
1.00000000 0.90588235 0.66666667
0.79607843 0.97254902 0.83137255
0.80392157 0.97647059 0.83529412
0.81568627 0.97254902 0.83529412
0.83529412 0.97254902 0.83529412
0.86666667 0.97254902 0.83529412
0.90588235 0.97647059 0.81960784
0.96470588 0.98039216 0.79607843
0.00000000 0.08235294 0.63921569
0.13725490 0.07843137 0.64313725
0.33725490 0.06666667 0.64705882
0.53725490 0.04705882 0.65098039
0.72156863 0.05098039 0.66274510
0.87843137 0.18431373 0.66274510
1.00000000 0.40000000 0.69803922
0.01960784 0.16470588 0.65882353
0.17647059 0.16470588 0.65882353
0.36078431 0.16470588 0.65882353
0.55294118 0.17254902 0.66274510
0.73333333 0.19607843 0.67450980
0.88627451 0.28235294 0.67058824
1.00000000 0.46274510 0.70980392
0.00000000 0.30588235 0.66666667
0.20392157 0.32156863 0.66666667
0.38431373 0.32941176 0.67058824
0.57254902 0.34901961 0.67450980
0.74117647 0.38431373 0.68627451
0.88627451 0.45098039 0.69019608
1.00000000 0.54509804 0.70980392
0.00000000 0.50980392 0.68235294
0.17254902 0.50588235 0.68235294
0.34509804 0.49803922 0.67450980
0.57647059 0.54117647 0.68627451
0.74509804 0.57647059 0.70196078
0.87843137 0.63137255 0.71764706
1.00000000 0.61960784 0.69019608
0.40784314 0.75294118 0.73725490
0.45490196 0.75294118 0.73725490
0.53725490 0.75294118 0.73725490
0.64705882 0.75294118 0.73333333
0.75294118 0.74901961 0.72941176
0.87058824 0.74117647 0.70588235
0.98431373 0.74901961 0.69019608
0.71372549 0.90588235 0.82352941
0.72156863 0.90196078 0.81960784
0.74901961 0.90196078 0.82352941
0.79215686 0.90196078 0.82352941
0.82745098 0.90196078 0.81568627
0.89411765 0.90196078 0.79607843
0.98823529 0.89411765 0.76862745
0.83137255 0.97254902 0.88235294
0.83921569 0.97254902 0.88235294
0.85098039 0.97254902 0.88235294
0.86666667 0.97647059 0.88235294
0.88627451 0.97647059 0.87843137
0.91764706 0.97647059 0.87058824
0.97254902 0.98039216 0.85490196
0.26274510 0.12156863 0.81960784
0.32549020 0.12156863 0.81960784
0.45098039 0.11764706 0.81568627
0.60784314 0.12549020 0.81960784
0.76078431 0.16862745 0.81960784
0.90588235 0.25098039 0.82745098
1.00000000 0.38431373 0.81960784
0.28627451 0.20000000 0.82352941
0.34117647 0.20000000 0.81960784
0.46274510 0.20000000 0.81960784
0.61568627 0.21568627 0.82352941
0.76470588 0.25490196 0.81960784
0.90588235 0.32156863 0.82745098
1.00000000 0.43921569 0.81960784
0.29411765 0.33725490 0.81960784
0.35294118 0.34117647 0.81960784
0.47058824 0.34901961 0.82352941
0.61960784 0.36470588 0.82352941
0.76862745 0.40392157 0.82352941
0.89803922 0.45882353 0.82745098
0.99215686 0.55294118 0.82745098
0.11372549 0.46274510 0.81568627
0.23137255 0.47058824 0.81568627
0.43921569 0.50588235 0.81960784
0.60784314 0.52941176 0.81960784
0.75686275 0.56470588 0.82352941
0.88627451 0.61176471 0.83137255
0.98039216 0.68627451 0.83921569
0.32941176 0.69411765 0.82745098
0.37254902 0.69803922 0.83137255
0.45098039 0.69019608 0.82745098
0.55294118 0.66666667 0.81568627
0.74509804 0.71372549 0.82745098
0.87450980 0.75294118 0.83921569
0.96862745 0.80000000 0.85098039
0.63921569 0.88627451 0.86666667
0.65098039 0.88235294 0.86274510
0.69411765 0.88627451 0.86666667
0.75294118 0.88627451 0.86666667
0.81568627 0.88235294 0.86274510
0.88627451 0.88235294 0.86274510
0.97254902 0.87450980 0.84705882
0.84705882 0.97254902 0.92156863
0.85490196 0.97254902 0.92156863
0.86274510 0.97254902 0.92156863
0.88627451 0.97647059 0.92549020
0.90980392 0.97254902 0.92941176
0.93333333 0.97254902 0.92549020
0.97254902 0.98039216 0.91372549
0.56470588 0.31764706 0.95686275
0.58823529 0.32156863 0.95294118
0.65882353 0.33725490 0.95294118
0.75294118 0.36862745 0.95294118
0.85098039 0.41176471 0.94901961
0.94509804 0.48627451 0.94509804
1.00000000 0.55686275 0.94509804
0.57254902 0.37254902 0.95686275
0.59607843 0.37647059 0.95294118
0.66274510 0.38823529 0.95294118
0.75294118 0.41568627 0.95294118
0.84705882 0.45490196 0.94901961
0.94117647 0.52156863 0.94509804
1.00000000 0.58431373 0.94509804
0.57254902 0.47450980 0.95294118
0.59607843 0.47843137 0.95294118
0.65882353 0.49019608 0.95294118
0.74901961 0.50980392 0.94901961
0.84705882 0.54509804 0.94901961
0.93333333 0.59607843 0.94509804
1.00000000 0.64705882 0.94901961
0.53725490 0.59215686 0.95294118
0.57254902 0.60000000 0.95294118
0.63529412 0.60784314 0.94901961
0.73333333 0.62352941 0.94901961
0.83137255 0.64705882 0.94901961
0.92156863 0.69019608 0.94509804
0.99607843 0.72941176 0.94901961
0.43529412 0.69803922 0.94901961
0.47058824 0.69803922 0.94901961
0.54901961 0.70196078 0.95294118
0.68235294 0.72156863 0.94901961
0.80392157 0.74901961 0.94901961
0.90196078 0.77647059 0.94509804
0.98823529 0.81176471 0.95294118
0.63921569 0.87843137 0.95294118
0.65098039 0.87843137 0.95686275
0.67843137 0.87843137 0.95686275
0.71372549 0.86666667 0.95294118
0.76470588 0.85490196 0.95686275
0.88627451 0.87058824 0.95686275
0.97647059 0.89411765 0.95686275
0.80392157 0.96862745 0.96470588
0.81176471 0.97254902 0.96470588
0.82745098 0.97254902 0.96862745
0.85098039 0.97254902 0.96470588
0.88627451 0.97254902 0.96862745
0.92941176 0.97647059 0.97254902
0.98039216 0.98039216 0.97647059
