core/profiles/src/main/assets/luts/fuji_400h.cube
# Source: RawTherapee Film Simulation Collection (HaldCLUT.zip)
# Converted from: HaldCLUT/Color/Fuji/Fuji 400H 2.png
TITLE "fuji_400h"
LUT_3D_SIZE 5
DOMAIN_MIN 0.0 0.0 0.0
DOMAIN_MAX 1.0 1.0 1.0
0.01960784 0.01960784 0.01176471
0.21568627 0.02352941 0.01176471
0.60784314 0.00000000 0.00000000
0.89019608 0.00000000 0.00000000
1.00000000 0.23529412 0.00000000
0.00000000 0.21568627 0.00392157
0.18823529 0.22352941 0.00000000
0.60392157 0.24313725 0.00000000
0.87058824 0.28627451 0.00000000
1.00000000 0.36862745 0.00000000
0.00000000 0.53333333 0.00000000
0.00000000 0.51764706 0.00000000
0.52549020 0.53333333 0.00000000
0.81960784 0.56078431 0.00000000
1.00000000 0.56862745 0.00000000
0.00000000 0.74509804 0.14901961
0.19607843 0.73725490 0.16862745
0.50196078 0.73333333 0.16470588
0.74901961 0.74509804 0.05490196
0.98823529 0.76470588 0.00000000
0.43921569 0.95294118 0.50980392
0.48627451 0.94901961 0.51764706
0.60000000 0.94509804 0.55294118
0.75294118 0.95686275 0.54509804
0.95686275 0.96862745 0.52941176
0.05490196 0.03137255 0.20784314
0.24705882 0.01960784 0.21568627
0.63921569 0.00000000 0.22352941
0.89411765 0.04705882 0.26274510
1.00000000 0.28235294 0.28627451
0.00000000 0.25098039 0.23137255
0.25882353 0.26274510 0.23921569
0.63921569 0.26666667 0.24313725
0.87450980 0.30588235 0.23921569
1.00000000 0.39215686 0.27058824
0.00000000 0.57254902 0.26274510
0.19607843 0.55294118 0.25490196
0.55686275 0.55294118 0.23137255
0.82745098 0.56470588 0.17254902
1.00000000 0.57254902 0.19215686
0.05490196 0.75686275 0.31372549
0.28235294 0.74901961 0.32549020
0.51372549 0.73725490 0.32549020
0.75294118 0.74901961 0.29019608
0.99215686 0.76470588 0.25882353
0.45490196 0.95294118 0.55294118
0.49803922 0.94901961 0.56078431
0.61176471 0.94901961 0.58823529
0.75294118 0.95294118 0.58431373
0.95686275 0.97254902 0.57647059
0.11764706 0.04705882 0.54117647
0.34509804 0.01960784 0.55294118
0.66666667 0.00000000 0.58039216
0.89019608 0.00000000 0.55686275
1.00000000 0.27843137 0.55686275
0.03921569 0.25098039 0.54901961
0.34901961 0.27843137 0.56470588
0.66274510 0.30588235 0.58823529
0.87843137 0.30196078 0.56470588
1.00000000 0.43529412 0.58039216
0.00000000 0.58823529 0.57647059
0.30980392 0.59215686 0.58039216
0.62745098 0.60000000 0.59215686
0.83137255 0.60392157 0.58431373
1.00000000 0.61568627 0.59215686
0.35686275 0.78039216 0.58823529
0.45882353 0.78039216 0.59607843
0.58039216 0.76078431 0.57647059
0.76470588 0.76078431 0.56470588
0.99215686 0.76470588 0.53333333
0.48235294 0.95686275 0.65098039
0.52156863 0.95686275 0.65098039
0.62745098 0.95294118 0.66666667
0.76470588 0.95686275 0.68235294
0.96470588 0.96862745 0.67058824
0.40392157 0.10980392 0.77254902
0.51372549 0.11764706 0.77647059
0.70588235 0.18431373 0.78039216
0.88235294 0.28235294 0.79215686
1.00000000 0.32549020 0.76470588
0.39607843 0.30196078 0.76862745
0.50196078 0.31372549 0.76862745
0.69803922 0.36470588 0.78039216
0.86666667 0.43137255 0.79215686
1.00000000 0.44705882 0.76862745
0.22352941 0.52156863 0.74509804
0.38823529 0.53333333 0.75294118
0.65098039 0.58431373 0.76862745
0.83529412 0.63137255 0.78823529
1.00000000 0.62745098 0.77254902
0.34117647 0.77647059 0.76862745
0.44313725 0.78039216 0.77647059
0.61960784 0.78039216 0.77647059
0.81568627 0.80000000 0.79215686
0.99215686 0.79607843 0.78823529
0.50980392 0.97254902 0.79215686
0.55686275 0.97254902 0.79607843
0.67843137 0.96862745 0.80392157
0.79215686 0.96078431 0.80000000
0.98039216 0.97647059 0.80392157
0.64313725 0.43921569 0.96078431
0.67450980 0.45098039 0.95686275
0.76862745 0.49411765 0.95686275
0.89019608 0.55686275 0.95294118
1.00000000 0.58823529 0.95686275
0.63921569 0.52156863 0.95686275
0.67058824 0.52941176 0.95686275
0.76078431 0.55686275 0.95294118
0.89019608 0.60784314 0.95294118
1.00000000 0.63137255 0.95686275
0.60000000 0.64313725 0.95686275
0.64313725 0.65098039 0.95294118
0.74117647 0.67058824 0.95294118
0.87843137 0.70196078 0.95294118
1.00000000 0.72156863 0.95686275
0.50196078 0.76470588 0.95294118
0.54117647 0.76470588 0.95294118
0.65098039 0.76862745 0.95686275
0.84705882 0.80392157 0.95686275
1.00000000 0.83529412 0.96078431
0.49019608 0.97647059 0.96862745
0.53333333 0.97647059 0.96862745
0.64705882 0.97647059 0.96862745
0.80784314 0.97647059 0.97254902
1.00000000 0.98431373 0.97647059
