core/profiles/src/main/assets/luts/fuji_neopan_1600.cube
# Source: RawTherapee Film Simulation Collection (HaldCLUT.zip)
# Converted from: HaldCLUT/Black-and-White/Fuji/Fuji Neopan 1600 2.png
TITLE "fuji_neopan_1600"
LUT_3D_SIZE 5
DOMAIN_MIN 0.0 0.0 0.0
DOMAIN_MAX 1.0 1.0 1.0
0.03921569 0.03921569 0.03921569
0.04313725 0.04313725 0.04313725
0.08235294 0.08235294 0.08235294
0.21568627 0.21568627 0.21568627
0.49019608 0.49019608 0.49019608
0.06274510 0.06274510 0.06274510
0.08627451 0.08627451 0.08627451
0.20784314 0.20784314 0.20784314
0.32156863 0.32156863 0.32156863
0.58823529 0.58823529 0.58823529
0.25098039 0.25098039 0.25098039
0.26274510 0.26274510 0.26274510
0.35686275 0.35686275 0.35686275
0.55686275 0.55686275 0.55686275
0.77647059 0.77647059 0.77647059
0.52941176 0.52941176 0.52941176
0.54901961 0.54901961 0.54901961
0.61176471 0.61176471 0.61176471
0.71372549 0.71372549 0.71372549
0.88235294 0.88235294 0.88235294
0.92156863 0.92156863 0.92156863
0.92549020 0.92549020 0.92549020
0.93725490 0.93725490 0.93725490
0.96862745 0.96862745 0.96862745
0.99607843 0.99607843 0.99607843
0.04705882 0.04705882 0.04705882
0.06666667 0.06666667 0.06666667
0.12941176 0.12941176 0.12941176
0.24705882 0.24705882 0.24705882
0.47450980 0.47450980 0.47450980
0.08627451 0.08627451 0.08627451
0.14509804 0.14509804 0.14509804
0.23529412 0.23529412 0.23529412
0.34509804 0.34509804 0.34509804
0.59215686 0.59215686 0.59215686
0.33333333 0.33333333 0.33333333
0.33725490 0.33725490 0.33725490
0.41176471 0.41176471 0.41176471
0.59215686 0.59215686 0.59215686
0.77647059 0.77647059 0.77647059
0.58431373 0.58431373 0.58431373
0.60784314 0.60784314 0.60784314
0.64313725 0.64313725 0.64313725
0.73725490 0.73725490 0.73725490
0.89019608 0.89019608 0.89019608
0.92941176 0.92941176 0.92941176
0.93333333 0.93333333 0.93333333
0.94117647 0.94117647 0.94117647
0.96862745 0.96862745 0.96862745
0.99607843 0.99607843 0.99607843
0.11764706 0.11764706 0.11764706
0.17254902 0.17254902 0.17254902
0.27843137 0.27843137 0.27843137
0.34901961 0.34901961 0.34901961
0.57647059 0.57647059 0.57647059
0.21176471 0.21176471 0.21176471
0.27058824 0.27058824 0.27058824
0.36470588 0.36470588 0.36470588
0.43921569 0.43921569 0.43921569
0.64705882 0.64705882 0.64705882
0.34901961 0.34901961 0.34901961
0.40000000 0.40000000 0.40000000
0.54117647 0.54117647 0.54117647
0.63529412 0.63529412 0.63529412
0.77647059 0.77647059 0.77647059
0.66666667 0.66666667 0.66666667
0.70588235 0.70588235 0.70588235
0.72941176 0.72941176 0.72941176
0.78823529 0.78823529 0.78823529
0.91372549 0.91372549 0.91372549
0.94509804 0.94509804 0.94509804
0.94901961 0.94901961 0.94901961
0.95686275 0.95686275 0.95686275
0.97647059 0.97647059 0.97647059
0.99607843 0.99607843 0.99607843
0.33333333 0.33333333 0.33333333
0.38039216 0.38039216 0.38039216
0.50980392 0.50980392 0.50980392
0.61568627 0.61568627 0.61568627
0.71372549 0.71372549 0.71372549
0.42745098 0.42745098 0.42745098
0.46274510 0.46274510 0.46274510
0.58039216 0.58039216 0.58039216
0.67450980 0.67450980 0.67450980
0.76470588 0.76470588 0.76470588
0.46666667 0.46666667 0.46666667
0.53725490 0.53725490 0.53725490
0.68235294 0.68235294 0.68235294
0.75686275 0.75686275 0.75686275
0.83529412 0.83529412 0.83529412
0.66666667 0.66666667 0.66666667
0.70196078 0.70196078 0.70196078
0.76862745 0.76862745 0.76862745
0.86274510 0.86274510 0.86274510
0.92941176 0.92941176 0.92941176
0.95686275 0.95686275 0.95686275
0.96078431 0.96078431 0.96078431
0.97647059 0.97647059 0.97647059
0.98823529 0.98823529 0.98823529
1.00000000 1.00000000 1.00000000
0.77254902 0.77254902 0.77254902
0.79215686 0.79215686 0.79215686
0.84313725 0.84313725 0.84313725
0.90588235 0.90588235 0.90588235
0.94117647 0.94117647 0.94117647
0.80392157 0.80392157 0.80392157
0.81568627 0.81568627 0.81568627
0.85882353 0.85882353 0.85882353
0.91764706 0.91764706 0.91764706
0.94901961 0.94901961 0.94901961
0.82745098 0.82745098 0.82745098
0.84313725 0.84313725 0.84313725
0.88235294 0.88235294 0.88235294
0.93725490 0.93725490 0.93725490
0.96862745 0.96862745 0.96862745
0.81960784 0.81960784 0.81960784
0.83137255 0.83137255 0.83137255
0.87450980 0.87450980 0.87450980
0.96078431 0.96078431 0.96078431
0.99215686 0.99215686 0.99215686
0.96470588 0.96470588 0.96470588
0.96862745 0.96862745 0.96862745
0.98039216 0.98039216 0.98039216
0.99215686 0.99215686 0.99215686
1.00000000 1.00000000 1.00000000
