core/profiles/src/main/assets/luts/fuji_neopan_1600.cube
# Source: RawTherapee Film Simulation Collection (HaldCLUT.zip)
# Converted from: HaldCLUT/Black-and-White/Fuji/Fuji Neopan 1600 2.png
TITLE "fuji_neopan_1600"
LUT_3D_SIZE 13
DOMAIN_MIN 0.0 0.0 0.0
DOMAIN_MAX 1.0 1.0 1.0
0.03921569 0.03921569 0.03921569
0.03921569 0.03921569 0.03921569
0.03921569 0.03921569 0.03921569
0.04313725 0.04313725 0.04313725
0.04705882 0.04705882 0.04705882
0.05882353 0.05882353 0.05882353
0.08235294 0.08235294 0.08235294
0.11764706 0.11764706 0.11764706
0.16470588 0.16470588 0.16470588
0.21568627 0.21568627 0.21568627
0.28235294 0.28235294 0.28235294
0.36078431 0.36078431 0.36078431
0.49019608 0.49019608 0.49019608
0.03921569 0.03921569 0.03921569
0.04313725 0.04313725 0.04313725
0.04705882 0.04705882 0.04705882
0.05098039 0.05098039 0.05098039
0.05490196 0.05490196 0.05490196
0.07058824 0.07058824 0.07058824
0.10196078 0.10196078 0.10196078
0.13725490 0.13725490 0.13725490
0.18431373 0.18431373 0.18431373
0.23137255 0.23137255 0.23137255
0.29411765 0.29411765 0.29411765
0.37647059 0.37647059 0.37647059
0.50980392 0.50980392 0.50980392
0.04705882 0.04705882 0.04705882
0.04705882 0.04705882 0.04705882
0.05490196 0.05490196 0.05490196
0.06666667 0.06666667 0.06666667
0.08627451 0.08627451 0.08627451
0.10588235 0.10588235 0.10588235
0.14117647 0.14117647 0.14117647
0.17647059 0.17647059 0.17647059
0.21960784 0.21960784 0.21960784
0.26666667 0.26666667 0.26666667
0.32941176 0.32941176 0.32941176
0.40784314 0.40784314 0.40784314
0.53725490 0.53725490 0.53725490
0.06274510 0.06274510 0.06274510
0.06274510 0.06274510 0.06274510
0.07058824 0.07058824 0.07058824
0.08627451 0.08627451 0.08627451
0.12156863 0.12156863 0.12156863
0.16470588 0.16470588 0.16470588
0.20784314 0.20784314 0.20784314
0.23921569 0.23921569 0.23921569
0.27843137 0.27843137 0.27843137
0.32156863 0.32156863 0.32156863
0.38431373 0.38431373 0.38431373
0.46274510 0.46274510 0.46274510
0.58823529 0.58823529 0.58823529
0.10980392 0.10980392 0.10980392
0.11372549 0.11372549 0.11372549
0.12156863 0.12156863 0.12156863
0.14117647 0.14117647 0.14117647
0.16862745 0.16862745 0.16862745
0.22352941 0.22352941 0.22352941
0.26666667 0.26666667 0.26666667
0.31372549 0.31372549 0.31372549
0.36078431 0.36078431 0.36078431
0.40000000 0.40000000 0.40000000
0.46274510 0.46274510 0.46274510
0.53333333 0.53333333 0.53333333
0.65098039 0.65098039 0.65098039
0.17647059 0.17647059 0.17647059
0.18431373 0.18431373 0.18431373
0.18039216 0.18039216 0.18039216
0.20000000 0.20000000 0.20000000
0.22352941 0.22352941 0.22352941
0.25882353 0.25882353 0.25882353
0.32549020 0.32549020 0.32549020
0.36862745 0.36862745 0.36862745
0.42352941 0.42352941 0.42352941
0.49411765 0.49411765 0.49411765
0.55686275 0.55686275 0.55686275
0.62745098 0.62745098 0.62745098
0.71372549 0.71372549 0.71372549
0.25098039 0.25098039 0.25098039
0.25098039 0.25098039 0.25098039
0.25882353 0.25882353 0.25882353
0.26274510 0.26274510 0.26274510
0.28627451 0.28627451 0.28627451
0.31764706 0.31764706 0.31764706
0.35686275 0.35686275 0.35686275
0.41568627 0.41568627 0.41568627
0.48627451 0.48627451 0.48627451
0.55686275 0.55686275 0.55686275
0.63137255 0.63137255 0.63137255
0.70588235 0.70588235 0.70588235
0.77647059 0.77647059 0.77647059
0.30980392 0.30980392 0.30980392
0.32941176 0.32941176 0.32941176
0.32941176 0.32941176 0.32941176
0.33725490 0.33725490 0.33725490
0.35294118 0.35294118 0.35294118
0.38431373 0.38431373 0.38431373
0.41568627 0.41568627 0.41568627
0.45490196 0.45490196 0.45490196
0.52941176 0.52941176 0.52941176
0.60392157 0.60392157 0.60392157
0.67058824 0.67058824 0.67058824
0.74117647 0.74117647 0.74117647
0.80392157 0.80392157 0.80392157
0.40392157 0.40392157 0.40392157
0.42352941 0.42352941 0.42352941
0.42745098 0.42745098 0.42745098
0.43137255 0.43137255 0.43137255
0.43921569 0.43921569 0.43921569
0.46666667 0.46666667 0.46666667
0.50196078 0.50196078 0.50196078
0.54117647 0.54117647 0.54117647
0.58823529 0.58823529 0.58823529
0.64313725 0.64313725 0.64313725
0.72549020 0.72549020 0.72549020
0.78431373 0.78431373 0.78431373
0.84313725 0.84313725 0.84313725
0.52941176 0.52941176 0.52941176
0.54509804 0.54509804 0.54509804
0.54509804 0.54509804 0.54509804
0.54901961 0.54901961 0.54901961
0.55686275 0.55686275 0.55686275
0.57647059 0.57647059 0.57647059
0.61176471 0.61176471 0.61176471
0.64313725 0.64313725 0.64313725
0.67843137 0.67843137 0.67843137
0.71372549 0.71372549 0.71372549
0.75294118 0.75294118 0.75294118
0.82745098 0.82745098 0.82745098
0.88235294 0.88235294 0.88235294
0.67058824 0.67058824 0.67058824
0.67843137 0.67843137 0.67843137
0.67843137 0.67843137 0.67843137
0.68235294 0.68235294 0.68235294
0.68627451 0.68627451 0.68627451
0.69411765 0.69411765 0.69411765
0.71764706 0.71764706 0.71764706
0.74509804 0.74509804 0.74509804
0.76862745 0.76862745 0.76862745
0.79607843 0.79607843 0.79607843
0.82745098 0.82745098 0.82745098
0.85882353 0.85882353 0.85882353
0.92941176 0.92941176 0.92941176
0.80392157 0.80392157 0.80392157
0.80784314 0.80784314 0.80784314
0.80784314 0.80784314 0.80784314
0.81176471 0.81176471 0.81176471
0.81176471 0.81176471 0.81176471
0.81960784 0.81960784 0.81960784
0.83137255 0.83137255 0.83137255
0.85098039 0.85098039 0.85098039
0.87058824 0.87058824 0.87058824
0.89411765 0.89411765 0.89411765
0.91372549 0.91372549 0.91372549
0.93333333 0.93333333 0.93333333
0.94901961 0.94901961 0.94901961
0.92156863 0.92156863 0.92156863
0.92156863 0.92156863 0.92156863
0.92156863 0.92156863 0.92156863
0.92549020 0.92549020 0.92549020
0.92941176 0.92941176 0.92941176
0.93333333 0.93333333 0.93333333
0.93725490 0.93725490 0.93725490
0.94509804 0.94509804 0.94509804
0.96078431 0.96078431 0.96078431
0.96862745 0.96862745 0.96862745
0.97647059 0.97647059 0.97647059
0.98823529 0.98823529 0.98823529
0.99607843 0.99607843 0.99607843
0.03921569 0.03921569 0.03921569
0.04313725 0.04313725 0.04313725
0.03921569 0.03921569 0.03921569
0.04313725 0.04313725 0.04313725
0.05098039 0.05098039 0.05098039
0.06666667 0.06666667 0.06666667
0.09803922 0.09803922 0.09803922
0.12941176 0.12941176 0.12941176
0.17254902 0.17254902 0.17254902
0.21960784 0.21960784 0.21960784
0.27450980 0.27450980 0.27450980
0.34901961 0.34901961 0.34901961
0.45490196 0.45490196 0.45490196
0.04313725 0.04313725 0.04313725
0.04313725 0.04313725 0.04313725
0.04313725 0.04313725 0.04313725
0.05098039 0.05098039 0.05098039
0.06274510 0.06274510 0.06274510
0.08235294 0.08235294 0.08235294
0.10980392 0.10980392 0.10980392
0.14509804 0.14509804 0.14509804
0.19215686 0.19215686 0.19215686
0.23529412 0.23529412 0.23529412
0.29411765 0.29411765 0.29411765
0.36862745 0.36862745 0.36862745
0.48235294 0.48235294 0.48235294
0.05098039 0.05098039 0.05098039
0.05098039 0.05098039 0.05098039
0.05882353 0.05882353 0.05882353
0.07450980 0.07450980 0.07450980
0.09411765 0.09411765 0.09411765
0.11372549 0.11372549 0.11372549
0.14901961 0.14901961 0.14901961
0.18431373 0.18431373 0.18431373
0.22352941 0.22352941 0.22352941
0.27058824 0.27058824 0.27058824
0.32941176 0.32941176 0.32941176
0.40392157 0.40392157 0.40392157
0.51764706 0.51764706 0.51764706
0.07450980 0.07450980 0.07450980
0.07843137 0.07843137 0.07843137
0.08235294 0.08235294 0.08235294
0.09803922 0.09803922 0.09803922
0.13333333 0.13333333 0.13333333
0.17647059 0.17647059 0.17647059
0.21568627 0.21568627 0.21568627
0.24313725 0.24313725 0.24313725
0.27843137 0.27843137 0.27843137
0.32549020 0.32549020 0.32549020
0.38431373 0.38431373 0.38431373
0.45882353 0.45882353 0.45882353
0.58039216 0.58039216 0.58039216
0.12549020 0.12549020 0.12549020
0.12941176 0.12941176 0.12941176
0.13333333 0.13333333 0.13333333
0.14901961 0.14901961 0.14901961
0.17647059 0.17647059 0.17647059
0.22745098 0.22745098 0.22745098
0.27450980 0.27450980 0.27450980
0.32156863 0.32156863 0.32156863
0.35686275 0.35686275 0.35686275
0.40000000 0.40000000 0.40000000
0.45882353 0.45882353 0.45882353
0.53333333 0.53333333 0.53333333
0.64705882 0.64705882 0.64705882
0.19215686 0.19215686 0.19215686
0.19607843 0.19607843 0.19607843
0.19607843 0.19607843 0.19607843
0.20784314 0.20784314 0.20784314
0.23137255 0.23137255 0.23137255
0.27058824 0.27058824 0.27058824
0.32941176 0.32941176 0.32941176
0.37647059 0.37647059 0.37647059
0.42745098 0.42745098 0.42745098
0.49411765 0.49411765 0.49411765
0.55686275 0.55686275 0.55686275
0.61960784 0.61960784 0.61960784
0.71372549 0.71372549 0.71372549
0.26666667 0.26666667 0.26666667
0.26666667 0.26666667 0.26666667
0.26666667 0.26666667 0.26666667
0.27450980 0.27450980 0.27450980
0.29803922 0.29803922 0.29803922
0.32941176 0.32941176 0.32941176
0.36862745 0.36862745 0.36862745
0.42745098 0.42745098 0.42745098
0.49019608 0.49019608 0.49019608
0.55686275 0.55686275 0.55686275
0.63529412 0.63529412 0.63529412
0.70588235 0.70588235 0.70588235
0.77254902 0.77254902 0.77254902
0.31764706 0.31764706 0.31764706
0.34117647 0.34117647 0.34117647
0.34509804 0.34509804 0.34509804
0.34901961 0.34901961 0.34901961
0.36078431 0.36078431 0.36078431
0.39215686 0.39215686 0.39215686
0.42745098 0.42745098 0.42745098
0.46666667 0.46666667 0.46666667
0.53333333 0.53333333 0.53333333
0.61176471 0.61176471 0.61176471
0.67450980 0.67450980 0.67450980
0.74117647 0.74117647 0.74117647
0.80784314 0.80784314 0.80784314
0.41176471 0.41176471 0.41176471
0.43921569 0.43921569 0.43921569
0.43921569 0.43921569 0.43921569
0.44313725 0.44313725 0.44313725
0.44705882 0.44705882 0.44705882
0.47843137 0.47843137 0.47843137
0.50980392 0.50980392 0.50980392
0.54901961 0.54901961 0.54901961
0.59607843 0.59607843 0.59607843
0.65098039 0.65098039 0.65098039
0.72941176 0.72941176 0.72941176
0.78431373 0.78431373 0.78431373
0.84313725 0.84313725 0.84313725
0.53725490 0.53725490 0.53725490
0.55294118 0.55294118 0.55294118
0.55686275 0.55686275 0.55686275
0.56078431 0.56078431 0.56078431
0.56470588 0.56470588 0.56470588
0.58823529 0.58823529 0.58823529
0.61568627 0.61568627 0.61568627
0.64705882 0.64705882 0.64705882
0.68235294 0.68235294 0.68235294
0.71764706 0.71764706 0.71764706
0.75686275 0.75686275 0.75686275
0.82745098 0.82745098 0.82745098
0.88627451 0.88627451 0.88627451
0.67450980 0.67450980 0.67450980
0.68627451 0.68627451 0.68627451
0.68627451 0.68627451 0.68627451
0.68627451 0.68627451 0.68627451
0.69411765 0.69411765 0.69411765
0.69803922 0.69803922 0.69803922
0.72549020 0.72549020 0.72549020
0.74901961 0.74901961 0.74901961
0.77647059 0.77647059 0.77647059
0.80392157 0.80392157 0.80392157
0.83137255 0.83137255 0.83137255
0.85882353 0.85882353 0.85882353
0.92941176 0.92941176 0.92941176
0.80392157 0.80392157 0.80392157
0.80784314 0.80784314 0.80784314
0.81176471 0.81176471 0.81176471
0.81176471 0.81176471 0.81176471
0.81960784 0.81960784 0.81960784
0.82352941 0.82352941 0.82352941
0.83137255 0.83137255 0.83137255
0.84705882 0.84705882 0.84705882
0.87450980 0.87450980 0.87450980
0.89411765 0.89411765 0.89411765
0.91372549 0.91372549 0.91372549
0.93333333 0.93333333 0.93333333
0.95294118 0.95294118 0.95294118
0.92156863 0.92156863 0.92156863
0.92549020 0.92549020 0.92549020
0.92941176 0.92941176 0.92941176
0.92941176 0.92941176 0.92941176
0.93333333 0.93333333 0.93333333
0.93333333 0.93333333 0.93333333
0.93725490 0.93725490 0.93725490
0.94901961 0.94901961 0.94901961
0.95686275 0.95686275 0.95686275
0.96862745 0.96862745 0.96862745
0.98039216 0.98039216 0.98039216
0.98823529 0.98823529 0.98823529
0.99607843 0.99607843 0.99607843
0.03921569 0.03921569 0.03921569
0.03921569 0.03921569 0.03921569
0.04705882 0.04705882 0.04705882
0.05098039 0.05098039 0.05098039
0.06274510 0.06274510 0.06274510
0.07843137 0.07843137 0.07843137
0.10588235 0.10588235 0.10588235
0.14509804 0.14509804 0.14509804
0.18823529 0.18823529 0.18823529
0.23137255 0.23137255 0.23137255
0.29019608 0.29019608 0.29019608
0.36078431 0.36078431 0.36078431
0.46666667 0.46666667 0.46666667
0.04313725 0.04313725 0.04313725
0.04705882 0.04705882 0.04705882
0.05490196 0.05490196 0.05490196
0.05882353 0.05882353 0.05882353
0.07450980 0.07450980 0.07450980
0.09411765 0.09411765 0.09411765
0.12941176 0.12941176 0.12941176
0.16470588 0.16470588 0.16470588
0.20392157 0.20392157 0.20392157
0.24705882 0.24705882 0.24705882
0.30588235 0.30588235 0.30588235
0.38039216 0.38039216 0.38039216
0.49019608 0.49019608 0.49019608
0.05098039 0.05098039 0.05098039
0.05490196 0.05490196 0.05490196
0.07058824 0.07058824 0.07058824
0.08235294 0.08235294 0.08235294
0.10196078 0.10196078 0.10196078
0.12549020 0.12549020 0.12549020
0.16078431 0.16078431 0.16078431
0.19607843 0.19607843 0.19607843
0.23529412 0.23529412 0.23529412
0.28235294 0.28235294 0.28235294
0.34117647 0.34117647 0.34117647
0.41176471 0.41176471 0.41176471
0.52549020 0.52549020 0.52549020
0.09019608 0.09019608 0.09019608
0.09803922 0.09803922 0.09803922
0.10196078 0.10196078 0.10196078
0.11372549 0.11372549 0.11372549
0.15294118 0.15294118 0.15294118
0.19215686 0.19215686 0.19215686
0.22352941 0.22352941 0.22352941
0.25490196 0.25490196 0.25490196
0.28627451 0.28627451 0.28627451
0.33333333 0.33333333 0.33333333
0.39215686 0.39215686 0.39215686
0.46666667 0.46666667 0.46666667
0.58431373 0.58431373 0.58431373
0.15686275 0.15686275 0.15686275
0.15686275 0.15686275 0.15686275
0.15686275 0.15686275 0.15686275
0.16862745 0.16862745 0.16862745
0.19607843 0.19607843 0.19607843
0.24705882 0.24705882 0.24705882
0.29411765 0.29411765 0.29411765
0.33333333 0.33333333 0.33333333
0.36470588 0.36470588 0.36470588
0.40784314 0.40784314 0.40784314
0.46666667 0.46666667 0.46666667
0.54117647 0.54117647 0.54117647
0.64705882 0.64705882 0.64705882
0.21960784 0.21960784 0.21960784
0.21960784 0.21960784 0.21960784
0.21960784 0.21960784 0.21960784
0.22745098 0.22745098 0.22745098
0.25098039 0.25098039 0.25098039
0.28627451 0.28627451 0.28627451
0.34509804 0.34509804 0.34509804
0.38823529 0.38823529 0.38823529
0.44313725 0.44313725 0.44313725
0.50196078 0.50196078 0.50196078
0.56078431 0.56078431 0.56078431
0.62745098 0.62745098 0.62745098
0.71764706 0.71764706 0.71764706
0.29411765 0.29411765 0.29411765
0.29411765 0.29411765 0.29411765
0.29411765 0.29411765 0.29411765
0.29803922 0.29803922 0.29803922
0.31764706 0.31764706 0.31764706
0.34901961 0.34901961 0.34901961
0.38431373 0.38431373 0.38431373
0.44313725 0.44313725 0.44313725
0.50588235 0.50588235 0.50588235
0.56862745 0.56862745 0.56862745
0.64705882 0.64705882 0.64705882
0.70588235 0.70588235 0.70588235
0.77254902 0.77254902 0.77254902
0.34509804 0.34509804 0.34509804
0.36470588 0.36470588 0.36470588
0.36862745 0.36862745 0.36862745
0.37254902 0.37254902 0.37254902
0.38039216 0.38039216 0.38039216
0.41176471 0.41176471 0.41176471
0.43921569 0.43921569 0.43921569
0.48235294 0.48235294 0.48235294
0.54901961 0.54901961 0.54901961
0.61960784 0.61960784 0.61960784
0.68235294 0.68235294 0.68235294
0.74509804 0.74509804 0.74509804
0.80784314 0.80784314 0.80784314
0.43529412 0.43529412 0.43529412
0.45882353 0.45882353 0.45882353
0.45882353 0.45882353 0.45882353
0.46274510 0.46274510 0.46274510
0.47058824 0.47058824 0.47058824
0.49411765 0.49411765 0.49411765
0.52549020 0.52549020 0.52549020
0.56078431 0.56078431 0.56078431
0.60784314 0.60784314 0.60784314
0.66274510 0.66274510 0.66274510
0.73333333 0.73333333 0.73333333
0.78823529 0.78823529 0.78823529
0.84705882 0.84705882 0.84705882
0.55686275 0.55686275 0.55686275
0.57254902 0.57254902 0.57254902
0.57254902 0.57254902 0.57254902
0.58039216 0.58039216 0.58039216
0.58431373 0.58431373 0.58431373
0.59607843 0.59607843 0.59607843
0.62745098 0.62745098 0.62745098
0.65490196 0.65490196 0.65490196
0.69019608 0.69019608 0.69019608
0.72549020 0.72549020 0.72549020
0.76470588 0.76470588 0.76470588
0.83137255 0.83137255 0.83137255
0.88627451 0.88627451 0.88627451
0.69019608 0.69019608 0.69019608
0.69411765 0.69411765 0.69411765
0.69803922 0.69803922 0.69803922
0.70196078 0.70196078 0.70196078
0.70588235 0.70588235 0.70588235
0.70980392 0.70980392 0.70980392
0.73333333 0.73333333 0.73333333
0.75686275 0.75686275 0.75686275
0.77647059 0.77647059 0.77647059
0.80392157 0.80392157 0.80392157
0.83529412 0.83529412 0.83529412
0.86274510 0.86274510 0.86274510
0.92941176 0.92941176 0.92941176
0.80784314 0.80784314 0.80784314
0.81568627 0.81568627 0.81568627
0.81568627 0.81568627 0.81568627
0.81960784 0.81960784 0.81960784
0.82352941 0.82352941 0.82352941
0.83137255 0.83137255 0.83137255
0.83529412 0.83529412 0.83529412
0.85490196 0.85490196 0.85490196
0.87450980 0.87450980 0.87450980
0.89803922 0.89803922 0.89803922
0.91764706 0.91764706 0.91764706
0.93725490 0.93725490 0.93725490
0.95294118 0.95294118 0.95294118
0.92549020 0.92549020 0.92549020
0.92941176 0.92941176 0.92941176
0.92549020 0.92549020 0.92549020
0.92941176 0.92941176 0.92941176
0.93333333 0.93333333 0.93333333
0.93725490 0.93725490 0.93725490
0.94117647 0.94117647 0.94117647
0.94901961 0.94901961 0.94901961
0.95686275 0.95686275 0.95686275
0.96862745 0.96862745 0.96862745
0.98039216 0.98039216 0.98039216
0.98823529 0.98823529 0.98823529
0.99607843 0.99607843 0.99607843
0.04705882 0.04705882 0.04705882
0.04705882 0.04705882 0.04705882
0.05490196 0.05490196 0.05490196
0.06666667 0.06666667 0.06666667
0.07450980 0.07450980 0.07450980
0.09803922 0.09803922 0.09803922
0.12941176 0.12941176 0.12941176
0.16470588 0.16470588 0.16470588
0.20000000 0.20000000 0.20000000
0.24705882 0.24705882 0.24705882
0.30196078 0.30196078 0.30196078
0.37254902 0.37254902 0.37254902
0.47450980 0.47450980 0.47450980
0.05098039 0.05098039 0.05098039
0.05882353 0.05882353 0.05882353
0.06274510 0.06274510 0.06274510
0.08235294 0.08235294 0.08235294
0.09019608 0.09019608 0.09019608
0.11372549 0.11372549 0.11372549
0.14509804 0.14509804 0.14509804
0.18431373 0.18431373 0.18431373
0.21960784 0.21960784 0.21960784
0.26274510 0.26274510 0.26274510
0.32156863 0.32156863 0.32156863
0.39215686 0.39215686 0.39215686
0.49803922 0.49803922 0.49803922
0.05882353 0.05882353 0.05882353
0.06666667 0.06666667 0.06666667
0.09019608 0.09019608 0.09019608
0.10588235 0.10588235 0.10588235
0.12156863 0.12156863 0.12156863
0.14509804 0.14509804 0.14509804
0.17647059 0.17647059 0.17647059
0.20784314 0.20784314 0.20784314
0.24705882 0.24705882 0.24705882
0.29803922 0.29803922 0.29803922
0.35686275 0.35686275 0.35686275
0.42745098 0.42745098 0.42745098
0.53725490 0.53725490 0.53725490
0.08627451 0.08627451 0.08627451
0.09803922 0.09803922 0.09803922
0.11372549 0.11372549 0.11372549
0.14509804 0.14509804 0.14509804
0.17254902 0.17254902 0.17254902
0.20392157 0.20392157 0.20392157
0.23529412 0.23529412 0.23529412
0.26666667 0.26666667 0.26666667
0.29803922 0.29803922 0.29803922
0.34509804 0.34509804 0.34509804
0.40392157 0.40392157 0.40392157
0.47843137 0.47843137 0.47843137
0.59215686 0.59215686 0.59215686
0.16078431 0.16078431 0.16078431
0.17254902 0.17254902 0.17254902
0.18823529 0.18823529 0.18823529
0.20392157 0.20392157 0.20392157
0.23137255 0.23137255 0.23137255
0.27058824 0.27058824 0.27058824
0.31372549 0.31372549 0.31372549
0.34117647 0.34117647 0.34117647
0.37254902 0.37254902 0.37254902
0.41960784 0.41960784 0.41960784
0.47843137 0.47843137 0.47843137
0.54901961 0.54901961 0.54901961
0.65490196 0.65490196 0.65490196
0.24705882 0.24705882 0.24705882
0.25490196 0.25490196 0.25490196
0.26274510 0.26274510 0.26274510
0.26666667 0.26666667 0.26666667
0.28235294 0.28235294 0.28235294
0.31764706 0.31764706 0.31764706
0.36862745 0.36862745 0.36862745
0.41176471 0.41176471 0.41176471
0.46666667 0.46666667 0.46666667
0.50980392 0.50980392 0.50980392
0.56862745 0.56862745 0.56862745
0.63137255 0.63137255 0.63137255
0.71764706 0.71764706 0.71764706
0.33333333 0.33333333 0.33333333
0.32941176 0.32941176 0.32941176
0.33333333 0.33333333 0.33333333
0.33725490 0.33725490 0.33725490
0.34509804 0.34509804 0.34509804
0.37647059 0.37647059 0.37647059
0.41176471 0.41176471 0.41176471
0.47058824 0.47058824 0.47058824
0.52156863 0.52156863 0.52156863
0.59215686 0.59215686 0.59215686
0.65882353 0.65882353 0.65882353
0.70980392 0.70980392 0.70980392
0.77647059 0.77647059 0.77647059
0.38039216 0.38039216 0.38039216
0.40392157 0.40392157 0.40392157
0.40392157 0.40392157 0.40392157
0.40784314 0.40784314 0.40784314
0.41568627 0.41568627 0.41568627
0.43529412 0.43529412 0.43529412
0.46666667 0.46666667 0.46666667
0.50196078 0.50196078 0.50196078
0.57647059 0.57647059 0.57647059
0.63529412 0.63529412 0.63529412
0.69411765 0.69411765 0.69411765
0.75294118 0.75294118 0.75294118
0.81568627 0.81568627 0.81568627
0.47058824 0.47058824 0.47058824
0.49019608 0.49019608 0.49019608
0.49411765 0.49411765 0.49411765
0.49803922 0.49803922 0.49803922
0.50588235 0.50588235 0.50588235
0.51764706 0.51764706 0.51764706
0.54901961 0.54901961 0.54901961
0.58431373 0.58431373 0.58431373
0.62352941 0.62352941 0.62352941
0.67843137 0.67843137 0.67843137
0.74509804 0.74509804 0.74509804
0.79607843 0.79607843 0.79607843
0.85098039 0.85098039 0.85098039
0.58431373 0.58431373 0.58431373
0.60000000 0.60000000 0.60000000
0.60000000 0.60000000 0.60000000
0.60784314 0.60784314 0.60784314
0.61176471 0.61176471 0.61176471
0.61568627 0.61568627 0.61568627
0.64313725 0.64313725 0.64313725
0.67058824 0.67058824 0.67058824
0.70196078 0.70196078 0.70196078
0.73725490 0.73725490 0.73725490
0.77647059 0.77647059 0.77647059
0.83921569 0.83921569 0.83921569
0.89019608 0.89019608 0.89019608
0.70588235 0.70588235 0.70588235
0.71372549 0.71372549 0.71372549
0.71764706 0.71764706 0.71764706
0.71764706 0.71764706 0.71764706
0.72156863 0.72156863 0.72156863
0.72941176 0.72941176 0.72941176
0.74117647 0.74117647 0.74117647
0.76078431 0.76078431 0.76078431
0.78431373 0.78431373 0.78431373
0.81568627 0.81568627 0.81568627
0.84313725 0.84313725 0.84313725
0.86666667 0.86666667 0.86666667
0.93333333 0.93333333 0.93333333
0.81960784 0.81960784 0.81960784
0.82352941 0.82352941 0.82352941
0.82745098 0.82745098 0.82745098
0.83137255 0.83137255 0.83137255
0.83137255 0.83137255 0.83137255
0.83529412 0.83529412 0.83529412
0.84313725 0.84313725 0.84313725
0.85882353 0.85882353 0.85882353
0.87843137 0.87843137 0.87843137
0.90196078 0.90196078 0.90196078
0.92156863 0.92156863 0.92156863
0.93725490 0.93725490 0.93725490
0.95294118 0.95294118 0.95294118
0.92941176 0.92941176 0.92941176
0.93333333 0.93333333 0.93333333
0.92941176 0.92941176 0.92941176
0.93333333 0.93333333 0.93333333
0.93333333 0.93333333 0.93333333
0.93725490 0.93725490 0.93725490
0.94117647 0.94117647 0.94117647
0.94901961 0.94901961 0.94901961
0.95686275 0.95686275 0.95686275
0.96862745 0.96862745 0.96862745
0.98039216 0.98039216 0.98039216
0.98823529 0.98823529 0.98823529
0.99607843 0.99607843 0.99607843
0.05098039 0.05098039 0.05098039
0.05882353 0.05882353 0.05882353
0.07058824 0.07058824 0.07058824
0.09803922 0.09803922 0.09803922
0.11764706 0.11764706 0.11764706
0.12156863 0.12156863 0.12156863
0.16078431 0.16078431 0.16078431
0.19215686 0.19215686 0.19215686
0.23137255 0.23137255 0.23137255
0.27058824 0.27058824 0.27058824
0.32549020 0.32549020 0.32549020
0.39215686 0.39215686 0.39215686
0.48627451 0.48627451 0.48627451
0.06666667 0.06666667 0.06666667
0.07058824 0.07058824 0.07058824
0.08627451 0.08627451 0.08627451
0.11372549 0.11372549 0.11372549
0.13333333 0.13333333 0.13333333
0.13725490 0.13725490 0.13725490
0.17647059 0.17647059 0.17647059
0.21176471 0.21176471 0.21176471
0.24313725 0.24313725 0.24313725
0.29019608 0.29019608 0.29019608
0.34509804 0.34509804 0.34509804
0.40784314 0.40784314 0.40784314
0.50980392 0.50980392 0.50980392
0.09019608 0.09019608 0.09019608
0.10196078 0.10196078 0.10196078
0.11764706 0.11764706 0.11764706
0.13725490 0.13725490 0.13725490
0.16078431 0.16078431 0.16078431
0.17647059 0.17647059 0.17647059
0.20784314 0.20784314 0.20784314
0.23529412 0.23529412 0.23529412
0.27450980 0.27450980 0.27450980
0.31764706 0.31764706 0.31764706
0.37254902 0.37254902 0.37254902
0.43529412 0.43529412 0.43529412
0.54509804 0.54509804 0.54509804
0.10588235 0.10588235 0.10588235
0.11372549 0.11372549 0.11372549
0.13333333 0.13333333 0.13333333
0.18431373 0.18431373 0.18431373
0.21176471 0.21176471 0.21176471
