core/profiles/src/main/assets/luts/ilford_hp_5_plus_400.cube
# Source: RawTherapee Film Simulation Collection (HaldCLUT.zip)
# Converted from: HaldCLUT/Black-and-White/Ilford/Ilford HP5 Plus 400.png
TITLE "ilford_hp_5_plus_400"
LUT_3D_SIZE 5
DOMAIN_MIN 0.0 0.0 0.0
DOMAIN_MAX 1.0 1.0 1.0
0.00000000 0.00000000 0.00000000
0.00784314 0.00784314 0.00784314
0.04313725 0.04313725 0.04313725
0.17254902 0.17254902 0.17254902
0.42352941 0.42352941 0.42352941
0.06274510 0.06274510 0.06274510
0.09019608 0.09019608 0.09019608
0.16862745 0.16862745 0.16862745
0.30196078 0.30196078 0.30196078
0.50980392 0.50980392 0.50980392
0.25098039 0.25098039 0.25098039
0.27058824 0.27058824 0.27058824
0.34117647 0.34117647 0.34117647
0.45098039 0.45098039 0.45098039
0.61568627 0.61568627 0.61568627
0.49411765 0.49411765 0.49411765
0.50980392 0.50980392 0.50980392
0.55294118 0.55294118 0.55294118
0.63137255 0.63137255 0.63137255
0.75686275 0.75686275 0.75686275
0.79215686 0.79215686 0.79215686
0.80000000 0.80000000 0.80000000
0.81960784 0.81960784 0.81960784
0.85098039 0.85098039 0.85098039
0.91764706 0.91764706 0.91764706
0.01960784 0.01960784 0.01960784
0.06274510 0.06274510 0.06274510
0.14117647 0.14117647 0.14117647
0.27843137 0.27843137 0.27843137
0.49803922 0.49803922 0.49803922
0.14117647 0.14117647 0.14117647
0.17647059 0.17647059 0.17647059
0.25098039 0.25098039 0.25098039
0.38431373 0.38431373 0.38431373
0.56470588 0.56470588 0.56470588
0.31764706 0.31764706 0.31764706
0.34117647 0.34117647 0.34117647
0.41176471 0.41176471 0.41176471
0.50196078 0.50196078 0.50196078
0.65882353 0.65882353 0.65882353
0.54117647 0.54117647 0.54117647
0.55686275 0.55686275 0.55686275
0.60000000 0.60000000 0.60000000
0.67058824 0.67058824 0.67058824
0.78039216 0.78039216 0.78039216
0.81568627 0.81568627 0.81568627
0.82352941 0.82352941 0.82352941
0.83921569 0.83921569 0.83921569
0.87058824 0.87058824 0.87058824
0.92941176 0.92941176 0.92941176
0.10196078 0.10196078 0.10196078
0.17254902 0.17254902 0.17254902
0.25490196 0.25490196 0.25490196
0.39215686 0.39215686 0.39215686
0.57647059 0.57647059 0.57647059
0.27058824 0.27058824 0.27058824
0.30196078 0.30196078 0.30196078
0.38039216 0.38039216 0.38039216
0.48235294 0.48235294 0.48235294
0.64705882 0.64705882 0.64705882
0.45098039 0.45098039 0.45098039
0.46666667 0.46666667 0.46666667
0.51764706 0.51764706 0.51764706
0.60000000 0.60000000 0.60000000
0.73333333 0.73333333 0.73333333
0.64313725 0.64313725 0.64313725
0.65490196 0.65490196 0.65490196
0.69019608 0.69019608 0.69019608
0.74509804 0.74509804 0.74509804
0.83137255 0.83137255 0.83137255
0.86274510 0.86274510 0.86274510
0.86666667 0.86666667 0.86666667
0.88235294 0.88235294 0.88235294
0.90588235 0.90588235 0.90588235
0.95294118 0.95294118 0.95294118
0.28235294 0.28235294 0.28235294
0.35294118 0.35294118 0.35294118
0.43137255 0.43137255 0.43137255
0.52549020 0.52549020 0.52549020
0.68235294 0.68235294 0.68235294
0.45490196 0.45490196 0.45490196
0.47843137 0.47843137 0.47843137
0.53333333 0.53333333 0.53333333
0.61960784 0.61960784 0.61960784
0.74117647 0.74117647 0.74117647
0.60000000 0.60000000 0.60000000
0.61568627 0.61568627 0.61568627
0.65882353 0.65882353 0.65882353
0.72156863 0.72156863 0.72156863
0.81176471 0.81176471 0.81176471
0.75686275 0.75686275 0.75686275
0.76862745 0.76862745 0.76862745
0.78823529 0.78823529 0.78823529
0.82745098 0.82745098 0.82745098
0.89019608 0.89019608 0.89019608
0.92156863 0.92156863 0.92156863
0.92549020 0.92549020 0.92549020
0.93333333 0.93333333 0.93333333
0.94901961 0.94901961 0.94901961
0.98039216 0.98039216 0.98039216
0.51764706 0.51764706 0.51764706
0.56470588 0.56470588 0.56470588
0.61960784 0.61960784 0.61960784
0.69411765 0.69411765 0.69411765
0.79607843 0.79607843 0.79607843
0.66274510 0.66274510 0.66274510
0.67843137 0.67843137 0.67843137
0.71764706 0.71764706 0.71764706
0.77254902 0.77254902 0.77254902
0.84705882 0.84705882 0.84705882
0.77647059 0.77647059 0.77647059
0.78823529 0.78823529 0.78823529
0.81176471 0.81176471 0.81176471
0.84705882 0.84705882 0.84705882
0.90196078 0.90196078 0.90196078
0.88235294 0.88235294 0.88235294
0.89019608 0.89019608 0.89019608
0.90196078 0.90196078 0.90196078
0.92549020 0.92549020 0.92549020
0.96078431 0.96078431 0.96078431
0.98823529 0.98823529 0.98823529
0.98823529 0.98823529 0.98823529
0.99215686 0.99215686 0.99215686
1.00000000 1.00000000 1.00000000
1.00000000 1.00000000 1.00000000
