core/profiles/src/main/assets/luts/ilford_hp_5_plus_400.cube
# Source: RawTherapee Film Simulation Collection (HaldCLUT.zip)
# Converted from: HaldCLUT/Black-and-White/Ilford/Ilford HP5 Plus 400.png
TITLE "ilford_hp_5_plus_400"
LUT_3D_SIZE 7
DOMAIN_MIN 0.0 0.0 0.0
DOMAIN_MAX 1.0 1.0 1.0
0.00000000 0.00000000 0.00000000
0.00392157 0.00392157 0.00392157
0.01176471 0.01176471 0.01176471
0.04313725 0.04313725 0.04313725
0.11372549 0.11372549 0.11372549
0.24313725 0.24313725 0.24313725
0.42352941 0.42352941 0.42352941
0.02745098 0.02745098 0.02745098
0.04313725 0.04313725 0.04313725
0.07058824 0.07058824 0.07058824
0.12549020 0.12549020 0.12549020
0.21176471 0.21176471 0.21176471
0.32549020 0.32549020 0.32549020
0.48235294 0.48235294 0.48235294
0.11372549 0.11372549 0.11372549
0.12941176 0.12941176 0.12941176
0.16470588 0.16470588 0.16470588
0.21960784 0.21960784 0.21960784
0.29411765 0.29411765 0.29411765
0.41176471 0.41176471 0.41176471
0.53725490 0.53725490 0.53725490
0.25098039 0.25098039 0.25098039
0.25882353 0.25882353 0.25882353
0.28627451 0.28627451 0.28627451
0.34117647 0.34117647 0.34117647
0.41568627 0.41568627 0.41568627
0.49803922 0.49803922 0.49803922
0.61568627 0.61568627 0.61568627
0.41568627 0.41568627 0.41568627
0.42352941 0.42352941 0.42352941
0.44313725 0.44313725 0.44313725
0.47843137 0.47843137 0.47843137
0.52941176 0.52941176 0.52941176
0.60392157 0.60392157 0.60392157
0.70588235 0.70588235 0.70588235
0.58823529 0.58823529 0.58823529
0.59215686 0.59215686 0.59215686
0.61176471 0.61176471 0.61176471
0.63921569 0.63921569 0.63921569
0.67843137 0.67843137 0.67843137
0.72941176 0.72941176 0.72941176
0.80392157 0.80392157 0.80392157
0.79215686 0.79215686 0.79215686
0.79607843 0.79607843 0.79607843
0.80392157 0.80392157 0.80392157
0.81960784 0.81960784 0.81960784
0.83921569 0.83921569 0.83921569
0.86666667 0.86666667 0.86666667
0.91764706 0.91764706 0.91764706
0.00784314 0.00784314 0.00784314
0.02745098 0.02745098 0.02745098
0.05490196 0.05490196 0.05490196
0.10588235 0.10588235 0.10588235
0.19607843 0.19607843 0.19607843
0.31372549 0.31372549 0.31372549
0.47843137 0.47843137 0.47843137
0.06666667 0.06666667 0.06666667
0.08627451 0.08627451 0.08627451
0.12549020 0.12549020 0.12549020
0.18431373 0.18431373 0.18431373
0.26274510 0.26274510 0.26274510
0.38039216 0.38039216 0.38039216
0.51764706 0.51764706 0.51764706
0.16078431 0.16078431 0.16078431
0.17647059 0.17647059 0.17647059
0.21176471 0.21176471 0.21176471
0.26274510 0.26274510 0.26274510
0.34117647 0.34117647 0.34117647
0.44313725 0.44313725 0.44313725
0.56862745 0.56862745 0.56862745
0.28627451 0.28627451 0.28627451
0.29803922 0.29803922 0.29803922
0.32549020 0.32549020 0.32549020
0.38039216 0.38039216 0.38039216
0.44313725 0.44313725 0.44313725
0.52156863 0.52156863 0.52156863
0.64313725 0.64313725 0.64313725
0.44313725 0.44313725 0.44313725
0.45098039 0.45098039 0.45098039
0.47058824 0.47058824 0.47058824
0.50588235 0.50588235 0.50588235
0.55294118 0.55294118 0.55294118
0.62745098 0.62745098 0.62745098
0.72549020 0.72549020 0.72549020
0.60784314 0.60784314 0.60784314
0.61568627 0.61568627 0.61568627
0.63137255 0.63137255 0.63137255
0.65882353 0.65882353 0.65882353
0.69411765 0.69411765 0.69411765
0.74509804 0.74509804 0.74509804
0.81568627 0.81568627 0.81568627
0.80784314 0.80784314 0.80784314
0.80784314 0.80784314 0.80784314
0.81568627 0.81568627 0.81568627
0.82745098 0.82745098 0.82745098
0.84705882 0.84705882 0.84705882
0.87843137 0.87843137 0.87843137
0.92156863 0.92156863 0.92156863
0.03921569 0.03921569 0.03921569
0.07450980 0.07450980 0.07450980
0.11372549 0.11372549 0.11372549
0.17647059 0.17647059 0.17647059
0.25882353 0.25882353 0.25882353
0.37647059 0.37647059 0.37647059
0.52156863 0.52156863 0.52156863
0.12941176 0.12941176 0.12941176
0.15294118 0.15294118 0.15294118
0.19607843 0.19607843 0.19607843
0.25098039 0.25098039 0.25098039
0.32941176 0.32941176 0.32941176
0.43921569 0.43921569 0.43921569
0.56470588 0.56470588 0.56470588
0.23137255 0.23137255 0.23137255
0.24705882 0.24705882 0.24705882
0.27450980 0.27450980 0.27450980
0.32941176 0.32941176 0.32941176
0.40784314 0.40784314 0.40784314
0.49411765 0.49411765 0.49411765
0.61568627 0.61568627 0.61568627
0.36078431 0.36078431 0.36078431
0.37254902 0.37254902 0.37254902
0.40000000 0.40000000 0.40000000
0.44313725 0.44313725 0.44313725
0.49411765 0.49411765 0.49411765
0.57254902 0.57254902 0.57254902
0.68235294 0.68235294 0.68235294
0.49411765 0.49411765 0.49411765
0.50196078 0.50196078 0.50196078
0.52156863 0.52156863 0.52156863
0.55686275 0.55686275 0.55686275
0.60392157 0.60392157 0.60392157
0.67058824 0.67058824 0.67058824
0.75686275 0.75686275 0.75686275
0.65490196 0.65490196 0.65490196
0.66274510 0.66274510 0.66274510
0.67450980 0.67450980 0.67450980
0.69803922 0.69803922 0.69803922
0.73333333 0.73333333 0.73333333
0.77647059 0.77647059 0.77647059
0.83921569 0.83921569 0.83921569
0.83137255 0.83137255 0.83137255
0.83529412 0.83529412 0.83529412
0.83921569 0.83921569 0.83921569
0.85098039 0.85098039 0.85098039
0.87058824 0.87058824 0.87058824
0.89411765 0.89411765 0.89411765
0.93725490 0.93725490 0.93725490
0.10196078 0.10196078 0.10196078
0.15294118 0.15294118 0.15294118
0.20000000 0.20000000 0.20000000
0.25490196 0.25490196 0.25490196
0.33725490 0.33725490 0.33725490
0.44705882 0.44705882 0.44705882
0.57647059 0.57647059 0.57647059
0.22352941 0.22352941 0.22352941
0.24313725 0.24313725 0.24313725
0.28235294 0.28235294 0.28235294
0.33725490 0.33725490 0.33725490
0.41568627 0.41568627 0.41568627
0.50196078 0.50196078 0.50196078
0.62352941 0.62352941 0.62352941
0.32156863 0.32156863 0.32156863
0.33725490 0.33725490 0.33725490
0.37254902 0.37254902 0.37254902
0.42352941 0.42352941 0.42352941
0.48235294 0.48235294 0.48235294
0.56078431 0.56078431 0.56078431
0.67058824 0.67058824 0.67058824
0.45098039 0.45098039 0.45098039
0.45882353 0.45882353 0.45882353
0.47843137 0.47843137 0.47843137
0.51764706 0.51764706 0.51764706
0.56862745 0.56862745 0.56862745
0.63921569 0.63921569 0.63921569
0.73333333 0.73333333 0.73333333
0.57254902 0.57254902 0.57254902
0.58039216 0.58039216 0.58039216
0.59607843 0.59607843 0.59607843
0.62745098 0.62745098 0.62745098
0.67058824 0.67058824 0.67058824
0.72549020 0.72549020 0.72549020
0.79607843 0.79607843 0.79607843
0.71372549 0.71372549 0.71372549
0.72156863 0.72156863 0.72156863
0.73333333 0.73333333 0.73333333
0.74901961 0.74901961 0.74901961
0.77647059 0.77647059 0.77647059
0.81568627 0.81568627 0.81568627
0.87058824 0.87058824 0.87058824
0.86274510 0.86274510 0.86274510
0.86666667 0.86666667 0.86666667
0.87058824 0.87058824 0.87058824
0.88235294 0.88235294 0.88235294
0.89803922 0.89803922 0.89803922
0.91764706 0.91764706 0.91764706
0.95294118 0.95294118 0.95294118
0.21568627 0.21568627 0.21568627
0.26274510 0.26274510 0.26274510
0.30196078 0.30196078 0.30196078
0.36470588 0.36470588 0.36470588
0.43921569 0.43921569 0.43921569
0.52156863 0.52156863 0.52156863
0.64313725 0.64313725 0.64313725
0.33725490 0.33725490 0.33725490
0.36078431 0.36078431 0.36078431
0.40000000 0.40000000 0.40000000
0.44705882 0.44705882 0.44705882
0.50196078 0.50196078 0.50196078
0.58039216 0.58039216 0.58039216
0.69019608 0.69019608 0.69019608
0.44313725 0.44313725 0.44313725
0.45490196 0.45490196 0.45490196
0.47843137 0.47843137 0.47843137
0.51372549 0.51372549 0.51372549
0.56862745 0.56862745 0.56862745
0.63921569 0.63921569 0.63921569
0.72941176 0.72941176 0.72941176
0.54509804 0.54509804 0.54509804
0.55294118 0.55294118 0.55294118
0.57254902 0.57254902 0.57254902
0.60784314 0.60784314 0.60784314
0.65098039 0.65098039 0.65098039
0.70980392 0.70980392 0.70980392
0.78431373 0.78431373 0.78431373
0.65882353 0.65882353 0.65882353
0.66666667 0.66666667 0.66666667
0.67843137 0.67843137 0.67843137
0.70588235 0.70588235 0.70588235
0.73725490 0.73725490 0.73725490
0.78039216 0.78039216 0.78039216
0.83921569 0.83921569 0.83921569
0.77647059 0.77647059 0.77647059
0.78039216 0.78039216 0.78039216
0.78823529 0.78823529 0.78823529
0.80392157 0.80392157 0.80392157
0.82352941 0.82352941 0.82352941
0.85490196 0.85490196 0.85490196
0.90196078 0.90196078 0.90196078
0.90196078 0.90196078 0.90196078
0.90196078 0.90196078 0.90196078
0.90588235 0.90588235 0.90588235
0.91372549 0.91372549 0.91372549
0.92549020 0.92549020 0.92549020
0.94509804 0.94509804 0.94509804
0.97254902 0.97254902 0.97254902
0.36470588 0.36470588 0.36470588
0.41176471 0.41176471 0.41176471
0.44313725 0.44313725 0.44313725
0.48627451 0.48627451 0.48627451
0.54509804 0.54509804 0.54509804
0.61960784 0.61960784 0.61960784
0.71764706 0.71764706 0.71764706
0.47450980 0.47450980 0.47450980
0.49019608 0.49019608 0.49019608
0.51764706 0.51764706 0.51764706
0.55686275 0.55686275 0.55686275
0.61176471 0.61176471 0.61176471
0.67843137 0.67843137 0.67843137
0.75686275 0.75686275 0.75686275
0.56078431 0.56078431 0.56078431
0.57254902 0.57254902 0.57254902
0.59607843 0.59607843 0.59607843
0.62745098 0.62745098 0.62745098
0.67450980 0.67450980 0.67450980
0.72549020 0.72549020 0.72549020
0.79607843 0.79607843 0.79607843
0.65882353 0.65882353 0.65882353
0.66666667 0.66666667 0.66666667
0.68235294 0.68235294 0.68235294
0.70980392 0.70980392 0.70980392
0.74117647 0.74117647 0.74117647
0.78431373 0.78431373 0.78431373
0.83921569 0.83921569 0.83921569
0.75294118 0.75294118 0.75294118
0.75686275 0.75686275 0.75686275
0.76862745 0.76862745 0.76862745
0.78823529 0.78823529 0.78823529
0.81176471 0.81176471 0.81176471
0.84313725 0.84313725 0.84313725
0.88627451 0.88627451 0.88627451
0.84313725 0.84313725 0.84313725
0.84705882 0.84705882 0.84705882
0.85490196 0.85490196 0.85490196
0.86666667 0.86666667 0.86666667
0.88235294 0.88235294 0.88235294
0.90588235 0.90588235 0.90588235
0.93725490 0.93725490 0.93725490
0.94117647 0.94117647 0.94117647
0.94117647 0.94117647 0.94117647
0.94509804 0.94509804 0.94509804
0.95294118 0.95294118 0.95294118
0.96078431 0.96078431 0.96078431
0.97254902 0.97254902 0.97254902
0.99215686 0.99215686 0.99215686
0.51764706 0.51764706 0.51764706
0.55294118 0.55294118 0.55294118
0.58039216 0.58039216 0.58039216
0.61960784 0.61960784 0.61960784
0.66666667 0.66666667 0.66666667
0.72549020 0.72549020 0.72549020
0.79607843 0.79607843 0.79607843
0.61960784 0.61960784 0.61960784
0.63529412 0.63529412 0.63529412
0.65882353 0.65882353 0.65882353
0.69019608 0.69019608 0.69019608
0.72549020 0.72549020 0.72549020
0.77254902 0.77254902 0.77254902
0.83137255 0.83137255 0.83137255
0.70196078 0.70196078 0.70196078
0.70980392 0.70980392 0.70980392
0.72549020 0.72549020 0.72549020
0.74901961 0.74901961 0.74901961
0.77647059 0.77647059 0.77647059
0.81568627 0.81568627 0.81568627
0.86274510 0.86274510 0.86274510
0.77647059 0.77647059 0.77647059
0.78431373 0.78431373 0.78431373
0.79215686 0.79215686 0.79215686
0.81176471 0.81176471 0.81176471
0.83529412 0.83529412 0.83529412
0.86274510 0.86274510 0.86274510
0.90196078 0.90196078 0.90196078
0.84705882 0.84705882 0.84705882
0.85098039 0.85098039 0.85098039
0.85882353 0.85882353 0.85882353
0.87058824 0.87058824 0.87058824
0.88627451 0.88627451 0.88627451
0.90980392 0.90980392 0.90980392
0.94117647 0.94117647 0.94117647
0.91764706 0.91764706 0.91764706
0.92156863 0.92156863 0.92156863
0.92549020 0.92549020 0.92549020
0.93333333 0.93333333 0.93333333
0.94509804 0.94509804 0.94509804
0.96078431 0.96078431 0.96078431
0.98039216 0.98039216 0.98039216
0.98823529 0.98823529 0.98823529
0.98823529 0.98823529 0.98823529
0.98823529 0.98823529 0.98823529
0.99215686 0.99215686 0.99215686
0.99607843 0.99607843 0.99607843
1.00000000 1.00000000 1.00000000
1.00000000 1.00000000 1.00000000
