core/profiles/src/main/assets/luts/kodak_elite_color_200.cube
# Source: RawTherapee Film Simulation Collection (HaldCLUT.zip)
# Converted from: HaldCLUT/Color/Kodak/Kodak Elite Color 200.png
TITLE "kodak_elite_color_200"
LUT_3D_SIZE 5
DOMAIN_MIN 0.0 0.0 0.0
DOMAIN_MAX 1.0 1.0 1.0
0.00000000 0.00000000 0.00000000
0.15294118 0.00000000 0.00000000
0.36862745 0.00392157 0.00392157
0.67450980 0.02352941 0.02352941
0.96862745 0.09411765 0.07450980
0.08627451 0.14117647 0.01568627
0.18039216 0.14901961 0.02352941
0.39607843 0.16470588 0.03921569
0.69803922 0.19607843 0.06666667
0.97647059 0.25882353 0.12156863
0.11764706 0.34509804 0.01960784
0.22745098 0.34901961 0.02352941
0.45882353 0.36470588 0.03529412
0.74117647 0.38823529 0.06274510
0.99607843 0.43529412 0.11372549
0.22745098 0.56078431 0.00000000
0.32941176 0.56078431 0.00000000
0.56078431 0.56078431 0.00000000
0.81176471 0.57254902 0.00000000
1.00000000 0.60392157 0.02745098
0.46274510 0.72156863 0.00000000
0.52941176 0.72156863 0.00000000
0.69411765 0.72156863 0.00000000
0.89803922 0.71764706 0.00000000
1.00000000 0.71764706 0.00000000
0.00000000 0.01568627 0.16862745
0.16862745 0.02352941 0.18823529
0.38431373 0.03921569 0.20392157
0.68627451 0.07058824 0.23137255
0.96862745 0.14509804 0.27843137
0.09803922 0.17647059 0.17254902
0.18431373 0.18431373 0.18431373
0.40392157 0.20000000 0.20392157
0.70196078 0.23137255 0.23137255
0.97647059 0.29411765 0.27843137
0.11372549 0.38039216 0.15686275
0.21960784 0.38431373 0.16078431
0.46274510 0.40000000 0.17647059
0.74117647 0.42352941 0.20784314
0.99215686 0.47450980 0.26274510
0.21568627 0.58823529 0.05882353
0.32549020 0.59215686 0.06274510
0.55686275 0.59607843 0.07843137
0.80392157 0.61176471 0.10588235
1.00000000 0.64313725 0.16470588
0.49019608 0.72549020 0.00000000
0.55294118 0.72549020 0.00000000
0.71372549 0.72156863 0.00000000
0.90980392 0.72156863 0.00000000
1.00000000 0.72156863 0.00000000
0.00392157 0.07058824 0.36470588
0.18039216 0.07058824 0.38039216
0.40000000 0.08627451 0.40392157
0.69803922 0.12156863 0.43137255
0.96862745 0.19215686 0.47450980
0.09411765 0.22352941 0.40392157
0.18431373 0.23529412 0.41568627
0.41568627 0.25098039 0.43529412
0.70980392 0.28235294 0.46666667
0.96862745 0.34901961 0.50980392
0.10196078 0.44313725 0.43529412
0.20000000 0.44705882 0.44313725
0.46274510 0.46274510 0.46274510
0.73725490 0.49019608 0.49019608
0.98039216 0.54117647 0.53333333
0.13725490 0.67058824 0.40392157
0.29019608 0.67450980 0.41176471
0.53333333 0.68235294 0.43137255
0.78431373 0.69411765 0.46274510
0.99607843 0.72549020 0.51764706
0.52549020 0.74509804 0.01568627
0.58039216 0.74901961 0.01960784
0.72941176 0.74901961 0.02745098
0.90980392 0.75686275 0.04705882
1.00000000 0.78431373 0.11764706
0.01568627 0.14509804 0.61176471
0.19607843 0.14509804 0.62745098
0.42745098 0.14509804 0.64705882
0.71372549 0.16470588 0.66274510
0.96862745 0.23529412 0.69411765
0.10980392 0.27450980 0.67450980
0.20392157 0.28235294 0.68235294
0.44313725 0.29803922 0.69803922
0.72156863 0.32549020 0.71372549
0.96862745 0.38823529 0.74117647
0.05098039 0.49803922 0.72156863
0.21568627 0.50196078 0.72549020
0.48235294 0.51372549 0.73725490
0.74117647 0.54117647 0.75294118
0.97254902 0.58823529 0.77254902
0.12549020 0.74901961 0.74117647
0.28235294 0.75294118 0.74509804
0.52941176 0.75686275 0.75294118
0.76862745 0.76862745 0.76862745
0.98039216 0.79607843 0.79215686
0.44313725 0.89411765 0.60784314
0.50980392 0.89803922 0.61176471
0.66666667 0.89803922 0.62352941
0.84705882 0.90588235 0.64705882
1.00000000 0.91764706 0.69803922
0.05490196 0.20784314 0.82745098
0.24313725 0.20784314 0.83921569
0.47843137 0.20392157 0.84705882
0.74117647 0.20000000 0.85490196
0.97254902 0.24313725 0.87058824
0.17254902 0.27843137 0.87843137
0.28627451 0.28235294 0.88235294
0.50588235 0.29803922 0.89019608
0.75294118 0.32156863 0.89803922
0.97254902 0.38823529 0.90980392
0.24705882 0.50196078 0.91764706
0.34509804 0.50196078 0.92156863
0.55294118 0.51372549 0.92549020
0.78039216 0.53725490 0.93333333
0.98039216 0.59215686 0.94117647
0.32156863 0.78039216 0.95294118
0.41176471 0.78431373 0.95294118
0.60000000 0.78823529 0.95686275
0.79607843 0.79607843 0.96078431
0.98039216 0.81960784 0.96862745
0.51372549 0.99215686 0.97254902
0.56470588 0.99215686 0.97254902
0.69019608 0.99215686 0.98039216
0.83921569 0.99607843 0.98823529
1.00000000 1.00000000 1.00000000
