core/profiles/src/main/assets/luts/kodak_portra_400.cube
# Source: RawTherapee Film Simulation Collection (HaldCLUT.zip)
# Converted from: HaldCLUT/Color/Kodak/Kodak Portra 400 2.png
TITLE "kodak_portra_400"
LUT_3D_SIZE 7
DOMAIN_MIN 0.0 0.0 0.0
DOMAIN_MAX 1.0 1.0 1.0
0.01568627 0.01568627 0.01568627
0.11372549 0.01960784 0.01176471
0.34509804 0.00000000 0.00000000
0.63529412 0.00000000 0.00000000
0.85490196 0.00000000 0.00000000
1.00000000 0.07843137 0.00000000
1.00000000 0.22352941 0.00000000
0.00000000 0.09803922 0.02745098
0.09411765 0.11372549 0.01568627
0.34901961 0.14509804 0.00000000
0.63137255 0.14117647 0.00000000
0.84313725 0.17254902 0.00000000
0.98823529 0.23921569 0.00000000
1.00000000 0.30980392 0.00000000
0.00000000 0.28627451 0.05098039
0.00000000 0.27058824 0.07058824
0.27843137 0.32549020 0.00000000
0.60000000 0.38039216 0.00000000
0.81176471 0.40000000 0.00000000
0.96470588 0.42745098 0.00000000
1.00000000 0.45490196 0.00000000
0.00000000 0.48627451 0.11764706
0.00000000 0.47058824 0.13725490
0.18039216 0.47843137 0.12156863
0.49019608 0.53333333 0.00000000
0.75686275 0.58039216 0.00000000
0.92941176 0.59215686 0.00000000
1.00000000 0.59607843 0.00000000
0.00000000 0.63921569 0.21176471
0.00000000 0.63529412 0.22745098
0.15686275 0.60392157 0.24705882
0.41960784 0.64313725 0.20000000
0.66666667 0.68627451 0.09411765
0.88627451 0.72156863 0.00000000
1.00000000 0.72156863 0.00000000
0.00000000 0.78823529 0.37647059
0.16078431 0.78039216 0.38039216
0.31372549 0.76862745 0.39607843
0.46274510 0.76862745 0.39215686
0.62745098 0.79215686 0.36470588
0.81568627 0.82745098 0.30196078
1.00000000 0.85882353 0.22745098
0.53725490 0.94901961 0.65098039
0.55686275 0.94509804 0.65490196
0.60784314 0.94117647 0.67058824
0.67450980 0.93333333 0.69411765
0.74509804 0.95294118 0.69019608
0.83529412 0.96470588 0.67058824
0.96078431 0.98431373 0.64313725
0.01568627 0.01960784 0.11764706
0.14509804 0.00000000 0.14117647
0.37254902 0.00000000 0.14901961
0.65098039 0.00000000 0.11764706
0.86274510 0.00000000 0.10980392
1.00000000 0.00000000 0.06274510
1.00000000 0.20000000 0.00000000
0.00000000 0.13725490 0.13725490
0.12941176 0.14117647 0.13725490
0.37254902 0.13333333 0.12941176
0.65098039 0.10588235 0.10980392
0.85098039 0.13333333 0.07843137
0.99215686 0.21568627 0.01568627
1.00000000 0.29411765 0.00000000
0.00000000 0.34901961 0.18039216
0.05098039 0.32156863 0.17254902
0.30980392 0.34901961 0.14509804
0.61960784 0.38431373 0.03529412
0.81960784 0.39215686 0.00000000
0.96862745 0.41960784 0.00000000
1.00000000 0.44705882 0.00000000
0.00000000 0.52941176 0.21176471
0.00000000 0.50980392 0.22352941
0.22745098 0.49411765 0.22745098
0.51372549 0.54901961 0.16078431
0.76078431 0.58431373 0.00000000
0.93333333 0.58823529 0.00000000
1.00000000 0.58823529 0.00000000
0.00000000 0.65882353 0.27843137
0.00000000 0.65098039 0.29019608
0.21568627 0.62352941 0.30980392
0.43529412 0.64705882 0.27843137
0.67450980 0.69019608 0.22352941
0.88627451 0.72156863 0.09803922
1.00000000 0.72156863 0.00000000
0.09803922 0.79607843 0.41568627
0.20392157 0.79215686 0.41960784
0.33725490 0.77647059 0.43137255
0.47450980 0.76862745 0.43529412
0.63137255 0.79607843 0.40784314
0.81568627 0.82745098 0.36078431
1.00000000 0.85490196 0.30588235
0.54117647 0.94901961 0.65882353
0.55686275 0.94509804 0.66274510
0.60784314 0.94509804 0.67843137
0.67843137 0.93725490 0.70196078
0.74509804 0.94901961 0.69803922
0.83921569 0.96862745 0.68627451
0.96470588 0.98431373 0.65882353
0.00000000 0.01568627 0.35686275
0.15686275 0.00000000 0.38431373
0.46274510 0.00000000 0.43921569
0.69019608 0.00000000 0.44313725
0.88235294 0.00000000 0.41568627
1.00000000 0.00000000 0.36862745
1.00000000 0.24705882 0.38431373
0.00000000 0.15686275 0.34509804
0.12156863 0.15294118 0.37647059
0.45098039 0.13725490 0.43137255
0.69019608 0.04705882 0.43529412
0.87058824 0.02745098 0.40000000
0.99607843 0.20392157 0.37647059
1.00000000 0.32549020 0.37647059
0.00000000 0.39607843 0.40000000
0.00000000 0.40000000 0.40000000
0.38823529 0.40392157 0.40784314
0.65098039 0.40000000 0.39215686
0.83137255 0.40784314 0.38039216
0.96862745 0.42745098 0.36078431
1.00000000 0.45882353 0.34901961
0.00000000 0.61176471 0.43921569
0.13725490 0.60000000 0.43921569
0.34509804 0.55686275 0.41568627
0.55686275 0.58039216 0.40000000
0.77647059 0.59607843 0.34901961
0.93725490 0.58823529 0.29803922
1.00000000 0.59215686 0.29019608
0.11764706 0.71372549 0.46666667
0.17647059 0.70588235 0.45098039
0.33333333 0.67450980 0.44313725
0.48235294 0.66274510 0.43921569
0.69019608 0.70196078 0.41568627
0.89019608 0.72549020 0.36470588
1.00000000 0.71764706 0.26274510
0.21568627 0.81960784 0.50588235
0.28235294 0.81568627 0.50980392
0.38823529 0.79607843 0.50980392
0.49803922 0.76862745 0.51764706
0.63921569 0.79607843 0.50588235
0.81568627 0.83137255 0.47843137
1.00000000 0.85490196 0.44705882
0.54117647 0.95686275 0.68235294
0.56078431 0.95294118 0.68627451
0.61176471 0.94901961 0.69803922
0.67843137 0.94117647 0.71764706
0.75294118 0.94901961 0.72549020
0.84313725 0.96862745 0.71372549
0.96470588 0.98431373 0.69411765
0.00000000 0.01568627 0.60000000
0.17254902 0.00000000 0.61568627
0.50588235 0.00000000 0.66274510
0.77647059 0.00000000 0.70588235
0.88235294 0.00000000 0.67058824
1.00000000 0.00000000 0.65490196
1.00000000 0.21568627 0.61960784
0.00000000 0.16862745 0.58823529
0.13725490 0.16862745 0.60784314
0.48627451 0.16078431 0.65490196
0.76078431 0.15294118 0.69803922
0.87450980 0.16078431 0.66666667
1.00000000 0.23921569 0.65098039
1.00000000 0.33333333 0.61960784
0.00000000 0.36862745 0.54117647
0.00000000 0.37647059 0.56078431
0.40392157 0.40392157 0.61960784
0.70588235 0.45098039 0.67450980
0.83921569 0.44313725 0.65882353
0.96862745 0.46274510 0.63529412
1.00000000 0.49019608 0.61568627
0.00000000 0.62745098 0.62352941
0.00000000 0.62352941 0.62352941
0.38431373 0.62352941 0.62745098
0.62352941 0.62745098 0.63137255
0.78431373 0.61960784 0.61960784
0.92941176 0.61960784 0.60784314
1.00000000 0.61960784 0.59607843
0.16470588 0.77647059 0.64705882
0.30196078 0.77254902 0.64705882
0.47450980 0.75294118 0.63921569
0.58039216 0.70980392 0.61568627
0.71764706 0.72549020 0.60784314
0.89411765 0.72941176 0.56862745
1.00000000 0.71764706 0.52549020
0.43529412 0.85490196 0.66666667
0.47450980 0.85098039 0.67058824
0.50196078 0.83921569 0.64705882
0.56078431 0.80784314 0.62745098
0.65882353 0.80000000 0.61960784
0.82352941 0.83529412 0.61176471
1.00000000 0.85882353 0.59607843
0.56862745 0.96470588 0.73333333
0.58039216 0.96862745 0.73725490
0.60784314 0.96470588 0.73333333
0.68235294 0.95294118 0.74509804
0.76078431 0.94509804 0.76862745
0.84705882 0.96862745 0.76078431
0.96470588 0.98431373 0.74509804
0.11764706 0.05490196 0.76078431
0.29019608 0.02745098 0.76862745
0.52941176 0.00000000 0.78823529
0.77254902 0.00000000 0.82352941
0.92941176 0.12156863 0.83921569
1.00000000 0.20000000 0.80392157
1.00000000 0.31372549 0.79215686
0.07450980 0.20392157 0.75294118
0.27058824 0.20392157 0.76078431
0.51764706 0.20784314 0.78431373
0.75686275 0.25098039 0.81568627
0.91372549 0.31372549 0.83529412
0.99607843 0.33725490 0.80392157
1.00000000 0.40784314 0.79607843
0.00000000 0.39607843 0.72156863
0.13333333 0.38823529 0.73333333
0.45098039 0.41568627 0.75686275
0.70588235 0.47450980 0.79607843
0.87843137 0.52549020 0.82352941
0.96862745 0.52156863 0.80000000
1.00000000 0.54509804 0.79215686
0.00000000 0.56862745 0.69803922
0.00000000 0.56862745 0.69803922
0.32549020 0.56470588 0.69411765
0.62352941 0.61568627 0.75294118
0.82745098 0.67058824 0.80000000
0.93725490 0.66274510 0.79215686
1.00000000 0.66666667 0.78039216
0.10588235 0.76078431 0.75686275
0.25882353 0.76078431 0.75686275
0.43921569 0.75686275 0.75686275
0.61568627 0.75686275 0.76078431
0.76862745 0.76470588 0.76862745
0.90196078 0.75686275 0.75686275
1.00000000 0.75686275 0.74901961
0.40392157 0.90588235 0.78823529
0.44705882 0.90196078 0.78431373
0.54117647 0.89019608 0.78039216
0.65882353 0.87058824 0.77254902
0.72156863 0.83137255 0.74509804
0.84313725 0.85098039 0.74509804
1.00000000 0.86274510 0.72549020
0.58431373 0.98823529 0.81176471
0.60392157 0.98431373 0.81568627
0.65882353 0.98039216 0.81960784
0.70980392 0.97647059 0.81176471
0.76862745 0.96470588 0.81176471
0.85490196 0.96470588 0.81960784
0.97254902 0.98823529 0.81176471
0.36078431 0.17647059 0.89019608
0.43529412 0.18039216 0.89411765
0.58039216 0.18431373 0.90196078
0.74901961 0.23529412 0.91764706
0.90196078 0.32941176 0.93333333
1.00000000 0.40392157 0.94117647
1.00000000 0.43137255 0.90980392
0.34901961 0.28235294 0.88235294
0.42352941 0.28235294 0.88627451
0.57254902 0.29803922 0.89803922
0.74117647 0.34509804 0.91372549
0.89019608 0.42352941 0.92941176
1.00000000 0.48235294 0.94117647
1.00000000 0.49411765 0.90980392
0.26666667 0.43137255 0.86666667
0.36078431 0.43921569 0.87058824
0.52941176 0.46274510 0.88235294
0.70588235 0.50588235 0.89803922
0.86666667 0.57254902 0.92156863
0.98823529 0.60784314 0.92941176
1.00000000 0.60392157 0.90588235
0.00000000 0.58039216 0.82352941
0.20784314 0.58431373 0.83137255
0.43529412 0.59215686 0.84705882
0.64705882 0.62352941 0.87450980
0.82745098 0.68235294 0.90196078
0.96470588 0.72156863 0.92549020
1.00000000 0.71372549 0.90980392
0.00000000 0.71372549 0.82745098
0.15294118 0.71372549 0.83137255
0.34117647 0.70980392 0.82745098
0.50980392 0.69411765 0.81568627
0.76470588 0.75294118 0.87450980
0.93725490 0.81176471 0.91372549
1.00000000 0.80392157 0.90588235
0.34509804 0.88235294 0.87843137
0.39215686 0.87843137 0.87843137
0.49803922 0.88235294 0.87843137
0.62745098 0.87843137 0.87843137
0.75686275 0.87843137 0.87843137
0.89411765 0.88627451 0.89019608
1.00000000 0.88235294 0.88235294
0.52156863 1.00000000 0.90196078
0.55294118 1.00000000 0.90588235
0.61960784 1.00000000 0.90588235
0.71372549 1.00000000 0.90588235
0.80392157 0.98823529 0.90196078
0.87058824 0.97254902 0.89411765
0.98039216 0.99215686 0.89411765
0.55686275 0.43529412 1.00000000
0.58431373 0.43529412 1.00000000
0.66274510 0.44705882 1.00000000
0.76470588 0.46666667 1.00000000
0.87058824 0.49803922 1.00000000
0.99215686 0.55294118 1.00000000
1.00000000 0.58039216 1.00000000
0.55686275 0.49019608 1.00000000
0.58431373 0.49019608 1.00000000
0.65882353 0.50196078 1.00000000
0.75686275 0.51764706 1.00000000
0.86666667 0.54509804 0.99607843
0.98823529 0.59215686 1.00000000
1.00000000 0.61568627 1.00000000
0.54117647 0.58431373 0.99215686
0.57254902 0.58823529 0.99215686
0.64705882 0.59607843 0.99607843
0.74509804 0.60784314 0.99607843
0.85882353 0.63529412 1.00000000
0.97647059 0.67058824 1.00000000
1.00000000 0.68627451 1.00000000
0.51764706 0.68627451 0.98431373
0.54117647 0.68235294 0.98431373
0.60784314 0.67843137 0.98431373
0.72156863 0.69411765 0.99215686
0.83921569 0.71764706 0.99607843
0.96078431 0.75294118 1.00000000
1.00000000 0.76862745 1.00000000
0.40784314 0.76862745 0.96862745
0.44705882 0.76470588 0.97254902
0.53333333 0.76470588 0.97647059
0.66274510 0.76862745 0.98039216
0.80000000 0.78431373 0.98823529
0.93725490 0.82352941 0.99607843
1.00000000 0.85098039 1.00000000
0.44313725 0.87843137 0.98431373
0.47058824 0.88235294 0.98823529
0.53333333 0.87843137 0.98823529
0.61568627 0.87058824 0.98039216
0.71764706 0.86666667 0.98039216
0.89803922 0.89019608 0.99215686
1.00000000 0.92941176 0.99607843
0.49019608 0.99607843 0.99607843
0.51764706 1.00000000 0.99607843
0.58039216 1.00000000 1.00000000
0.67058824 0.99607843 0.99607843
0.77254902 0.99607843 0.99607843
0.88627451 0.99607843 0.99607843
1.00000000 1.00000000 1.00000000
