core/profiles/src/main/assets/luts/kodak_e-100_gx_ektachrome_100.cube
# Source: RawTherapee Film Simulation Collection (HaldCLUT.zip)
# Converted from: HaldCLUT/Color/Kodak/Kodak E-100 GX Ektachrome 100.png
TITLE "kodak_e-100_gx_ektachrome_100"
LUT_3D_SIZE 5
DOMAIN_MIN 0.0 0.0 0.0
DOMAIN_MAX 1.0 1.0 1.0
0.00000000 0.00000000 0.00000000
0.15686275 0.00000000 0.00000000
0.39607843 0.00000000 0.00000000
0.64313725 0.00392157 0.00000000
0.84705882 0.00784314 0.00000000
0.12941176 0.21960784 0.07843137
0.24705882 0.20000000 0.06666667
0.46274510 0.15294118 0.03921569
0.66666667 0.05490196 0.00784314
0.84313725 0.00392157 0.00000000
0.27058824 0.50588235 0.19607843
0.37254902 0.49803922 0.18823529
0.56078431 0.47843137 0.16862745
0.76078431 0.42352941 0.14509804
0.91372549 0.26274510 0.10588235
0.47058824 0.76470588 0.34117647
0.52941176 0.76078431 0.33725490
0.67058824 0.75686275 0.32549020
0.83921569 0.73725490 0.30588235
0.99607843 0.67843137 0.27450980
0.72156863 0.98039216 0.51372549
0.74901961 0.98039216 0.50980392
0.82352941 0.98039216 0.50588235
0.93333333 0.98039216 0.49803922
1.00000000 0.97254902 0.47843137
0.00000000 0.00000000 0.14509804
0.12549020 0.00000000 0.12941176
0.37647059 0.00000000 0.10588235
0.62352941 0.00000000 0.07450980
0.83137255 0.00392157 0.03921569
0.09803922 0.23137255 0.23921569
0.21960784 0.21568627 0.23137255
0.44705882 0.16862745 0.20392157
0.65490196 0.06666667 0.16862745
0.83137255 0.00392157 0.12941176
0.23137255 0.51372549 0.34509804
0.34509804 0.50588235 0.33725490
0.54509804 0.48627451 0.32156863
0.74509804 0.43137255 0.29803922
0.90588235 0.27450980 0.25882353
0.45098039 0.76862745 0.45490196
0.50980392 0.76470588 0.45490196
0.65882353 0.76078431 0.44313725
0.82745098 0.74117647 0.42745098
0.98431373 0.68235294 0.40392157
0.70980392 0.98039216 0.60000000
0.73725490 0.98039216 0.60000000
0.81568627 0.98431373 0.59607843
0.92549020 0.98431373 0.58431373
1.00000000 0.97647059 0.56862745
0.00000000 0.00392157 0.35686275
0.08627451 0.00000000 0.34509804
0.34509804 0.00000000 0.32549020
0.60000000 0.00000000 0.30196078
0.80784314 0.00000000 0.27450980
0.06666667 0.25490196 0.45882353
0.16862745 0.23921569 0.45098039
0.41960784 0.19215686 0.43137255
0.63137255 0.08235294 0.39607843
0.80392157 0.00000000 0.36470588
0.13725490 0.52941176 0.55686275
0.29019608 0.52156863 0.54901961
0.50980392 0.50196078 0.53725490
0.72156863 0.45098039 0.51372549
0.88627451 0.30196078 0.47843137
0.40000000 0.77254902 0.64705882
0.46666667 0.77254902 0.64313725
0.62352941 0.76862745 0.63529412
0.80000000 0.74901961 0.61960784
0.96470588 0.69411765 0.60000000
0.69019608 0.98431373 0.74901961
0.71764706 0.98431373 0.74509804
0.79607843 0.98431373 0.74117647
0.90588235 0.98431373 0.73725490
1.00000000 0.98039216 0.72549020
0.00000000 0.01568627 0.58431373
0.03529412 0.00392157 0.57254902
0.30196078 0.00000000 0.54901961
0.56470588 0.00000000 0.52941176
0.78039216 0.00000000 0.50588235
0.01176471 0.29411765 0.67843137
0.11372549 0.27843137 0.67058824
0.38039216 0.23137255 0.64705882
0.61176471 0.12549020 0.61568627
0.77647059 0.00000000 0.58039216
0.00000000 0.54901961 0.75686275
0.18431373 0.54509804 0.74901961
0.46274510 0.52941176 0.73333333
0.69411765 0.48235294 0.71372549
0.87058824 0.34509804 0.68235294
0.31764706 0.78431373 0.82745098
0.40392157 0.78431373 0.82352941
0.58039216 0.78039216 0.81568627
0.77254902 0.76470588 0.80392157
0.94509804 0.70980392 0.78431373
0.65882353 0.98823529 0.90196078
0.68627451 0.98823529 0.90196078
0.76862745 0.98823529 0.89803922
0.88627451 0.99215686 0.89411765
1.00000000 0.98431373 0.88235294
0.00000000 0.05098039 0.73333333
0.00392157 0.01960784 0.72549020
0.27450980 0.00000000 0.69803922
0.54117647 0.00000000 0.67450980
0.76078431 0.00000000 0.65490196
0.00392157 0.33333333 0.82352941
0.03137255 0.32156863 0.81568627
0.34117647 0.28235294 0.79215686
0.59607843 0.18039216 0.76078431
0.76470588 0.00000000 0.72156863
0.00000000 0.57254902 0.89411765
0.05490196 0.57254902 0.89019608
0.41176471 0.55686275 0.87058824
0.66666667 0.51764706 0.85098039
0.86274510 0.39607843 0.82352941
0.18431373 0.80000000 0.95686275
0.31372549 0.79607843 0.95294118
0.52941176 0.79607843 0.94117647
0.74117647 0.78039216 0.92941176
0.92549020 0.73333333 0.90980392
0.61568627 0.98823529 1.00000000
0.64705882 0.99215686 1.00000000
0.73725490 0.99215686 1.00000000
0.86274510 0.99607843 1.00000000
1.00000000 0.99607843 1.00000000
