core/profiles/src/main/assets/luts/kodak_kodachrome_64.cube
# Source: RawTherapee Film Simulation Collection (HaldCLUT.zip)
# Converted from: HaldCLUT/Color/Kodak/Kodak Kodachrome 64.png
TITLE "kodak_kodachrome_64"
LUT_3D_SIZE 5
DOMAIN_MIN 0.0 0.0 0.0
DOMAIN_MAX 1.0 1.0 1.0
0.00000000 0.00000000 0.00000000
0.18039216 0.00392157 0.00000000
0.56078431 0.05098039 0.00000000
0.81568627 0.09411765 0.00000000
0.99215686 0.12549020 0.00000000
0.10588235 0.20784314 0.08627451
0.25490196 0.22352941 0.08235294
0.60784314 0.24705882 0.06666667
0.83529412 0.23137255 0.03921569
0.99607843 0.20000000 0.01176471
0.19215686 0.55686275 0.25490196
0.42352941 0.57647059 0.25098039
0.68235294 0.60000000 0.23921569
0.90588235 0.61568627 0.21176471
1.00000000 0.60392157 0.16470588
0.45098039 0.77647059 0.47058824
0.53333333 0.78431373 0.46666667
0.71372549 0.80000000 0.46274510
0.90980392 0.81960784 0.44705882
1.00000000 0.83529412 0.40784314
0.60392157 0.98039216 0.65490196
0.65098039 0.98431373 0.65490196
0.77254902 1.00000000 0.65098039
0.94509804 1.00000000 0.64705882
1.00000000 1.00000000 0.62745098
0.00000000 0.00000000 0.07843137
0.14117647 0.00000000 0.07450980
0.52156863 0.01960784 0.06666667
0.77254902 0.06274510 0.05098039
0.96078431 0.09803922 0.02745098
0.06666667 0.18431373 0.21960784
0.21176471 0.19607843 0.21568627
0.56078431 0.22352941 0.20392157
0.78431373 0.20392157 0.17647059
0.95294118 0.17254902 0.13333333
0.07450980 0.52549020 0.41568627
0.36078431 0.54509804 0.41568627
0.61960784 0.56862745 0.40784314
0.83921569 0.58039216 0.38823529
1.00000000 0.56862745 0.35294118
0.41176471 0.75686275 0.55686275
0.49803922 0.76470588 0.55294118
0.67843137 0.78431373 0.54901961
0.87450980 0.80000000 0.54117647
1.00000000 0.81176471 0.52156863
0.58431373 0.97254902 0.70588235
0.63137255 0.97647059 0.70588235
0.75294118 0.99215686 0.70588235
0.92156863 1.00000000 0.69803922
1.00000000 1.00000000 0.68627451
0.00000000 0.00000000 0.30196078
0.04313725 0.00000000 0.30196078
0.41960784 0.00000000 0.29803922
0.66666667 0.00392157 0.29019608
0.85098039 0.02745098 0.27450980
0.00392157 0.13725490 0.43137255
0.13725490 0.15294118 0.43137255
0.47058824 0.17254902 0.41960784
0.69019608 0.14901961 0.40392157
0.84705882 0.10588235 0.37647059
0.02745098 0.49803922 0.56862745
0.30588235 0.51764706 0.56862745
0.55686275 0.53725490 0.56470588
0.77254902 0.54509804 0.55686275
0.94117647 0.52941176 0.53725490
0.36470588 0.73333333 0.67843137
0.45098039 0.74117647 0.67843137
0.63137255 0.75686275 0.67450980
0.82352941 0.77647059 0.67058824
0.99215686 0.78039216 0.65882353
0.54901961 0.96078431 0.80000000
0.59607843 0.96470588 0.79607843
0.71764706 0.97647059 0.79607843
0.88235294 0.99607843 0.79607843
1.00000000 1.00000000 0.78431373
0.00000000 0.00000000 0.46274510
0.00392157 0.00000000 0.46274510
0.35294118 0.00000000 0.45882353
0.59215686 0.00000000 0.45490196
0.77254902 0.00000000 0.45098039
0.00000000 0.11372549 0.57254902
0.12549020 0.13333333 0.57254902
0.42352941 0.14509804 0.56470588
0.63137255 0.12156863 0.54901961
0.78431373 0.06274510 0.52549020
0.08235294 0.48235294 0.69411765
0.27450980 0.49411765 0.69411765
0.51372549 0.51372549 0.69411765
0.72156863 0.52156863 0.68627451
0.88627451 0.50196078 0.67450980
0.32941176 0.71372549 0.79215686
0.41568627 0.72156863 0.79215686
0.58823529 0.73725490 0.79215686
0.77647059 0.75294118 0.78823529
0.94117647 0.75686275 0.78039216
0.51764706 0.94901961 0.89803922
0.56470588 0.95294118 0.89803922
0.68235294 0.96470588 0.90196078
0.84313725 0.98431373 0.89803922
1.00000000 1.00000000 0.89411765
0.00000000 0.00000000 0.54901961
0.00392157 0.00000000 0.54901961
0.32156863 0.00000000 0.54509804
0.55294118 0.00000000 0.54509804
0.73333333 0.00000000 0.54117647
0.00000000 0.10588235 0.65490196
0.13725490 0.12549020 0.65490196
0.40392157 0.12941176 0.64705882
0.60000000 0.10196078 0.63529412
0.74509804 0.03529412 0.61176471
0.10588235 0.47450980 0.77647059
0.26666667 0.48235294 0.77647059
0.49019608 0.49803922 0.77647059
0.69411765 0.50588235 0.76862745
0.85490196 0.48627451 0.76078431
0.32156863 0.70196078 0.87058824
0.40392157 0.70980392 0.87058824
0.56470588 0.72156863 0.87058824
0.74901961 0.73725490 0.87058824
0.90980392 0.74117647 0.86666667
0.50196078 0.94117647 0.98039216
0.54509804 0.94509804 0.98039216
0.65882353 0.95686275 0.98431373
0.81568627 0.97647059 0.98823529
1.00000000 0.99607843 0.99607843
