core/profiles/src/main/assets/luts/kodak_elite_100_xpro.cube
# Source: RawTherapee Film Simulation Collection (HaldCLUT.zip)
# Converted from: HaldCLUT/Color/Kodak/Kodak Elite 100 XPRO.png
TITLE "kodak_elite_100_xpro"
LUT_3D_SIZE 5
DOMAIN_MIN 0.0 0.0 0.0
DOMAIN_MAX 1.0 1.0 1.0
0.00000000 0.00000000 0.00000000
0.13725490 0.00000000 0.00000000
0.38039216 0.00784314 0.00784314
0.75294118 0.03529412 0.03137255
0.97254902 0.09019608 0.05490196
0.09019608 0.12549020 0.00392157
0.16862745 0.14117647 0.00392157
0.41960784 0.17647059 0.01176471
0.78823529 0.24313725 0.02352941
1.00000000 0.33333333 0.03137255
0.07058824 0.47058824 0.00784314
0.20392157 0.47843137 0.00784314
0.50588235 0.50196078 0.01568627
0.83921569 0.53725490 0.01960784
1.00000000 0.58823529 0.01176471
0.21176471 0.72549020 0.00784314
0.35686275 0.72941176 0.00784314
0.66274510 0.74509804 0.01176471
0.89411765 0.76078431 0.01176471
1.00000000 0.78039216 0.00000000
0.66666667 0.88235294 0.00000000
0.72156863 0.88627451 0.00000000
0.83921569 0.89019608 0.00000000
0.97254902 0.89019608 0.00000000
1.00000000 0.89411765 0.00000000
0.00000000 0.00000000 0.02745098
0.12156863 0.00392157 0.03921569
0.37254902 0.01568627 0.05098039
0.75294118 0.05098039 0.07058824
0.98039216 0.10588235 0.05098039
0.07843137 0.14901961 0.04705882
0.15294118 0.16470588 0.05098039
0.41176471 0.20392157 0.06274510
0.78431373 0.26274510 0.07450980
1.00000000 0.35686275 0.04705882
0.01176471 0.48627451 0.05490196
0.15294118 0.49411765 0.05882353
0.49019608 0.51764706 0.06274510
0.83529412 0.55686275 0.06274510
1.00000000 0.60392157 0.03529412
0.13725490 0.74117647 0.05882353
0.31372549 0.74509804 0.05882353
0.64705882 0.75686275 0.05490196
0.88627451 0.77254902 0.04313725
1.00000000 0.78823529 0.01568627
0.63921569 0.89411765 0.00392157
0.69803922 0.89803922 0.00000000
0.82352941 0.89803922 0.00000000
0.96078431 0.90196078 0.00000000
1.00000000 0.89803922 0.00000000
0.00000000 0.00784314 0.18431373
0.09411765 0.01960784 0.18823529
0.35294118 0.03529412 0.19607843
0.74509804 0.07450980 0.18823529
0.98039216 0.13333333 0.13725490
0.05098039 0.19215686 0.24705882
0.11372549 0.21176471 0.25098039
0.37254902 0.24705882 0.26274510
0.76862745 0.30588235 0.25882353
0.99607843 0.40000000 0.16470588
0.00000000 0.53333333 0.34117647
0.00000000 0.54117647 0.34509804
0.41568627 0.56470588 0.34509804
0.80000000 0.60000000 0.32549020
1.00000000 0.63921569 0.22745098
0.00000000 0.78431373 0.47450980
0.03529412 0.79215686 0.47843137
0.56078431 0.80392157 0.48627451
0.83529412 0.81568627 0.45098039
1.00000000 0.82352941 0.29019608
0.53725490 0.93725490 0.56470588
0.60784314 0.94117647 0.56470588
0.75294118 0.94117647 0.55294118
0.90196078 0.94509804 0.51764706
1.00000000 0.92941176 0.27058824
0.00000000 0.05098039 0.54509804
0.02352941 0.07058824 0.55686275
0.29019608 0.09411765 0.57254902
0.70588235 0.13333333 0.58431373
0.95686275 0.19607843 0.48235294
0.00000000 0.27058824 0.65490196
0.02352941 0.28627451 0.66274510
0.27450980 0.32156863 0.68235294
0.70980392 0.38431373 0.69803922
0.95686275 0.47843137 0.63921569
0.00000000 0.59607843 0.72549020
0.00000000 0.60392157 0.73333333
0.24313725 0.62745098 0.74901961
0.72941176 0.66274510 0.76862745
0.95294118 0.70980392 0.73333333
0.00000000 0.82745098 0.78823529
0.00000000 0.83137255 0.79215686
0.42745098 0.84705882 0.81568627
0.76470588 0.86666667 0.82745098
0.94901961 0.88627451 0.80784314
0.39215686 0.96470588 0.84705882
0.49411765 0.96862745 0.85098039
0.67843137 0.97647059 0.86274510
0.84705882 0.98039216 0.86666667
0.99607843 0.98431373 0.83921569
0.00000000 0.10588235 0.83137255
0.00000000 0.12156863 0.83921569
0.19607843 0.14901961 0.86274510
0.65098039 0.19607843 0.89803922
0.92156863 0.29411765 0.89803922
0.00000000 0.33725490 0.86666667
0.00000000 0.35294118 0.87450980
0.09019608 0.39215686 0.89411765
0.64313725 0.46274510 0.92941176
0.92156863 0.54901961 0.93725490
0.00000000 0.63921569 0.88627451
0.00000000 0.64705882 0.89411765
0.00000000 0.67058824 0.91372549
0.65098039 0.70980392 0.94901961
0.92156863 0.75686275 0.96078431
0.00000000 0.85098039 0.90588235
0.00000000 0.85490196 0.91372549
0.02352941 0.87058824 0.93725490
0.69411765 0.89411765 0.96862745
0.92156863 0.91764706 0.98039216
0.00000000 0.97254902 0.94509804
0.00000000 0.97647059 0.94901961
0.52941176 0.98431373 0.96862745
0.78823529 0.99215686 0.98431373
1.00000000 1.00000000 1.00000000
