core/profiles/src/main/assets/luts/kodak_ektar_100.cube
# Source: RawTherapee Film Simulation Collection (HaldCLUT.zip)
# Converted from: HaldCLUT/Color/Kodak/Kodak Ektar 100.png
TITLE "kodak_ektar_100"
LUT_3D_SIZE 5
DOMAIN_MIN 0.0 0.0 0.0
DOMAIN_MAX 1.0 1.0 1.0
0.00000000 0.00000000 0.00000000
0.26274510 0.00392157 0.00000000
0.54117647 0.03137255 0.00000000
0.83137255 0.07058824 0.00000000
1.00000000 0.10588235 0.00000000
0.09019608 0.20000000 0.07450980
0.20784314 0.21176471 0.07058824
0.50980392 0.23137255 0.05882353
0.79215686 0.23137255 0.03921569
1.00000000 0.18823529 0.01176471
0.00000000 0.44705882 0.15294118
0.10588235 0.45490196 0.14901961
0.45882353 0.47450980 0.13333333
0.71372549 0.48235294 0.11764706
0.96470588 0.44705882 0.09411765
0.00000000 0.65882353 0.20784314
0.14901961 0.66666667 0.20392157
0.40784314 0.67843137 0.19215686
0.65098039 0.69411765 0.17254902
0.87450980 0.69411765 0.13333333
0.07058824 0.87058824 0.29019608
0.18039216 0.87450980 0.28627451
0.40000000 0.88627451 0.28235294
0.58431373 0.89803922 0.26666667
0.85490196 0.91372549 0.21568627
0.00000000 0.00000000 0.18039216
0.28627451 0.00784314 0.17254902
0.57647059 0.03137255 0.15686275
0.86274510 0.07058824 0.13333333
1.00000000 0.10588235 0.10196078
0.09411765 0.21176471 0.22745098
0.22352941 0.22352941 0.22352941
0.52941176 0.24313725 0.20784314
0.81176471 0.24705882 0.19215686
1.00000000 0.20000000 0.16862745
0.00000000 0.45490196 0.27843137
0.11372549 0.46274510 0.27450980
0.47058824 0.48235294 0.25882353
0.72941176 0.49411765 0.24705882
0.98039216 0.46274510 0.22352941
0.02745098 0.66274510 0.34509804
0.18431373 0.67058824 0.34509804
0.43137255 0.68235294 0.33725490
0.67058824 0.69803922 0.32549020
0.89411765 0.70196078 0.30196078
0.12549020 0.87450980 0.43529412
0.23137255 0.87843137 0.43137255
0.42352941 0.89019608 0.42745098
0.60392157 0.90196078 0.41960784
0.87843137 0.92156863 0.38823529
0.00392157 0.00784314 0.35686275
0.29803922 0.02352941 0.35294118
0.60392157 0.03921569 0.34117647
0.89411765 0.07058824 0.32941176
1.00000000 0.10588235 0.30588235
0.09803922 0.22745098 0.43921569
0.23921569 0.23921569 0.43921569
0.55294118 0.26274510 0.43137255
0.83529412 0.26666667 0.41960784
1.00000000 0.21960784 0.40392157
0.01960784 0.46666667 0.50980392
0.13333333 0.47450980 0.50980392
0.49803922 0.49803922 0.49803922
0.75686275 0.50980392 0.49019608
1.00000000 0.48627451 0.47450980
0.07843137 0.67058824 0.55686275
0.23529412 0.67843137 0.55686275
0.46274510 0.69019608 0.54901961
0.69803922 0.70588235 0.54117647
0.92549020 0.70980392 0.52941176
0.16078431 0.88627451 0.60000000
0.26666667 0.89019608 0.60000000
0.45098039 0.90196078 0.59607843
0.62745098 0.91764706 0.59215686
0.91372549 0.93725490 0.57254902
0.01176471 0.02745098 0.58431373
0.30588235 0.05490196 0.57647059
0.61568627 0.07450980 0.56862745
0.92549020 0.07058824 0.55294118
1.00000000 0.10588235 0.54117647
0.08627451 0.25490196 0.63529412
0.23137255 0.26666667 0.63529412
0.56078431 0.28627451 0.62352941
0.85098039 0.29411765 0.61568627
1.00000000 0.25098039 0.60392157
0.00392157 0.48235294 0.68627451
0.11372549 0.49019608 0.68627451
0.50588235 0.51764706 0.67450980
0.76862745 0.52941176 0.67058824
1.00000000 0.51372549 0.65882353
0.08235294 0.68235294 0.73333333
0.25098039 0.68627451 0.72941176
0.47843137 0.70196078 0.72549020
0.71764706 0.71764706 0.71764706
0.95294118 0.72549020 0.70980392
0.18431373 0.90196078 0.76862745
0.28627451 0.90588235 0.76470588
0.46666667 0.91764706 0.76470588
0.63921569 0.93333333 0.76078431
0.94901961 0.95686275 0.74509804
0.01568627 0.07843137 0.76078431
0.28235294 0.09803922 0.75686275
0.60784314 0.11764706 0.74509804
0.92941176 0.12156863 0.73333333
1.00000000 0.10196078 0.72549020
0.04313725 0.29019608 0.80784314
0.17647059 0.30196078 0.80392157
0.53725490 0.32941176 0.79215686
0.84705882 0.33725490 0.78431373
1.00000000 0.30196078 0.77254902
0.00000000 0.50196078 0.84313725
0.00000000 0.51372549 0.84313725
0.49019608 0.54117647 0.83137255
0.76470588 0.55686275 0.82352941
1.00000000 0.55294118 0.81568627
0.00000000 0.69019608 0.88627451
0.18823529 0.70196078 0.88235294
0.46666667 0.71764706 0.87843137
0.72156863 0.73725490 0.87450980
0.96862745 0.74509804 0.87058824
0.12156863 0.92156863 0.96862745
0.24313725 0.92549020 0.96862745
0.45490196 0.94117647 0.97254902
0.64705882 0.95686275 0.98039216
1.00000000 0.99215686 0.99215686
