core/profiles/src/main/assets/luts/kodak_portra_800_hc.cube
# Source: RawTherapee Film Simulation Collection (HaldCLUT.zip)
# Converted from: HaldCLUT/Color/Kodak/Kodak Portra 800 HC.png
TITLE "kodak_portra_800_hc"
LUT_3D_SIZE 7
DOMAIN_MIN 0.0 0.0 0.0
DOMAIN_MAX 1.0 1.0 1.0
0.00392157 0.00784314 0.00784314
0.08235294 0.00784314 0.00392157
0.31372549 0.00000000 0.00000000
0.67450980 0.00000000 0.00000000
0.90588235 0.00000000 0.00000000
1.00000000 0.00000000 0.00000000
1.00000000 0.10588235 0.00000000
0.00000000 0.07843137 0.01960784
0.05882353 0.09019608 0.00784314
0.32156863 0.07843137 0.00000000
0.67843137 0.00000000 0.00000000
0.89803922 0.00000000 0.00000000
1.00000000 0.14509804 0.00000000
1.00000000 0.26666667 0.00000000
0.00000000 0.25490196 0.00000000
0.00000000 0.25882353 0.00000000
0.23921569 0.33333333 0.00000000
0.64705882 0.38823529 0.00000000
0.85882353 0.40784314 0.00000000
1.00000000 0.43921569 0.00000000
1.00000000 0.46274510 0.00000000
0.00000000 0.49411765 0.00000000
0.00000000 0.49019608 0.00000000
0.00000000 0.51764706 0.00000000
0.50980392 0.58039216 0.00000000
0.79215686 0.63921569 0.00000000
0.95686275 0.63529412 0.00000000
1.00000000 0.63137255 0.00000000
0.00000000 0.66666667 0.00000000
0.00000000 0.67058824 0.00000000
0.00000000 0.65882353 0.00000000
0.41568627 0.69803922 0.00000000
0.69019608 0.73725490 0.00000000
0.91764706 0.78039216 0.00000000
1.00000000 0.76470588 0.00000000
0.00000000 0.81568627 0.15294118
0.00000000 0.81568627 0.14901961
0.17647059 0.81176471 0.13725490
0.43137255 0.81568627 0.07843137
0.63529412 0.84313725 0.00000000
0.83137255 0.87058824 0.00000000
1.00000000 0.90196078 0.00000000
0.40784314 0.96862745 0.52941176
0.42745098 0.96470588 0.52549020
0.48627451 0.96862745 0.53333333
0.56862745 0.96862745 0.53725490
0.67450980 0.98039216 0.50980392
0.80784314 0.98431373 0.44313725
0.96078431 0.99215686 0.25882353
0.00392157 0.00784314 0.09411765
0.09019608 0.00784314 0.09803922
0.32156863 0.00000000 0.09019608
0.67058824 0.00000000 0.07058824
0.90196078 0.00000000 0.05098039
1.00000000 0.00000000 0.00000000
1.00000000 0.09803922 0.00000000
0.00000000 0.09019608 0.09411765
0.08235294 0.09803922 0.09803922
0.33725490 0.07450980 0.09411765
0.68235294 0.00000000 0.06666667
0.89411765 0.00000000 0.00392157
1.00000000 0.14117647 0.00000000
1.00000000 0.27058824 0.00000000
0.00000000 0.29803922 0.11764706
0.00000000 0.28627451 0.09803922
0.27843137 0.33725490 0.03529412
0.65882353 0.38039216 0.00000000
0.85882353 0.40392157 0.00000000
1.00000000 0.43529412 0.00000000
1.00000000 0.46274510 0.00000000
0.00000000 0.52549020 0.07450980
0.00000000 0.51764706 0.06666667
0.04313725 0.52549020 0.01176471
0.52941176 0.58823529 0.00000000
0.79607843 0.63529412 0.00000000
0.95686275 0.63137255 0.00000000
1.00000000 0.62745098 0.00000000
0.00000000 0.67843137 0.09411765
0.00000000 0.67843137 0.09411765
0.00000000 0.66666667 0.07058824
0.43137255 0.69803922 0.00000000
0.69803922 0.73725490 0.00000000
0.91764706 0.77647059 0.00000000
1.00000000 0.76470588 0.00000000
0.00000000 0.82352941 0.25098039
0.00000000 0.81960784 0.24705882
0.22352941 0.81176471 0.23529412
0.44313725 0.81960784 0.20784314
0.63529412 0.84313725 0.14117647
0.83137255 0.87058824 0.00000000
1.00000000 0.90196078 0.00000000
0.41568627 0.96862745 0.55686275
0.43921569 0.96470588 0.55686275
0.49411765 0.96862745 0.56078431
0.57254902 0.96862745 0.56078431
0.67450980 0.97647059 0.53725490
0.80784314 0.98823529 0.48627451
0.96078431 0.99607843 0.33725490
0.00000000 0.00784314 0.34117647
0.00000000 0.00000000 0.34901961
0.36078431 0.00000000 0.36862745
0.68627451 0.00000000 0.35686275
0.90196078 0.00000000 0.32941176
1.00000000 0.00000000 0.28235294
1.00000000 0.19607843 0.32941176
0.00000000 0.09411765 0.33725490
0.00784314 0.09803922 0.34509804
0.37647059 0.03921569 0.36470588
0.69411765 0.00000000 0.35686275
0.89803922 0.00000000 0.32941176
1.00000000 0.10196078 0.32156863
1.00000000 0.31764706 0.32549020
0.00000000 0.32941176 0.32941176
0.00000000 0.34117647 0.33725490
0.35686275 0.36078431 0.34901961
0.67058824 0.37254902 0.34509804
0.85490196 0.40392157 0.33725490
0.99215686 0.44313725 0.32549020
1.00000000 0.48627451 0.32156863
0.00000000 0.56862745 0.37254902
0.08235294 0.56862745 0.37647059
0.27843137 0.55686275 0.33725490
0.56470588 0.59607843 0.31372549
0.79607843 0.62745098 0.30980392
0.95294118 0.63137255 0.32549020
1.00000000 0.63921569 0.31764706
0.00000000 0.70588235 0.38039216
0.00000000 0.70588235 0.36078431
0.23921569 0.69411765 0.34117647
0.47058824 0.69803922 0.32156863
0.70588235 0.74117647 0.30196078
0.91372549 0.77254902 0.28627451
1.00000000 0.76470588 0.31764706
0.00000000 0.82745098 0.41960784
0.16078431 0.82745098 0.41960784
0.30980392 0.81960784 0.40392157
0.45490196 0.81176471 0.38039216
0.63529412 0.83921569 0.36862745
0.83137255 0.87058824 0.33333333
1.00000000 0.89803922 0.26666667
0.44313725 0.96862745 0.61960784
0.46274510 0.96862745 0.61960784
0.50980392 0.96862745 0.61960784
0.58039216 0.96470588 0.61568627
0.68235294 0.97647059 0.60784314
0.81176471 0.98431373 0.57254902
0.95686275 0.99215686 0.48235294
0.00000000 0.00000000 0.62745098
0.00000000 0.00000000 0.63529412
0.39607843 0.00000000 0.64705882
0.71372549 0.00000000 0.67058824
0.87843137 0.00000000 0.63921569
1.00000000 0.00000000 0.61176471
1.00000000 0.00000000 0.57647059
0.00000000 0.09803922 0.62352941
0.00000000 0.08627451 0.63137255
0.41960784 0.00000000 0.64705882
0.70980392 0.00000000 0.66666667
0.87450980 0.00000000 0.63921569
1.00000000 0.00000000 0.60784314
1.00000000 0.22745098 0.58039216
0.00000000 0.33725490 0.60392157
0.00000000 0.34117647 0.61176471
0.38823529 0.36078431 0.62745098
0.67843137 0.37647059 0.64705882
0.83921569 0.37254902 0.62352941
0.98431373 0.41960784 0.60392157
1.00000000 0.48235294 0.59215686
0.00000000 0.59215686 0.58823529
0.07058824 0.59215686 0.58823529
0.39607843 0.60000000 0.59215686
0.60392157 0.61176471 0.60392157
0.78039216 0.62745098 0.60784314
0.93725490 0.64705882 0.61568627
1.00000000 0.65882353 0.61568627
0.29411765 0.72941176 0.60784314
0.35686275 0.72941176 0.61176471
0.46666667 0.72941176 0.60784314
0.54901961 0.71764706 0.57647059
0.71372549 0.74901961 0.57647059
0.90196078 0.76862745 0.59215686
1.00000000 0.76862745 0.60784314
0.41960784 0.84313725 0.64705882
0.44705882 0.84313725 0.64705882
0.45098039 0.83921569 0.61176471
0.51764706 0.82745098 0.57647059
0.63921569 0.83529412 0.56470588
0.83137255 0.87058824 0.56862745
1.00000000 0.89411765 0.57254902
0.50588235 0.96862745 0.70980392
0.50980392 0.97254902 0.70588235
0.54117647 0.97254902 0.70196078
0.60392157 0.96862745 0.69803922
0.69019608 0.96862745 0.69411765
0.81568627 0.98431373 0.67843137
0.95294118 0.99215686 0.63137255
0.00000000 0.00000000 0.80392157
0.10588235 0.00000000 0.80392157
0.46274510 0.00000000 0.81176471
0.71372549 0.00000000 0.81960784
0.87843137 0.00000000 0.82352941
1.00000000 0.00000000 0.80000000
1.00000000 0.00000000 0.77647059
0.00000000 0.08627451 0.80392157
0.18431373 0.05882353 0.80784314
0.47843137 0.00000000 0.81176471
0.70980392 0.00000000 0.81960784
0.87058824 0.00000000 0.82352941
0.99607843 0.02352941 0.80000000
1.00000000 0.23921569 0.77647059
0.00000000 0.33725490 0.78823529
0.14901961 0.35294118 0.78823529
0.45490196 0.36470588 0.79215686
0.67843137 0.39607843 0.80392157
0.83529412 0.43529412 0.81176471
0.96862745 0.43529412 0.79215686
1.00000000 0.48235294 0.77254902
0.00000000 0.58823529 0.75686275
0.00000000 0.58823529 0.75686275
0.35686275 0.58431373 0.75686275
0.61176471 0.61176471 0.77254902
0.78431373 0.63921569 0.78823529
0.92941176 0.63529412 0.78039216
1.00000000 0.65882353 0.77647059
0.28235294 0.74117647 0.74509804
0.35294118 0.74117647 0.74509804
0.47450980 0.74509804 0.74901961
0.61176471 0.74901961 0.75294118
0.73725490 0.76078431 0.76470588
0.89803922 0.77254902 0.77254902
1.00000000 0.78431373 0.78039216
0.49411765 0.86274510 0.77254902
0.51372549 0.85882353 0.77254902
0.56470588 0.85882353 0.76862745
0.63921569 0.85490196 0.76862745
0.68627451 0.84313725 0.73333333
0.84313725 0.87450980 0.74509804
1.00000000 0.89411765 0.76470588
0.60784314 0.97254902 0.82352941
0.61960784 0.97254902 0.81960784
0.65098039 0.97254902 0.81960784
0.67450980 0.97647059 0.80392157
0.72156863 0.97647059 0.78823529
0.82352941 0.98039216 0.78039216
0.96078431 0.99215686 0.76470588
0.28235294 0.00000000 0.92549020
0.38039216 0.00000000 0.92941176
0.54901961 0.00000000 0.92941176
0.72156863 0.00000000 0.93333333
0.86274510 0.00000000 0.93333333
0.99607843 0.09019608 0.93725490
1.00000000 0.16470588 0.91764706
0.31372549 0.08627451 0.92549020
0.40000000 0.07058824 0.92549020
0.55686275 0.04705882 0.92549020
0.71764706 0.10196078 0.92941176
0.85490196 0.21960784 0.92941176
0.98823529 0.29411765 0.93333333
1.00000000 0.31764706 0.91372549
0.30588235 0.37254902 0.91372549
0.38823529 0.37647059 0.91372549
0.53725490 0.38823529 0.91764706
0.69019608 0.41960784 0.91764706
0.82745098 0.47450980 0.92156863
0.96078431 0.50980392 0.92549020
1.00000000 0.50980392 0.90980392
0.10196078 0.57647059 0.89019608
0.26274510 0.58039216 0.89411765
0.46274510 0.59215686 0.89803922
0.64313725 0.61960784 0.90196078
0.79215686 0.64705882 0.90980392
0.93333333 0.67058824 0.91764706
1.00000000 0.66666667 0.90588235
0.25098039 0.73725490 0.87450980
0.32156863 0.74117647 0.87843137
0.43921569 0.73725490 0.87843137
0.56862745 0.73333333 0.87843137
0.75294118 0.76078431 0.89411765
0.90980392 0.78431373 0.90588235
1.00000000 0.78823529 0.89803922
0.47058824 0.87058824 0.87450980
0.49411765 0.86666667 0.87450980
0.56078431 0.87058824 0.87450980
0.65098039 0.87058824 0.87843137
0.75686275 0.87450980 0.87843137
0.87843137 0.88627451 0.89019608
0.99607843 0.90196078 0.89803922
0.67058824 0.97647059 0.90588235
0.68235294 0.97647059 0.90980392
0.70980392 0.97647059 0.90588235
0.75686275 0.98039216 0.90980392
0.81176471 0.97647059 0.90588235
0.85490196 0.97647059 0.88235294
0.96862745 0.98823529 0.88627451
0.50980392 0.06666667 1.00000000
0.54509804 0.07058824 1.00000000
0.63529412 0.09803922 1.00000000
0.74117647 0.16470588 1.00000000
0.84705882 0.25490196 1.00000000
0.96470588 0.36470588 1.00000000
1.00000000 0.40392157 1.00000000
0.51764706 0.24705882 1.00000000
0.55294118 0.25098039 1.00000000
0.63137255 0.26666667 1.00000000
0.73333333 0.30196078 1.00000000
0.83921569 0.36078431 0.99607843
0.95686275 0.44313725 1.00000000
1.00000000 0.47058824 1.00000000
0.50588235 0.46274510 1.00000000
0.53725490 0.46666667 1.00000000
0.61176471 0.47843137 1.00000000
0.71372549 0.49803922 1.00000000
0.82352941 0.53333333 1.00000000
0.94117647 0.57647059 1.00000000
1.00000000 0.59215686 1.00000000
0.46666667 0.63137255 1.00000000
0.50980392 0.63921569 1.00000000
0.58431373 0.64313725 1.00000000
0.69019608 0.65490196 1.00000000
0.80392157 0.67058824 1.00000000
0.92549020 0.69803922 1.00000000
1.00000000 0.70588235 1.00000000
0.37647059 0.74509804 0.99607843
0.42352941 0.74509804 0.99607843
0.52156863 0.74509804 0.99607843
0.64705882 0.75686275 0.99607843
0.78431373 0.77254902 0.99215686
0.90980392 0.79607843 0.99215686
1.00000000 0.81568627 0.99607843
0.51372549 0.87843137 0.98823529
0.53333333 0.88235294 0.99215686
0.58431373 0.88235294 0.99215686
0.65490196 0.87450980 0.98823529
0.74901961 0.87450980 0.99215686
0.89411765 0.89019608 0.99215686
0.99607843 0.90980392 0.99215686
0.66666667 0.98039216 0.98431373
0.67843137 0.98039216 0.98431373
0.71372549 0.98431373 0.98823529
0.76078431 0.98431373 0.98431373
0.82745098 0.98431373 0.98431373
0.90588235 0.98823529 0.98823529
0.99215686 0.99215686 0.99215686
