core/profiles/src/main/assets/luts/kodak_kodachrome_64.cube
# Source: RawTherapee Film Simulation Collection (HaldCLUT.zip)
# Converted from: HaldCLUT/Color/Kodak/Kodak Kodachrome 64.png
TITLE "kodak_kodachrome_64"
LUT_3D_SIZE 13
DOMAIN_MIN 0.0 0.0 0.0
DOMAIN_MAX 1.0 1.0 1.0
0.00000000 0.00000000 0.00000000
0.03529412 0.00000000 0.00000000
0.09411765 0.00000000 0.00000000
0.18039216 0.00392157 0.00000000
0.29019608 0.01176471 0.00000000
0.44705882 0.03137255 0.00000000
0.56078431 0.05098039 0.00000000
0.64705882 0.06666667 0.00000000
0.73333333 0.07843137 0.00000000
0.81568627 0.09411765 0.00000000
0.89019608 0.10588235 0.00000000
0.96862745 0.12156863 0.00000000
0.99215686 0.12549020 0.00000000
0.01960784 0.04313725 0.00784314
0.05490196 0.04313725 0.00784314
0.10980392 0.05098039 0.00784314
0.20000000 0.05882353 0.00784314
0.30980392 0.07450980 0.00392157
0.46274510 0.09411765 0.00392157
0.56862745 0.10588235 0.00392157
0.65490196 0.10980392 0.00000000
0.73725490 0.11372549 0.00000000
0.81176471 0.11764706 0.00000000
0.88627451 0.11372549 0.00000000
0.96470588 0.11764706 0.00000000
0.98823529 0.12156863 0.00000000
0.05882353 0.10588235 0.03921569
0.08235294 0.10980392 0.03921569
0.12941176 0.11372549 0.03529412
0.22352941 0.12156863 0.03529412
0.33725490 0.13333333 0.03137255
0.48235294 0.14901961 0.02745098
0.58039216 0.15686275 0.02352941
0.66666667 0.16078431 0.01960784
0.74509804 0.16470588 0.01568627
0.81960784 0.16470588 0.01176471
0.89411765 0.16078431 0.00392157
0.96470588 0.15294118 0.00000000
0.98823529 0.14509804 0.00000000
0.10588235 0.20784314 0.08627451
0.12549020 0.21176471 0.08627451
0.17254902 0.21568627 0.08235294
0.25490196 0.22352941 0.08235294
0.38039216 0.23137255 0.07843137
0.50980392 0.24313725 0.07450980
0.60784314 0.24705882 0.06666667
0.68627451 0.24705882 0.06274510
0.76470588 0.24313725 0.05098039
0.83529412 0.23137255 0.03921569
0.90588235 0.21960784 0.03137255
0.97647059 0.20784314 0.01568627
0.99607843 0.20000000 0.01176471
0.06666667 0.35294118 0.14117647
0.11372549 0.35294118 0.14117647
0.19607843 0.35686275 0.14117647
0.29411765 0.36470588 0.13725490
0.43529412 0.37647059 0.13333333
0.54901961 0.38039216 0.12549020
0.63921569 0.38039216 0.12156863
0.71764706 0.37254902 0.11372549
0.79215686 0.36470588 0.10196078
0.86274510 0.35294118 0.09411765
0.93333333 0.33333333 0.07843137
1.00000000 0.30980392 0.06274510
1.00000000 0.29803922 0.05490196
0.11764706 0.46666667 0.19215686
0.15686275 0.47058824 0.19215686
0.23529412 0.47450980 0.19215686
0.35294118 0.48235294 0.18823529
0.48235294 0.49411765 0.18431373
0.57647059 0.50196078 0.17647059
0.66666667 0.50980392 0.17254902
0.74117647 0.51372549 0.16470588
0.81960784 0.51372549 0.15686275
0.89411765 0.50980392 0.14901961
0.96470588 0.50196078 0.13725490
1.00000000 0.47450980 0.11764706
1.00000000 0.45882353 0.11372549
0.19215686 0.55686275 0.25490196
0.23137255 0.56078431 0.25490196
0.31372549 0.56862745 0.25490196
0.42352941 0.57647059 0.25098039
0.51372549 0.58823529 0.24705882
0.60000000 0.59607843 0.24313725
0.68235294 0.60000000 0.23921569
0.75686275 0.60784314 0.23137255
0.83137255 0.61176471 0.22352941
0.90588235 0.61568627 0.21176471
0.98039216 0.61568627 0.19607843
1.00000000 0.60784314 0.17254902
1.00000000 0.60392157 0.16470588
0.30588235 0.63921569 0.31372549
0.34117647 0.63921569 0.31372549
0.40000000 0.64705882 0.30980392
0.47058824 0.65098039 0.30980392
0.54117647 0.65882353 0.30588235
0.61960784 0.66666667 0.30196078
0.69803922 0.67450980 0.29803922
0.76862745 0.67843137 0.29411765
0.83921569 0.68627451 0.28627451
0.91372549 0.69019608 0.27450980
0.98823529 0.69411765 0.26274510
1.00000000 0.69411765 0.24313725
1.00000000 0.69411765 0.23529412
0.39607843 0.70980392 0.39607843
0.41568627 0.70980392 0.39607843
0.45098039 0.71372549 0.39607843
0.50196078 0.71764706 0.39215686
0.56470588 0.72549020 0.39215686
0.63529412 0.72941176 0.38823529
0.70588235 0.73725490 0.38431373
0.76862745 0.74509804 0.38039216
0.83921569 0.75294118 0.37254902
0.91372549 0.75686275 0.36078431
0.98823529 0.76470588 0.34509804
1.00000000 0.76862745 0.32156863
1.00000000 0.76862745 0.31372549
0.45098039 0.77647059 0.47058824
0.46274510 0.77647059 0.47058824
0.49019608 0.77647059 0.47058824
0.53333333 0.78431373 0.46666667
0.58823529 0.78823529 0.46666667
0.65098039 0.79215686 0.46274510
0.71372549 0.80000000 0.46274510
0.77254902 0.80784314 0.45882353
0.84313725 0.81176471 0.45098039
0.90980392 0.81960784 0.44705882
0.98431373 0.82745098 0.43529412
1.00000000 0.83137255 0.41568627
1.00000000 0.83529412 0.40784314
0.50588235 0.84313725 0.52941176
0.51372549 0.84313725 0.52941176
0.53725490 0.84705882 0.52941176
0.57647059 0.84705882 0.52941176
0.61960784 0.85490196 0.52549020
0.67450980 0.85882353 0.52549020
0.73333333 0.86666667 0.52156863
0.78823529 0.87058824 0.52156863
0.85098039 0.87843137 0.51764706
0.91764706 0.88235294 0.50980392
0.98823529 0.89019608 0.50196078
1.00000000 0.89803922 0.49019608
1.00000000 0.89803922 0.48627451
0.55686275 0.90980392 0.58823529
0.56470588 0.90980392 0.58823529
0.58431373 0.91372549 0.58823529
0.61568627 0.91372549 0.58823529
0.65490196 0.91764706 0.58823529
0.70196078 0.92549020 0.58431373
0.75294118 0.92941176 0.58431373
0.80392157 0.93333333 0.58039216
0.86274510 0.94117647 0.58039216
0.92941176 0.94901961 0.57254902
0.99607843 0.95686275 0.56862745
1.00000000 0.96470588 0.55686275
1.00000000 0.96470588 0.55294118
0.60392157 0.98039216 0.65490196
0.61176471 0.98039216 0.65490196
0.62745098 0.98431373 0.65490196
0.65098039 0.98431373 0.65490196
0.68627451 0.98823529 0.65490196
0.72549020 0.99215686 0.65098039
0.77254902 1.00000000 0.65098039
0.82352941 1.00000000 0.65098039
0.88235294 1.00000000 0.64705882
0.94509804 1.00000000 0.64705882
1.00000000 1.00000000 0.63921569
1.00000000 1.00000000 0.63137255
1.00000000 1.00000000 0.62745098
0.00000000 0.00000000 0.00784314
0.01960784 0.00000000 0.00784314
0.07450980 0.00000000 0.00784314
0.16470588 0.00000000 0.00784314
0.28235294 0.00784314 0.00784314
0.43529412 0.01960784 0.00784314
0.54509804 0.03529412 0.00392157
0.63529412 0.05098039 0.00392157
0.72156863 0.06666667 0.00392157
0.80000000 0.08235294 0.00000000
0.87843137 0.09803922 0.00000000
0.95686275 0.11372549 0.00000000
0.98431373 0.11764706 0.00000000
0.01176471 0.03137255 0.03921569
0.03921569 0.03529412 0.03921569
0.09803922 0.04313725 0.03921569
0.19215686 0.05098039 0.03529412
0.30588235 0.06666667 0.03529412
0.45490196 0.08627451 0.03137255
0.55686275 0.09803922 0.02745098
0.64313725 0.10196078 0.02352941
0.72549020 0.10588235 0.01568627
0.80000000 0.10980392 0.01176471
0.87450980 0.10588235 0.00784314
0.94901961 0.10588235 0.00392157
0.97647059 0.11372549 0.00000000
0.04705882 0.10196078 0.07450980
0.07450980 0.10588235 0.07058824
0.12156863 0.10588235 0.07058824
0.21568627 0.11764706 0.06666667
0.33333333 0.12941176 0.06666667
0.47450980 0.14509804 0.05882353
0.57254902 0.15294118 0.05490196
0.65490196 0.15686275 0.05098039
0.73725490 0.15686275 0.04313725
0.81176471 0.15686275 0.03529412
0.88235294 0.15294118 0.02352941
0.95686275 0.14509804 0.01176471
0.98039216 0.14117647 0.01176471
0.09803922 0.20392157 0.11764706
0.11764706 0.20392157 0.11764706
0.16470588 0.21176471 0.11372549
0.24705882 0.21568627 0.11372549
0.37647059 0.22745098 0.10980392
0.50196078 0.23921569 0.10196078
0.60000000 0.24313725 0.09803922
0.67843137 0.24313725 0.09019608
0.75686275 0.23921569 0.08235294
0.82745098 0.22745098 0.07058824
0.89803922 0.21568627 0.05490196
0.96862745 0.20000000 0.03921569
0.99215686 0.19607843 0.03529412
0.05882353 0.34901961 0.17254902
0.09411765 0.34901961 0.17254902
0.18431373 0.35294118 0.17254902
0.28627451 0.36078431 0.16862745
0.42745098 0.37254902 0.16470588
0.53725490 0.37647059 0.15686275
0.62745098 0.37647059 0.14901961
0.70588235 0.36862745 0.14509804
0.78039216 0.36078431 0.13333333
0.85490196 0.34901961 0.12156863
0.92156863 0.32941176 0.10588235
0.99215686 0.30588235 0.08627451
1.00000000 0.29411765 0.07843137
0.10980392 0.45882353 0.22745098
0.14509804 0.46274510 0.22745098
0.21960784 0.46666667 0.22745098
0.34117647 0.47843137 0.22352941
0.47058824 0.49019608 0.21960784
0.56470588 0.49803922 0.21568627
0.65490196 0.50588235 0.20784314
0.72941176 0.50588235 0.20392157
0.80784314 0.50980392 0.19215686
0.88235294 0.50588235 0.18039216
0.95294118 0.49411765 0.16470588
1.00000000 0.47058824 0.14509804
1.00000000 0.45490196 0.14117647
0.17647059 0.55294118 0.28627451
0.21568627 0.55686275 0.28627451
0.30588235 0.56470588 0.28235294
0.41568627 0.57254902 0.28235294
0.50588235 0.58039216 0.27843137
0.58823529 0.58823529 0.27450980
0.67450980 0.59607843 0.27058824
0.74509804 0.60392157 0.26274510
0.81960784 0.60784314 0.25490196
0.89411765 0.60784314 0.24705882
0.96862745 0.60784314 0.23137255
1.00000000 0.60392157 0.21176471
1.00000000 0.60000000 0.20392157
0.29019608 0.63137255 0.34509804
0.32941176 0.63529412 0.34509804
0.38823529 0.63921569 0.34509804
0.45490196 0.64705882 0.34117647
0.52941176 0.65098039 0.34117647
0.60784314 0.65882353 0.33725490
0.68627451 0.66666667 0.33333333
0.75294118 0.67450980 0.32549020
0.82745098 0.67843137 0.31764706
0.90196078 0.68627451 0.30980392
0.97647059 0.68627451 0.29411765
1.00000000 0.68627451 0.27450980
1.00000000 0.68627451 0.26666667
0.38039216 0.70196078 0.42352941
0.40000000 0.70196078 0.42352941
0.43529412 0.70588235 0.42352941
0.48627451 0.71372549 0.42352941
0.54901961 0.71764706 0.42352941
0.61960784 0.72549020 0.41960784
0.69019608 0.73333333 0.41568627
0.75686275 0.73725490 0.41176471
0.82745098 0.74509804 0.40392157
0.89803922 0.74901961 0.39607843
0.97254902 0.75686275 0.38039216
1.00000000 0.76078431 0.36078431
1.00000000 0.76078431 0.34901961
0.43921569 0.77254902 0.49019608
0.45490196 0.77254902 0.49019608
0.48235294 0.77254902 0.49019608
0.52549020 0.78039216 0.48627451
0.58039216 0.78431373 0.48627451
0.64313725 0.78823529 0.48235294
0.70588235 0.79607843 0.48235294
0.76470588 0.80392157 0.47843137
0.83137255 0.80784314 0.47450980
0.90196078 0.81568627 0.46666667
0.97254902 0.81960784 0.45882353
1.00000000 0.82745098 0.44313725
1.00000000 0.82745098 0.43921569
0.49803922 0.83921569 0.54509804
0.50980392 0.83921569 0.54509804
0.53333333 0.84313725 0.54509804
0.56862745 0.84705882 0.54117647
0.61568627 0.85098039 0.54117647
0.67058824 0.85490196 0.54117647
0.72549020 0.86274510 0.53725490
0.78039216 0.86666667 0.53725490
0.84705882 0.87450980 0.53333333
0.91372549 0.88235294 0.52549020
0.98039216 0.88627451 0.52156863
1.00000000 0.89411765 0.50980392
1.00000000 0.89411765 0.50196078
0.55294118 0.90588235 0.60000000
0.56078431 0.90980392 0.60000000
0.58039216 0.90980392 0.60000000
0.61176471 0.91372549 0.60000000
0.65098039 0.91764706 0.60000000
0.69411765 0.92156863 0.59607843
0.74901961 0.92549020 0.59607843
0.80000000 0.93333333 0.59215686
0.85882353 0.94117647 0.59215686
0.92549020 0.94509804 0.58823529
0.99215686 0.95294118 0.58039216
1.00000000 0.96078431 0.57254902
1.00000000 0.96470588 0.56470588
0.60000000 0.98039216 0.66274510
0.60784314 0.98039216 0.66274510
0.62352941 0.98039216 0.66274510
0.64705882 0.98431373 0.66274510
0.68235294 0.98823529 0.66274510
0.72156863 0.99215686 0.66274510
0.76862745 0.99607843 0.66274510
0.81960784 1.00000000 0.65882353
0.87843137 1.00000000 0.65882353
0.94117647 1.00000000 0.65490196
1.00000000 1.00000000 0.65098039
1.00000000 1.00000000 0.64313725
1.00000000 1.00000000 0.63921569
0.00000000 0.00000000 0.03137255
0.01176471 0.00000000 0.03137255
0.06274510 0.00000000 0.03137255
0.15686275 0.00000000 0.03137255
0.27450980 0.00392157 0.02745098
0.42745098 0.01568627 0.02352941
0.53725490 0.02745098 0.02352941
0.62352941 0.04313725 0.01960784
0.70980392 0.05882353 0.01568627
0.78823529 0.07450980 0.01568627
0.86666667 0.09019608 0.01176471
0.94901961 0.10588235 0.00784314
0.97254902 0.10980392 0.00392157
0.00392157 0.02745098 0.07843137
0.02745098 0.02745098 0.07843137
0.08627451 0.03529412 0.07450980
0.18039216 0.04313725 0.07450980
0.29803922 0.05882353 0.07058824
0.44313725 0.07843137 0.06666667
0.54901961 0.09019608 0.06274510
0.63137255 0.09411765 0.05490196
0.71372549 0.10196078 0.04705882
0.78823529 0.10196078 0.03921569
0.86274510 0.09803922 0.02745098
0.93725490 0.09803922 0.01568627
0.96470588 0.10196078 0.01568627
0.03137255 0.09411765 0.11372549
0.05882353 0.09411765 0.11372549
0.10588235 0.10196078 0.10980392
0.20392157 0.10980392 0.10980392
0.32549020 0.12156863 0.10588235
0.46274510 0.13725490 0.10196078
0.56078431 0.14509804 0.09411765
0.64313725 0.14901961 0.09019608
0.72156863 0.14901961 0.08235294
0.79607843 0.14901961 0.07058824
0.87058824 0.14509804 0.05882353
0.94509804 0.13725490 0.03921569
0.96862745 0.13333333 0.03529412
0.08627451 0.19607843 0.16470588
0.10588235 0.19607843 0.16470588
0.15294118 0.20000000 0.16078431
0.23137255 0.20784314 0.16078431
0.36470588 0.21960784 0.15686275
0.48627451 0.23137255 0.14901961
0.58039216 0.23529412 0.14509804
0.66274510 0.23529412 0.13725490
0.73725490 0.23137255 0.12549020
0.81176471 0.21960784 0.11372549
0.88235294 0.20784314 0.09803922
0.95294118 0.19215686 0.07843137
0.98039216 0.18823529 0.07058824
0.05490196 0.34117647 0.22352941
0.07058824 0.34509804 0.21960784
0.16078431 0.34901961 0.21960784
0.27058824 0.35294118 0.21568627
0.41568627 0.36470588 0.21176471
0.52156863 0.36862745 0.20784314
0.61176471 0.36862745 0.20000000
0.68627451 0.36470588 0.19215686
0.76470588 0.35294118 0.18039216
0.83529412 0.33725490 0.16862745
0.90588235 0.32156863 0.15294118
0.97647059 0.29411765 0.13333333
0.99607843 0.28235294 0.12549020
0.09803922 0.45098039 0.27843137
0.12941176 0.45490196 0.27843137
0.20000000 0.45882353 0.27450980
0.32941176 0.47058824 0.27450980
0.45490196 0.48235294 0.27058824
0.54901961 0.49019608 0.26666667
0.63529412 0.49411765 0.26274510
0.70980392 0.49803922 0.25490196
0.78823529 0.49803922 0.24705882
0.86274510 0.49803922 0.23529412
0.93333333 0.48627451 0.22352941
1.00000000 0.46274510 0.20000000
1.00000000 0.44705882 0.18823529
0.14509804 0.54117647 0.34117647
0.18823529 0.54509804 0.34117647
0.28235294 0.55294118 0.34117647
0.39215686 0.56078431 0.34117647
0.48235294 0.56862745 0.33725490
0.56470588 0.57647059 0.33333333
0.65098039 0.58431373 0.32941176
0.72156863 0.58823529 0.32549020
0.79607843 0.59607843 0.31764706
0.87058824 0.59607843 0.30588235
0.94901961 0.59607843 0.29019608
1.00000000 0.59215686 0.27058824
1.00000000 0.58823529 0.26274510
0.26274510 0.61960784 0.40784314
0.29803922 0.61960784 0.40784314
0.36078431 0.62745098 0.40784314
0.42745098 0.63137255 0.40784314
0.50196078 0.63921569 0.40392157
0.58039216 0.64705882 0.40392157
0.65882353 0.65490196 0.40000000
0.72549020 0.65882353 0.39607843
0.80000000 0.66274510 0.38823529
0.87450980 0.67058824 0.38039216
0.94901961 0.67450980 0.36470588
1.00000000 0.67450980 0.34509804
1.00000000 0.67450980 0.33725490
0.36078431 0.69411765 0.46666667
0.38039216 0.69411765 0.46666667
0.41568627 0.69803922 0.46666667
0.47058824 0.70196078 0.46666667
0.53333333 0.70980392 0.46274510
0.60392157 0.71764706 0.46274510
0.67450980 0.72156863 0.45882353
0.73725490 0.72941176 0.45490196
0.80784314 0.73333333 0.45098039
0.87843137 0.74117647 0.44313725
0.95294118 0.74509804 0.43529412
1.00000000 0.74901961 0.41960784
1.00000000 0.74901961 0.41568627
0.42745098 0.76470588 0.51764706
0.44313725 0.76470588 0.51764706
0.47058824 0.76862745 0.51764706
0.51372549 0.77254902 0.51764706
0.56862745 0.77647059 0.51764706
0.63137255 0.78431373 0.51372549
0.69411765 0.79215686 0.51372549
0.75294118 0.79607843 0.50980392
0.81960784 0.80392157 0.50588235
0.89019608 0.80784314 0.50196078
0.96078431 0.81568627 0.49411765
1.00000000 0.81960784 0.48235294
1.00000000 0.81960784 0.47450980
0.48627451 0.83529412 0.56862745
0.49803922 0.83529412 0.56862745
0.52156863 0.83921569 0.56862745
0.56078431 0.84313725 0.56862745
0.60392157 0.84705882 0.56862745
0.65882353 0.85098039 0.56470588
0.71764706 0.85882353 0.56470588
0.77254902 0.86274510 0.56078431
0.83529412 0.87058824 0.55686275
0.90196078 0.87450980 0.55294118
0.97254902 0.88235294 0.54901961
1.00000000 0.88627451 0.53725490
1.00000000 0.89019608 0.53333333
0.54509804 0.90196078 0.61960784
0.55294118 0.90588235 0.61960784
0.57254902 0.90588235 0.61960784
0.60000000 0.90980392 0.61960784
0.63921569 0.91372549 0.61960784
0.68627451 0.91764706 0.61960784
0.73725490 0.92156863 0.61568627
0.79215686 0.92941176 0.61568627
0.85098039 0.93725490 0.61176471
0.91372549 0.94117647 0.61176471
0.98431373 0.94901961 0.60392157
1.00000000 0.95686275 0.59607843
1.00000000 0.95686275 0.59215686
0.59215686 0.97647059 0.68235294
0.60000000 0.97647059 0.68235294
0.61568627 0.98039216 0.68235294
0.63921569 0.98039216 0.68235294
0.67450980 0.98431373 0.68235294
0.71372549 0.98823529 0.67843137
0.76078431 0.99607843 0.67843137
0.81176471 1.00000000 0.67843137
0.87058824 1.00000000 0.67450980
0.93333333 1.00000000 0.67450980
1.00000000 1.00000000 0.67058824
1.00000000 1.00000000 0.66274510
1.00000000 1.00000000 0.65882353
0.00000000 0.00000000 0.07843137
0.00392157 0.00000000 0.07450980
0.04705882 0.00000000 0.07450980
0.14117647 0.00000000 0.07450980
0.26274510 0.00000000 0.07058824
0.41568627 0.00784314 0.07058824
0.52156863 0.01960784 0.06666667
0.60784314 0.03137255 0.06274510
0.69411765 0.04705882 0.05490196
0.77254902 0.06274510 0.05098039
0.85490196 0.07843137 0.03921569
0.93333333 0.09411765 0.03137255
0.96078431 0.09803922 0.02745098
0.00000000 0.01568627 0.13333333
0.01176471 0.01960784 0.12941176
0.06274510 0.02352941 0.12941176
0.16078431 0.03137255 0.12941176
0.28235294 0.04705882 0.12549020
0.42745098 0.06666667 0.12156863
0.52549020 0.07450980 0.11764706
0.61176471 0.08235294 0.10980392
0.69019608 0.08627451 0.10196078
0.76862745 0.08627451 0.09411765
0.84313725 0.08235294 0.07843137
0.92156863 0.08627451 0.06274510
0.94901961 0.09019608 0.05490196
0.01568627 0.08235294 0.16862745
0.03529412 0.08235294 0.16862745
0.08627451 0.08627451 0.16862745
0.18431373 0.09411765 0.16470588
0.30980392 0.10980392 0.16470588
0.43921569 0.12156863 0.16078431
0.53725490 0.12941176 0.15294118
0.61960784 0.13333333 0.14901961
0.69803922 0.13333333 0.13725490
0.77254902 0.13333333 0.12941176
0.84705882 0.12941176 0.11764706
0.92156863 0.12156863 0.09803922
0.94509804 0.11764706 0.09019608
0.06666667 0.18431373 0.21960784
0.09019608 0.18431373 0.21960784
0.14117647 0.19215686 0.21960784
0.21176471 0.19607843 0.21568627
0.34901961 0.21176471 0.21176471
0.46666667 0.21960784 0.20784314
0.56078431 0.22352941 0.20392157
0.63921569 0.22352941 0.19607843
0.71372549 0.21568627 0.18823529
0.78431373 0.20392157 0.17647059
0.85490196 0.19215686 0.16078431
0.92941176 0.17647059 0.14117647
0.95294118 0.17254902 0.13333333
0.04705882 0.32941176 0.28627451
0.05882353 0.33333333 0.28627451
0.12549020 0.33725490 0.28627451
0.24313725 0.34117647 0.28627451
0.39215686 0.35294118 0.28235294
0.49411765 0.35686275 0.27843137
0.58431373 0.35686275 0.27058824
0.66274510 0.35294118 0.26274510
0.73725490 0.34117647 0.25098039
0.80784314 0.32549020 0.23921569
0.87843137 0.30588235 0.21960784
0.94901961 0.27843137 0.19607843
0.97254902 0.27058824 0.18823529
0.05882353 0.43529412 0.35686275
0.09803922 0.43921569 0.35686275
0.16078431 0.44313725 0.35686275
0.29803922 0.45490196 0.35294118
0.41960784 0.46274510 0.35294118
0.51372549 0.47058824 0.34901961
0.60392157 0.47843137 0.34509804
0.67843137 0.48235294 0.33725490
0.75294118 0.48235294 0.33333333
0.82745098 0.47843137 0.32156863
0.90196078 0.47058824 0.30588235
0.97647059 0.44705882 0.27843137
0.99607843 0.43529412 0.26666667
0.07450980 0.52549020 0.41568627
0.14117647 0.52941176 0.41568627
0.25098039 0.53725490 0.41568627
0.36078431 0.54509804 0.41568627
0.44705882 0.55294118 0.41176471
0.53333333 0.56078431 0.41176471
0.61960784 0.56862745 0.40784314
0.69019608 0.57254902 0.40392157
0.76470588 0.57647059 0.39607843
0.83921569 0.58039216 0.38823529
0.91372549 0.57647059 0.38039216
0.98823529 0.57254902 0.36078431
1.00000000 0.56862745 0.35294118
0.23921569 0.60784314 0.46274510
0.27843137 0.61176471 0.46274510
0.33725490 0.61568627 0.46274510
0.40392157 0.61960784 0.46274510
0.47843137 0.62745098 0.45882353
0.55686275 0.63529412 0.45882353
0.63529412 0.64313725 0.45490196
0.70196078 0.64705882 0.45098039
0.77647059 0.65098039 0.44705882
0.84705882 0.65490196 0.44313725
0.92156863 0.65882353 0.43137255
0.99607843 0.65882353 0.41960784
1.00000000 0.65490196 0.41568627
0.34509804 0.68627451 0.50980392
0.36470588 0.68627451 0.50980392
0.40000000 0.69019608 0.50980392
0.45098039 0.69411765 0.50980392
0.51764706 0.70196078 0.50588235
0.58431373 0.70588235 0.50588235
0.65490196 0.71372549 0.50196078
0.72156863 0.71764706 0.50196078
0.78823529 0.72549020 0.49803922
0.85882353 0.72941176 0.49019608
0.93333333 0.73333333 0.48627451
1.00000000 0.73725490 0.47450980
1.00000000 0.73725490 0.47058824
0.41176471 0.75686275 0.55686275
0.42745098 0.76078431 0.55686275
0.45490196 0.76078431 0.55294118
0.49803922 0.76470588 0.55294118
0.55294118 0.77254902 0.55294118
0.61568627 0.77647059 0.55294118
0.67843137 0.78431373 0.54901961
0.73725490 0.78823529 0.54901961
0.80392157 0.79607843 0.54509804
0.87450980 0.80000000 0.54117647
0.94509804 0.80392157 0.53333333
1.00000000 0.80784314 0.52549020
1.00000000 0.81176471 0.52156863
0.47450980 0.82745098 0.60392157
0.48627451 0.83137255 0.60392157
0.50980392 0.83137255 0.60000000
0.54509804 0.83529412 0.60000000
0.59215686 0.83921569 0.60000000
0.64313725 0.84313725 0.60000000
0.70196078 0.85098039 0.59607843
0.75686275 0.85490196 0.59607843
0.81960784 0.86274510 0.59215686
0.88627451 0.87058824 0.59215686
0.95686275 0.87450980 0.58431373
1.00000000 0.87843137 0.57647059
1.00000000 0.88235294 0.57254902
0.53333333 0.89803922 0.65098039
0.54117647 0.89803922 0.65098039
0.56078431 0.90196078 0.65098039
0.58823529 0.90196078 0.65098039
0.62745098 0.90588235 0.65098039
0.67450980 0.91372549 0.64705882
0.72549020 0.91764706 0.64705882
0.77647059 0.92156863 0.64705882
0.83921569 0.92941176 0.64313725
0.90196078 0.93725490 0.63921569
0.96862745 0.94509804 0.63529412
1.00000000 0.94901961 0.62745098
1.00000000 0.95294118 0.62352941
0.58431373 0.97254902 0.70588235
0.59215686 0.97254902 0.70588235
0.60392157 0.97647059 0.70588235
0.63137255 0.97647059 0.70588235
0.66274510 0.98039216 0.70588235
0.70588235 0.98431373 0.70588235
0.75294118 0.99215686 0.70588235
0.80000000 0.99607843 0.70196078
0.85882353 1.00000000 0.70196078
0.92156863 1.00000000 0.69803922
0.99215686 1.00000000 0.69803922
1.00000000 1.00000000 0.69019608
1.00000000 1.00000000 0.68627451
0.00000000 0.00000000 0.13725490
0.00000000 0.00000000 0.13725490
0.01960784 0.00000000 0.13725490
0.11764706 0.00000000 0.13333333
0.24313725 0.00000000 0.13333333
0.39215686 0.00392157 0.13333333
0.49411765 0.00784314 0.12941176
0.58039216 0.01568627 0.12549020
0.66666667 0.02745098 0.12156863
0.74901961 0.04313725 0.11372549
0.82745098 0.05882353 0.10588235
0.90980392 0.07843137 0.09411765
0.93725490 0.08235294 0.09019608
0.00000000 0.00784314 0.19607843
0.00000000 0.01176471 0.19607843
0.03529412 0.01176471 0.19607843
0.13725490 0.01960784 0.19607843
0.26274510 0.03137255 0.19215686
0.40000000 0.04705882 0.18823529
0.49803922 0.05882353 0.18431373
0.58039216 0.06274510 0.18039216
0.66274510 0.06666667 0.17254902
0.73725490 0.06666667 0.16470588
0.81176471 0.06666667 0.14901961
0.89019608 0.06274510 0.13333333
0.91764706 0.07058824 0.12941176
0.00000000 0.06666667 0.24313725
0.01176471 0.06666667 0.24313725
0.05490196 0.07058824 0.24313725
0.15294118 0.07843137 0.24313725
0.28235294 0.09019608 0.23921569
0.41176471 0.10588235 0.23529412
0.50588235 0.10980392 0.23137255
0.58823529 0.11372549 0.22745098
0.66666667 0.11372549 0.21568627
0.74117647 0.11372549 0.20784314
0.81568627 0.10980392 0.19215686
0.89019608 0.10196078 0.17254902
0.91372549 0.09803922 0.16470588
0.03137255 0.16470588 0.30588235
0.05490196 0.16470588 0.30588235
0.10588235 0.17254902 0.30588235
0.17647059 0.17647059 0.30196078
0.31764706 0.19215686 0.30196078
