core/profiles/src/main/assets/luts/kodak_portra_400.cube
# Source: RawTherapee Film Simulation Collection (HaldCLUT.zip)
# Converted from: HaldCLUT/Color/Kodak/Kodak Portra 400 2.png
TITLE "kodak_portra_400"
LUT_3D_SIZE 5
DOMAIN_MIN 0.0 0.0 0.0
DOMAIN_MAX 1.0 1.0 1.0
0.01568627 0.01568627 0.01568627
0.21568627 0.00784314 0.00784314
0.63529412 0.00000000 0.00000000
0.92941176 0.00000000 0.00000000
1.00000000 0.22352941 0.00000000
0.00000000 0.18039216 0.03137255
0.17254902 0.20784314 0.00000000
0.62352941 0.26666667 0.00000000
0.90980392 0.31372549 0.00000000
1.00000000 0.38039216 0.00000000
0.00000000 0.48627451 0.11764706
0.00000000 0.45490196 0.14901961
0.49019608 0.53333333 0.00000000
0.84705882 0.58823529 0.00000000
1.00000000 0.59607843 0.00000000
0.00000000 0.71764706 0.28627451
0.06666667 0.70196078 0.30196078
0.42745098 0.70588235 0.29411765
0.74117647 0.75294118 0.18823529
1.00000000 0.78823529 0.00000000
0.53725490 0.94901961 0.65098039
0.57647059 0.94117647 0.65882353
0.67450980 0.93333333 0.69411765
0.78823529 0.96078431 0.68235294
0.96078431 0.98431373 0.64313725
0.00000000 0.01960784 0.23137255
0.28627451 0.00000000 0.27843137
0.67450980 0.00000000 0.28235294
0.94117647 0.00000000 0.24705882
1.00000000 0.20392157 0.21960784
0.00000000 0.25098039 0.25490196
0.24313725 0.26274510 0.26274510
0.65882353 0.26274510 0.25098039
0.91764706 0.29411765 0.21960784
1.00000000 0.36862745 0.18823529
0.00000000 0.57254902 0.32549020
0.16078431 0.52941176 0.30588235
0.52941176 0.56078431 0.27450980
0.85882353 0.58823529 0.14901961
1.00000000 0.58823529 0.00784314
0.00000000 0.74509804 0.39215686
0.21568627 0.72941176 0.40392157
0.45490196 0.70588235 0.40392157
0.74901961 0.76078431 0.35294118
1.00000000 0.79215686 0.24313725
0.54117647 0.95294118 0.66666667
0.58039216 0.94509804 0.67843137
0.67843137 0.93725490 0.70980392
0.78823529 0.95686275 0.70196078
0.96470588 0.98431373 0.67450980
0.00000000 0.01568627 0.60000000
0.34117647 0.00000000 0.63921569
0.77647059 0.00000000 0.70588235
0.95294118 0.00000000 0.66666667
1.00000000 0.21568627 0.61960784
0.00000000 0.27450980 0.57254902
0.27843137 0.28235294 0.61568627
0.73725490 0.32156863 0.69019608
0.92549020 0.33333333 0.65882353
1.00000000 0.41568627 0.61960784
0.00000000 0.62745098 0.62352941
0.22352941 0.62745098 0.62745098
0.62352941 0.62745098 0.63137255
0.86274510 0.61960784 0.61568627
1.00000000 0.61960784 0.59607843
0.33725490 0.81176471 0.64705882
0.45490196 0.80392157 0.65098039
0.56470588 0.75686275 0.61568627
0.76862745 0.78039216 0.60392157
1.00000000 0.78823529 0.54509804
0.56862745 0.96470588 0.73333333
0.58823529 0.96470588 0.72941176
0.68235294 0.95294118 0.74509804
0.80000000 0.95686275 0.76470588
0.96470588 0.98431373 0.74509804
0.25882353 0.10588235 0.82745098
0.45490196 0.09019608 0.83921569
0.75686275 0.12941176 0.87058824
0.98039216 0.28627451 0.89411765
1.00000000 0.37647059 0.85490196
0.18823529 0.31372549 0.81176471
0.41176471 0.32549020 0.82352941
0.72549020 0.39215686 0.85882353
0.95686275 0.48627451 0.89019608
1.00000000 0.51372549 0.85490196
0.00000000 0.55686275 0.74117647
0.21568627 0.56862745 0.75686275
0.63137255 0.61960784 0.81568627
0.90196078 0.69411765 0.86666667
1.00000000 0.69019608 0.85490196
0.25490196 0.81960784 0.81568627
0.40000000 0.82352941 0.81960784
0.61960784 0.81960784 0.81960784
0.83529412 0.83137255 0.83137255
1.00000000 0.82352941 0.81960784
0.55686275 1.00000000 0.85490196
0.60392157 0.99607843 0.85490196
0.72156863 0.98823529 0.85882353
0.81960784 0.96862745 0.85098039
0.98039216 0.99215686 0.85490196
0.55686275 0.43529412 1.00000000
0.61568627 0.43921569 1.00000000
0.76470588 0.46666667 1.00000000
0.93333333 0.52156863 1.00000000
1.00000000 0.58039216 1.00000000
0.55294118 0.53725490 0.99607843
0.61176471 0.54117647 0.99607843
0.75294118 0.56078431 1.00000000
0.92549020 0.60784314 1.00000000
1.00000000 0.64705882 1.00000000
0.51764706 0.68627451 0.98431373
0.56078431 0.67450980 0.98431373
0.72156863 0.69411765 0.99215686
0.90196078 0.73333333 1.00000000
1.00000000 0.76862745 1.00000000
0.41960784 0.81960784 0.97647059
0.47058824 0.81568627 0.97647059
0.60784314 0.81176471 0.97647059
0.84705882 0.83529412 0.98823529
1.00000000 0.89019608 1.00000000
0.49019608 0.99607843 0.99607843
0.54117647 1.00000000 0.99607843
0.67058824 0.99607843 0.99607843
0.82745098 0.99607843 0.99607843
1.00000000 1.00000000 1.00000000
