core/profiles/src/main/assets/luts/kodak_hie_hs_infra.cube
# Source: RawTherapee Film Simulation Collection (HaldCLUT.zip)
# Converted from: HaldCLUT/Black-and-White/Kodak/Kodak HIE (HS Infra).png
TITLE "kodak_hie_hs_infra"
LUT_3D_SIZE 7
DOMAIN_MIN 0.0 0.0 0.0
DOMAIN_MAX 1.0 1.0 1.0
0.00000000 0.00000000 0.00000000
0.12941176 0.12941176 0.12941176
0.27843137 0.27843137 0.27843137
0.48627451 0.48627451 0.48627451
0.70588235 0.70588235 0.70588235
0.85882353 0.85882353 0.85882353
0.98039216 0.98039216 0.98039216
0.16078431 0.16078431 0.16078431
0.22352941 0.22352941 0.22352941
0.32941176 0.32941176 0.32941176
0.50196078 0.50196078 0.50196078
0.70588235 0.70588235 0.70588235
0.85882353 0.85882353 0.85882353
0.98039216 0.98039216 0.98039216
0.29803922 0.29803922 0.29803922
0.34117647 0.34117647 0.34117647
0.40392157 0.40392157 0.40392157
0.54117647 0.54117647 0.54117647
0.72156863 0.72156863 0.72156863
0.86666667 0.86666667 0.86666667
0.98039216 0.98039216 0.98039216
0.49803922 0.49803922 0.49803922
0.51372549 0.51372549 0.51372549
0.52941176 0.52941176 0.52941176
0.60784314 0.60784314 0.60784314
0.74901961 0.74901961 0.74901961
0.87843137 0.87843137 0.87843137
0.98431373 0.98431373 0.98431373
0.78431373 0.78431373 0.78431373
0.76862745 0.76862745 0.76862745
0.73333333 0.73333333 0.73333333
0.70196078 0.70196078 0.70196078
0.78431373 0.78431373 0.78431373
0.89803922 0.89803922 0.89803922
0.98823529 0.98823529 0.98823529
0.88627451 0.88627451 0.88627451
0.96470588 0.96470588 0.96470588
1.00000000 1.00000000 1.00000000
0.92549020 0.92549020 0.92549020
0.84313725 0.84313725 0.84313725
0.91764706 0.91764706 0.91764706
0.99215686 0.99215686 0.99215686
0.81176471 0.81176471 0.81176471
0.88235294 0.88235294 0.88235294
1.00000000 1.00000000 1.00000000
1.00000000 1.00000000 1.00000000
1.00000000 1.00000000 1.00000000
0.96470588 0.96470588 0.96470588
0.99215686 0.99215686 0.99215686
0.00000000 0.00000000 0.00000000
0.11372549 0.11372549 0.11372549
0.29803922 0.29803922 0.29803922
0.52941176 0.52941176 0.52941176
0.73333333 0.73333333 0.73333333
0.87450980 0.87450980 0.87450980
0.99215686 0.99215686 0.99215686
0.12941176 0.12941176 0.12941176
0.19607843 0.19607843 0.19607843
0.33333333 0.33333333 0.33333333
0.52941176 0.52941176 0.52941176
0.72549020 0.72549020 0.72549020
0.87058824 0.87058824 0.87058824
0.98823529 0.98823529 0.98823529
0.28235294 0.28235294 0.28235294
0.31372549 0.31372549 0.31372549
0.40392157 0.40392157 0.40392157
0.56078431 0.56078431 0.56078431
0.73725490 0.73725490 0.73725490
0.87450980 0.87450980 0.87450980
0.98823529 0.98823529 0.98823529
0.47450980 0.47450980 0.47450980
0.48235294 0.48235294 0.48235294
0.52156863 0.52156863 0.52156863
0.61568627 0.61568627 0.61568627
0.76078431 0.76078431 0.76078431
0.88627451 0.88627451 0.88627451
0.98823529 0.98823529 0.98823529
0.73725490 0.73725490 0.73725490
0.72549020 0.72549020 0.72549020
0.69803922 0.69803922 0.69803922
0.69803922 0.69803922 0.69803922
0.78823529 0.78823529 0.78823529
0.90196078 0.90196078 0.90196078
0.99215686 0.99215686 0.99215686
0.93333333 0.93333333 0.93333333
1.00000000 1.00000000 1.00000000
1.00000000 1.00000000 1.00000000
0.89019608 0.89019608 0.89019608
0.84313725 0.84313725 0.84313725
0.92156863 0.92156863 0.92156863
0.99607843 0.99607843 0.99607843
0.84705882 0.84705882 0.84705882
0.91764706 0.91764706 0.91764706
1.00000000 1.00000000 1.00000000
1.00000000 1.00000000 1.00000000
1.00000000 1.00000000 1.00000000
0.96078431 0.96078431 0.96078431
0.99607843 0.99607843 0.99607843
0.00000000 0.00000000 0.00000000
0.13333333 0.13333333 0.13333333
0.32941176 0.32941176 0.32941176
0.56078431 0.56078431 0.56078431
0.75686275 0.75686275 0.75686275
0.88627451 0.88627451 0.88627451
0.99607843 0.99607843 0.99607843
0.09803922 0.09803922 0.09803922
0.19607843 0.19607843 0.19607843
0.34901961 0.34901961 0.34901961
0.56078431 0.56078431 0.56078431
0.75294118 0.75294118 0.75294118
0.88235294 0.88235294 0.88235294
0.99215686 0.99215686 0.99215686
0.24705882 0.24705882 0.24705882
0.29803922 0.29803922 0.29803922
0.41176471 0.41176471 0.41176471
0.58823529 0.58823529 0.58823529
0.76078431 0.76078431 0.76078431
0.88627451 0.88627451 0.88627451
0.99607843 0.99607843 0.99607843
0.41960784 0.41960784 0.41960784
0.44313725 0.44313725 0.44313725
0.50980392 0.50980392 0.50980392
0.63529412 0.63529412 0.63529412
0.78039216 0.78039216 0.78039216
0.89803922 0.89803922 0.89803922
0.99607843 0.99607843 0.99607843
0.65882353 0.65882353 0.65882353
0.65098039 0.65098039 0.65098039
0.65490196 0.65490196 0.65490196
0.70196078 0.70196078 0.70196078
0.80392157 0.80392157 0.80392157
0.90980392 0.90980392 0.90980392
1.00000000 1.00000000 1.00000000
1.00000000 1.00000000 1.00000000
1.00000000 1.00000000 1.00000000
0.94509804 0.94509804 0.94509804
0.82745098 0.82745098 0.82745098
0.84313725 0.84313725 0.84313725
0.92549020 0.92549020 0.92549020
1.00000000 1.00000000 1.00000000
0.92549020 0.92549020 0.92549020
0.98823529 0.98823529 0.98823529
1.00000000 1.00000000 1.00000000
1.00000000 1.00000000 1.00000000
1.00000000 1.00000000 1.00000000
0.95294118 0.95294118 0.95294118
1.00000000 1.00000000 1.00000000
0.00000000 0.00000000 0.00000000
0.16470588 0.16470588 0.16470588
0.38431373 0.38431373 0.38431373
0.60392157 0.60392157 0.60392157
0.78039216 0.78039216 0.78039216
0.90588235 0.90588235 0.90588235
1.00000000 1.00000000 1.00000000
0.10196078 0.10196078 0.10196078
0.21176471 0.21176471 0.21176471
0.39607843 0.39607843 0.39607843
0.60392157 0.60392157 0.60392157
0.78039216 0.78039216 0.78039216
0.90196078 0.90196078 0.90196078
1.00000000 1.00000000 1.00000000
0.24705882 0.24705882 0.24705882
0.30588235 0.30588235 0.30588235
0.44705882 0.44705882 0.44705882
0.63137255 0.63137255 0.63137255
0.79215686 0.79215686 0.79215686
0.90588235 0.90588235 0.90588235
1.00000000 1.00000000 1.00000000
0.39607843 0.39607843 0.39607843
0.43137255 0.43137255 0.43137255
0.52549020 0.52549020 0.52549020
0.67450980 0.67450980 0.67450980
0.80784314 0.80784314 0.80784314
0.91764706 0.91764706 0.91764706
1.00000000 1.00000000 1.00000000
0.57647059 0.57647059 0.57647059
0.58431373 0.58431373 0.58431373
0.62352941 0.62352941 0.62352941
0.72549020 0.72549020 0.72549020
0.83137255 0.83137255 0.83137255
0.92549020 0.92549020 0.92549020
1.00000000 1.00000000 1.00000000
0.89803922 0.89803922 0.89803922
0.86666667 0.86666667 0.86666667
0.81176471 0.81176471 0.81176471
0.80000000 0.80000000 0.80000000
0.85490196 0.85490196 0.85490196
0.92941176 0.92941176 0.92941176
1.00000000 1.00000000 1.00000000
1.00000000 1.00000000 1.00000000
1.00000000 1.00000000 1.00000000
1.00000000 1.00000000 1.00000000
1.00000000 1.00000000 1.00000000
1.00000000 1.00000000 1.00000000
0.94901961 0.94901961 0.94901961
1.00000000 1.00000000 1.00000000
0.00000000 0.00000000 0.00000000
0.24313725 0.24313725 0.24313725
0.46274510 0.46274510 0.46274510
0.65490196 0.65490196 0.65490196
0.80784314 0.80784314 0.80784314
0.93725490 0.93725490 0.93725490
1.00000000 1.00000000 1.00000000
0.15294118 0.15294118 0.15294118
0.28235294 0.28235294 0.28235294
0.47450980 0.47450980 0.47450980
0.65882353 0.65882353 0.65882353
0.81176471 0.81176471 0.81176471
0.93333333 0.93333333 0.93333333
1.00000000 1.00000000 1.00000000
0.29803922 0.29803922 0.29803922
0.37647059 0.37647059 0.37647059
0.52156863 0.52156863 0.52156863
0.68627451 0.68627451 0.68627451
0.81960784 0.81960784 0.81960784
0.94117647 0.94117647 0.94117647
1.00000000 1.00000000 1.00000000
0.43529412 0.43529412 0.43529412
0.48235294 0.48235294 0.48235294
0.58431373 0.58431373 0.58431373
0.72156863 0.72156863 0.72156863
0.83921569 0.83921569 0.83921569
0.94901961 0.94901961 0.94901961
1.00000000 1.00000000 1.00000000
0.55686275 0.55686275 0.55686275
0.58431373 0.58431373 0.58431373
0.65882353 0.65882353 0.65882353
0.76078431 0.76078431 0.76078431
0.85882353 0.85882353 0.85882353
0.95294118 0.95294118 0.95294118
1.00000000 1.00000000 1.00000000
0.73333333 0.73333333 0.73333333
0.73333333 0.73333333 0.73333333
0.75686275 0.75686275 0.75686275
0.80784314 0.80784314 0.80784314
0.88235294 0.88235294 0.88235294
0.95294118 0.95294118 0.95294118
1.00000000 1.00000000 1.00000000
1.00000000 1.00000000 1.00000000
1.00000000 1.00000000 1.00000000
1.00000000 1.00000000 1.00000000
1.00000000 1.00000000 1.00000000
0.98039216 0.98039216 0.98039216
0.94509804 0.94509804 0.94509804
1.00000000 1.00000000 1.00000000
0.07450980 0.07450980 0.07450980
0.38039216 0.38039216 0.38039216
0.55686275 0.55686275 0.55686275
0.72156863 0.72156863 0.72156863
0.83529412 0.83529412 0.83529412
0.96470588 0.96470588 0.96470588
1.00000000 1.00000000 1.00000000
0.30196078 0.30196078 0.30196078
0.41960784 0.41960784 0.41960784
0.57254902 0.57254902 0.57254902
0.72941176 0.72941176 0.72941176
0.83921569 0.83921569 0.83921569
0.96862745 0.96862745 0.96862745
1.00000000 1.00000000 1.00000000
0.43529412 0.43529412 0.43529412
0.49803922 0.49803922 0.49803922
0.61568627 0.61568627 0.61568627
0.75294118 0.75294118 0.75294118
0.85098039 0.85098039 0.85098039
0.97254902 0.97254902 0.97254902
1.00000000 1.00000000 1.00000000
0.54509804 0.54509804 0.54509804
0.58431373 0.58431373 0.58431373
0.67058824 0.67058824 0.67058824
0.78431373 0.78431373 0.78431373
0.87058824 0.87058824 0.87058824
0.97647059 0.97647059 0.97647059
1.00000000 1.00000000 1.00000000
0.63529412 0.63529412 0.63529412
0.65882353 0.65882353 0.65882353
0.72941176 0.72941176 0.72941176
0.81568627 0.81568627 0.81568627
0.89019608 0.89019608 0.89019608
0.98431373 0.98431373 0.98431373
1.00000000 1.00000000 1.00000000
0.72549020 0.72549020 0.72549020
0.74117647 0.74117647 0.74117647
0.78431373 0.78431373 0.78431373
0.85098039 0.85098039 0.85098039
0.90980392 0.90980392 0.90980392
0.98431373 0.98431373 0.98431373
1.00000000 1.00000000 1.00000000
1.00000000 1.00000000 1.00000000
1.00000000 1.00000000 1.00000000
1.00000000 1.00000000 1.00000000
0.96862745 0.96862745 0.96862745
0.93725490 0.93725490 0.93725490
0.94509804 0.94509804 0.94509804
1.00000000 1.00000000 1.00000000
0.30588235 0.30588235 0.30588235
0.53333333 0.53333333 0.53333333
0.66274510 0.66274510 0.66274510
0.78039216 0.78039216 0.78039216
0.89019608 0.89019608 0.89019608
0.99215686 0.99215686 0.99215686
1.00000000 1.00000000 1.00000000
0.49411765 0.49411765 0.49411765
0.57647059 0.57647059 0.57647059
0.69019608 0.69019608 0.69019608
0.79215686 0.79215686 0.79215686
0.90196078 0.90196078 0.90196078
0.99607843 0.99607843 0.99607843
1.00000000 1.00000000 1.00000000
0.60000000 0.60000000 0.60000000
0.64705882 0.64705882 0.64705882
0.72941176 0.72941176 0.72941176
0.81568627 0.81568627 0.81568627
0.91764706 0.91764706 0.91764706
1.00000000 1.00000000 1.00000000
1.00000000 1.00000000 1.00000000
0.69019608 0.69019608 0.69019608
0.71764706 0.71764706 0.71764706
0.77254902 0.77254902 0.77254902
0.84705882 0.84705882 0.84705882
0.94509804 0.94509804 0.94509804
1.00000000 1.00000000 1.00000000
1.00000000 1.00000000 1.00000000
0.76078431 0.76078431 0.76078431
0.78039216 0.78039216 0.78039216
0.81960784 0.81960784 0.81960784
0.88235294 0.88235294 0.88235294
0.96862745 0.96862745 0.96862745
1.00000000 1.00000000 1.00000000
1.00000000 1.00000000 1.00000000
0.82352941 0.82352941 0.82352941
0.83529412 0.83529412 0.83529412
0.86274510 0.86274510 0.86274510
0.92156863 0.92156863 0.92156863
0.98431373 0.98431373 0.98431373
1.00000000 1.00000000 1.00000000
1.00000000 1.00000000 1.00000000
0.87058824 0.87058824 0.87058824
0.87843137 0.87843137 0.87843137
0.89803922 0.89803922 0.89803922
0.92941176 0.92941176 0.92941176
0.96078431 0.96078431 0.96078431
1.00000000 1.00000000 1.00000000
1.00000000 1.00000000 1.00000000
