core/profiles/src/main/assets/luts/kodak_tri-x_400.cube
# Source: RawTherapee Film Simulation Collection (HaldCLUT.zip)
# Converted from: HaldCLUT/Black-and-White/Kodak/Kodak TRI-X 400 2.png
TITLE "kodak_tri-x_400"
LUT_3D_SIZE 5
DOMAIN_MIN 0.0 0.0 0.0
DOMAIN_MAX 1.0 1.0 1.0
0.04313725 0.04313725 0.04313725
0.07450980 0.07450980 0.07450980
0.16078431 0.16078431 0.16078431
0.29411765 0.29411765 0.29411765
0.51372549 0.51372549 0.51372549
0.14901961 0.14901961 0.14901961
0.19607843 0.19607843 0.19607843
0.30588235 0.30588235 0.30588235
0.40784314 0.40784314 0.40784314
0.60784314 0.60784314 0.60784314
0.37647059 0.37647059 0.37647059
0.35294118 0.35294118 0.35294118
0.49411765 0.49411765 0.49411765
0.65490196 0.65490196 0.65490196
0.79215686 0.79215686 0.79215686
0.65098039 0.65098039 0.65098039
0.63921569 0.63921569 0.63921569
0.67450980 0.67450980 0.67450980
0.78823529 0.78823529 0.78823529
0.91372549 0.91372549 0.91372549
0.93333333 0.93333333 0.93333333
0.92941176 0.92941176 0.92941176
0.92156863 0.92156863 0.92156863
0.96078431 0.96078431 0.96078431
0.98823529 0.98823529 0.98823529
0.09803922 0.09803922 0.09803922
0.16078431 0.16078431 0.16078431
0.27058824 0.27058824 0.27058824
0.32156863 0.32156863 0.32156863
0.50980392 0.50980392 0.50980392
0.21176471 0.21176471 0.21176471
0.23529412 0.23529412 0.23529412
0.31372549 0.31372549 0.31372549
0.41568627 0.41568627 0.41568627
0.60784314 0.60784314 0.60784314
0.47058824 0.47058824 0.47058824
0.43529412 0.43529412 0.43529412
0.52156863 0.52156863 0.52156863
0.66274510 0.66274510 0.66274510
0.78823529 0.78823529 0.78823529
0.69803922 0.69803922 0.69803922
0.69019608 0.69019608 0.69019608
0.69019608 0.69019608 0.69019608
0.79607843 0.79607843 0.79607843
0.91372549 0.91372549 0.91372549
0.94117647 0.94117647 0.94117647
0.93725490 0.93725490 0.93725490
0.92941176 0.92941176 0.92941176
0.95686275 0.95686275 0.95686275
0.98823529 0.98823529 0.98823529
0.24313725 0.24313725 0.24313725
0.29803922 0.29803922 0.29803922
0.41568627 0.41568627 0.41568627
0.60784314 0.60784314 0.60784314
0.70980392 0.70980392 0.70980392
0.31764706 0.31764706 0.31764706
0.36862745 0.36862745 0.36862745
0.46666667 0.46666667 0.46666667
0.63529412 0.63529412 0.63529412
0.70980392 0.70980392 0.70980392
0.52941176 0.52941176 0.52941176
0.54509804 0.54509804 0.54509804
0.58039216 0.58039216 0.58039216
0.65490196 0.65490196 0.65490196
0.76862745 0.76862745 0.76862745
0.79215686 0.79215686 0.79215686
0.79215686 0.79215686 0.79215686
0.76078431 0.76078431 0.76078431
0.81960784 0.81960784 0.81960784
0.91764706 0.91764706 0.91764706
0.96078431 0.96078431 0.96078431
0.96078431 0.96078431 0.96078431
0.95294118 0.95294118 0.95294118
0.96078431 0.96078431 0.96078431
0.98823529 0.98823529 0.98823529
0.47843137 0.47843137 0.47843137
0.51372549 0.51372549 0.51372549
0.61176471 0.61176471 0.61176471
0.70980392 0.70980392 0.70980392
0.84705882 0.84705882 0.84705882
0.53333333 0.53333333 0.53333333
0.56470588 0.56470588 0.56470588
0.65098039 0.65098039 0.65098039
0.73725490 0.73725490 0.73725490
0.87058824 0.87058824 0.87058824
0.57254902 0.57254902 0.57254902
0.61568627 0.61568627 0.61568627
0.71764706 0.71764706 0.71764706
0.78431373 0.78431373 0.78431373
0.90588235 0.90588235 0.90588235
0.81176471 0.81176471 0.81176471
0.81960784 0.81960784 0.81960784
0.83137255 0.83137255 0.83137255
0.85490196 0.85490196 0.85490196
0.90980392 0.90980392 0.90980392
0.98039216 0.98039216 0.98039216
0.98039216 0.98039216 0.98039216
0.98039216 0.98039216 0.98039216
0.97254902 0.97254902 0.97254902
0.99215686 0.99215686 0.99215686
0.83529412 0.83529412 0.83529412
0.84313725 0.84313725 0.84313725
0.87843137 0.87843137 0.87843137
0.91764706 0.91764706 0.91764706
0.94901961 0.94901961 0.94901961
0.84705882 0.84705882 0.84705882
0.85882353 0.85882353 0.85882353
0.88627451 0.88627451 0.88627451
0.92549020 0.92549020 0.92549020
0.95294118 0.95294118 0.95294118
0.86274510 0.86274510 0.86274510
0.87058824 0.87058824 0.87058824
0.90196078 0.90196078 0.90196078
0.93725490 0.93725490 0.93725490
0.96470588 0.96470588 0.96470588
0.89411765 0.89411765 0.89411765
0.89019608 0.89019608 0.89019608
0.89411765 0.89411765 0.89411765
0.95294118 0.95294118 0.95294118
0.98039216 0.98039216 0.98039216
0.98823529 0.98823529 0.98823529
0.98823529 0.98823529 0.98823529
0.98823529 0.98823529 0.98823529
0.98823529 0.98823529 0.98823529
0.99215686 0.99215686 0.99215686
