core/profiles/src/main/assets/luts/kodak_hie_hs_infra.cube
# Source: RawTherapee Film Simulation Collection (HaldCLUT.zip)
# Converted from: HaldCLUT/Black-and-White/Kodak/Kodak HIE (HS Infra).png
TITLE "kodak_hie_hs_infra"
LUT_3D_SIZE 13
DOMAIN_MIN 0.0 0.0 0.0
DOMAIN_MAX 1.0 1.0 1.0
0.00000000 0.00000000 0.00000000
0.06274510 0.06274510 0.06274510
0.12941176 0.12941176 0.12941176
0.19215686 0.19215686 0.19215686
0.27843137 0.27843137 0.27843137
0.37254902 0.37254902 0.37254902
0.48627451 0.48627451 0.48627451
0.59607843 0.59607843 0.59607843
0.70588235 0.70588235 0.70588235
0.79607843 0.79607843 0.79607843
0.85882353 0.85882353 0.85882353
0.92941176 0.92941176 0.92941176
0.98039216 0.98039216 0.98039216
0.09019608 0.09019608 0.09019608
0.13333333 0.13333333 0.13333333
0.18431373 0.18431373 0.18431373
0.23529412 0.23529412 0.23529412
0.30588235 0.30588235 0.30588235
0.38823529 0.38823529 0.38823529
0.49019608 0.49019608 0.49019608
0.59607843 0.59607843 0.59607843
0.70196078 0.70196078 0.70196078
0.79215686 0.79215686 0.79215686
0.85882353 0.85882353 0.85882353
0.92549020 0.92549020 0.92549020
0.98039216 0.98039216 0.98039216
0.16078431 0.16078431 0.16078431
0.18039216 0.18039216 0.18039216
0.22352941 0.22352941 0.22352941
0.26666667 0.26666667 0.26666667
0.32941176 0.32941176 0.32941176
0.40784314 0.40784314 0.40784314
0.50196078 0.50196078 0.50196078
0.60392157 0.60392157 0.60392157
0.70588235 0.70588235 0.70588235
0.79215686 0.79215686 0.79215686
0.85882353 0.85882353 0.85882353
0.92549020 0.92549020 0.92549020
0.98039216 0.98039216 0.98039216
0.22745098 0.22745098 0.22745098
0.23921569 0.23921569 0.23921569
0.27843137 0.27843137 0.27843137
0.30980392 0.30980392 0.30980392
0.36078431 0.36078431 0.36078431
0.43137255 0.43137255 0.43137255
0.51764706 0.51764706 0.51764706
0.61568627 0.61568627 0.61568627
0.71372549 0.71372549 0.71372549
0.79607843 0.79607843 0.79607843
0.86274510 0.86274510 0.86274510
0.92941176 0.92941176 0.92941176
0.98039216 0.98039216 0.98039216
0.29803922 0.29803922 0.29803922
0.31372549 0.31372549 0.31372549
0.34117647 0.34117647 0.34117647
0.36078431 0.36078431 0.36078431
0.40392157 0.40392157 0.40392157
0.46666667 0.46666667 0.46666667
0.54117647 0.54117647 0.54117647
0.63137255 0.63137255 0.63137255
0.72156863 0.72156863 0.72156863
0.80392157 0.80392157 0.80392157
0.86666667 0.86666667 0.86666667
0.92941176 0.92941176 0.92941176
0.98039216 0.98039216 0.98039216
0.38823529 0.38823529 0.38823529
0.40000000 0.40000000 0.40000000
0.41568627 0.41568627 0.41568627
0.42745098 0.42745098 0.42745098
0.45882353 0.45882353 0.45882353
0.50588235 0.50588235 0.50588235
0.57254902 0.57254902 0.57254902
0.65098039 0.65098039 0.65098039
0.73333333 0.73333333 0.73333333
0.81176471 0.81176471 0.81176471
0.87450980 0.87450980 0.87450980
0.93333333 0.93333333 0.93333333
0.98039216 0.98039216 0.98039216
0.49803922 0.49803922 0.49803922
0.50196078 0.50196078 0.50196078
0.51372549 0.51372549 0.51372549
0.51764706 0.51764706 0.51764706
0.52941176 0.52941176 0.52941176
0.56470588 0.56470588 0.56470588
0.60784314 0.60784314 0.60784314
0.67450980 0.67450980 0.67450980
0.74901961 0.74901961 0.74901961
0.81960784 0.81960784 0.81960784
0.87843137 0.87843137 0.87843137
0.93333333 0.93333333 0.93333333
0.98431373 0.98431373 0.98431373
0.61960784 0.61960784 0.61960784
0.61960784 0.61960784 0.61960784
0.61960784 0.61960784 0.61960784
0.61960784 0.61960784 0.61960784
0.61568627 0.61568627 0.61568627
0.62745098 0.62745098 0.62745098
0.64705882 0.64705882 0.64705882
0.69803922 0.69803922 0.69803922
0.76470588 0.76470588 0.76470588
0.82745098 0.82745098 0.82745098
0.88627451 0.88627451 0.88627451
0.93725490 0.93725490 0.93725490
0.98431373 0.98431373 0.98431373
0.78431373 0.78431373 0.78431373
0.78039216 0.78039216 0.78039216
0.76862745 0.76862745 0.76862745
0.75294118 0.75294118 0.75294118
0.73333333 0.73333333 0.73333333
0.71372549 0.71372549 0.71372549
0.70196078 0.70196078 0.70196078
0.73333333 0.73333333 0.73333333
0.78431373 0.78431373 0.78431373
0.83921569 0.83921569 0.83921569
0.89803922 0.89803922 0.89803922
0.93725490 0.93725490 0.93725490
0.98823529 0.98823529 0.98823529
0.90588235 0.90588235 0.90588235
0.95294118 0.95294118 0.95294118
0.97647059 0.97647059 0.97647059
0.94117647 0.94117647 0.94117647
0.89411765 0.89411765 0.89411765
0.82745098 0.82745098 0.82745098
0.78431373 0.78431373 0.78431373
0.77647059 0.77647059 0.77647059
0.80784314 0.80784314 0.80784314
0.85098039 0.85098039 0.85098039
0.90588235 0.90588235 0.90588235
0.93725490 0.93725490 0.93725490
0.99215686 0.99215686 0.99215686
0.88627451 0.88627451 0.88627451
0.90980392 0.90980392 0.90980392
0.96470588 0.96470588 0.96470588
1.00000000 1.00000000 1.00000000
1.00000000 1.00000000 1.00000000
1.00000000 1.00000000 1.00000000
0.92549020 0.92549020 0.92549020
0.85490196 0.85490196 0.85490196
0.84313725 0.84313725 0.84313725
0.86666667 0.86666667 0.86666667
0.91764706 0.91764706 0.91764706
0.93725490 0.93725490 0.93725490
0.99215686 0.99215686 0.99215686
0.90980392 0.90980392 0.90980392
0.92941176 0.92941176 0.92941176
0.97254902 0.97254902 0.97254902
1.00000000 1.00000000 1.00000000
1.00000000 1.00000000 1.00000000
1.00000000 1.00000000 1.00000000
1.00000000 1.00000000 1.00000000
1.00000000 1.00000000 1.00000000
0.92549020 0.92549020 0.92549020
0.89803922 0.89803922 0.89803922
0.92941176 0.92941176 0.92941176
0.93333333 0.93333333 0.93333333
0.99607843 0.99607843 0.99607843
0.81176471 0.81176471 0.81176471
0.83529412 0.83529412 0.83529412
0.88235294 0.88235294 0.88235294
0.95686275 0.95686275 0.95686275
1.00000000 1.00000000 1.00000000
1.00000000 1.00000000 1.00000000
1.00000000 1.00000000 1.00000000
1.00000000 1.00000000 1.00000000
1.00000000 1.00000000 1.00000000
1.00000000 1.00000000 1.00000000
0.96470588 0.96470588 0.96470588
0.94117647 0.94117647 0.94117647
0.99215686 0.99215686 0.99215686
0.00000000 0.00000000 0.00000000
0.05098039 0.05098039 0.05098039
0.11372549 0.11372549 0.11372549
0.20000000 0.20000000 0.20000000
0.28627451 0.28627451 0.28627451
0.39215686 0.39215686 0.39215686
0.51372549 0.51372549 0.51372549
0.61960784 0.61960784 0.61960784
0.72156863 0.72156863 0.72156863
0.80784314 0.80784314 0.80784314
0.86666667 0.86666667 0.86666667
0.94117647 0.94117647 0.94117647
0.98823529 0.98823529 0.98823529
0.05490196 0.05490196 0.05490196
0.11372549 0.11372549 0.11372549
0.16470588 0.16470588 0.16470588
0.22745098 0.22745098 0.22745098
0.30588235 0.30588235 0.30588235
0.40000000 0.40000000 0.40000000
0.50980392 0.50980392 0.50980392
0.61568627 0.61568627 0.61568627
0.71764706 0.71764706 0.71764706
0.80392157 0.80392157 0.80392157
0.86666667 0.86666667 0.86666667
0.93333333 0.93333333 0.93333333
0.98431373 0.98431373 0.98431373
0.13725490 0.13725490 0.13725490
0.16862745 0.16862745 0.16862745
0.20784314 0.20784314 0.20784314
0.25882353 0.25882353 0.25882353
0.32941176 0.32941176 0.32941176
0.41176471 0.41176471 0.41176471
0.51764706 0.51764706 0.51764706
0.61960784 0.61960784 0.61960784
0.71764706 0.71764706 0.71764706
0.80392157 0.80392157 0.80392157
0.86666667 0.86666667 0.86666667
0.93333333 0.93333333 0.93333333
0.98431373 0.98431373 0.98431373
0.21176471 0.21176471 0.21176471
0.23137255 0.23137255 0.23137255
0.26274510 0.26274510 0.26274510
0.30196078 0.30196078 0.30196078
0.36078431 0.36078431 0.36078431
0.43529412 0.43529412 0.43529412
0.52941176 0.52941176 0.52941176
0.62745098 0.62745098 0.62745098
0.72156863 0.72156863 0.72156863
0.80392157 0.80392157 0.80392157
0.86666667 0.86666667 0.86666667
0.93333333 0.93333333 0.93333333
0.98431373 0.98431373 0.98431373
0.29019608 0.29019608 0.29019608
0.30588235 0.30588235 0.30588235
0.32549020 0.32549020 0.32549020
0.35294118 0.35294118 0.35294118
0.40392157 0.40392157 0.40392157
0.46666667 0.46666667 0.46666667
0.54901961 0.54901961 0.54901961
0.63921569 0.63921569 0.63921569
0.72941176 0.72941176 0.72941176
0.80784314 0.80784314 0.80784314
0.87058824 0.87058824 0.87058824
0.93333333 0.93333333 0.93333333
0.98431373 0.98431373 0.98431373
0.38039216 0.38039216 0.38039216
0.39215686 0.39215686 0.39215686
0.40392157 0.40392157 0.40392157
0.41568627 0.41568627 0.41568627
0.45882353 0.45882353 0.45882353
0.50588235 0.50588235 0.50588235
0.57647059 0.57647059 0.57647059
0.65882353 0.65882353 0.65882353
0.74117647 0.74117647 0.74117647
0.81568627 0.81568627 0.81568627
0.87450980 0.87450980 0.87450980
0.93725490 0.93725490 0.93725490
0.98431373 0.98431373 0.98431373
0.48627451 0.48627451 0.48627451
0.49411765 0.49411765 0.49411765
0.50196078 0.50196078 0.50196078
0.50588235 0.50588235 0.50588235
0.52549020 0.52549020 0.52549020
0.56078431 0.56078431 0.56078431
0.60784314 0.60784314 0.60784314
0.67843137 0.67843137 0.67843137
0.75294118 0.75294118 0.75294118
0.82352941 0.82352941 0.82352941
0.88235294 0.88235294 0.88235294
0.93725490 0.93725490 0.93725490
0.98431373 0.98431373 0.98431373
0.60392157 0.60392157 0.60392157
0.60392157 0.60392157 0.60392157
0.60784314 0.60784314 0.60784314
0.60784314 0.60784314 0.60784314
0.60784314 0.60784314 0.60784314
0.62352941 0.62352941 0.62352941
0.64705882 0.64705882 0.64705882
0.70196078 0.70196078 0.70196078
0.76862745 0.76862745 0.76862745
0.83137255 0.83137255 0.83137255
0.89019608 0.89019608 0.89019608
0.93725490 0.93725490 0.93725490
0.98823529 0.98823529 0.98823529
0.76862745 0.76862745 0.76862745
0.76470588 0.76470588 0.76470588
0.75294118 0.75294118 0.75294118
0.74509804 0.74509804 0.74509804
0.71764706 0.71764706 0.71764706
0.70588235 0.70588235 0.70588235
0.70196078 0.70196078 0.70196078
0.73333333 0.73333333 0.73333333
0.78431373 0.78431373 0.78431373
0.84313725 0.84313725 0.84313725
0.89803922 0.89803922 0.89803922
0.93725490 0.93725490 0.93725490
0.98823529 0.98823529 0.98823529
0.94901961 0.94901961 0.94901961
0.97254902 0.97254902 0.97254902
0.96078431 0.96078431 0.96078431
0.92156863 0.92156863 0.92156863
0.87843137 0.87843137 0.87843137
0.81568627 0.81568627 0.81568627
0.77647059 0.77647059 0.77647059
0.77647059 0.77647059 0.77647059
0.80784314 0.80784314 0.80784314
0.85490196 0.85490196 0.85490196
0.90980392 0.90980392 0.90980392
0.94117647 0.94117647 0.94117647
0.99215686 0.99215686 0.99215686
0.90196078 0.90196078 0.90196078
0.92156863 0.92156863 0.92156863
0.98823529 0.98823529 0.98823529
1.00000000 1.00000000 1.00000000
1.00000000 1.00000000 1.00000000
0.99607843 0.99607843 0.99607843
0.91372549 0.91372549 0.91372549
0.84705882 0.84705882 0.84705882
0.84313725 0.84313725 0.84313725
0.87058824 0.87058824 0.87058824
0.91764706 0.91764706 0.91764706
0.93725490 0.93725490 0.93725490
0.99607843 0.99607843 0.99607843
0.92156863 0.92156863 0.92156863
0.94117647 0.94117647 0.94117647
0.98431373 0.98431373 0.98431373
1.00000000 1.00000000 1.00000000
1.00000000 1.00000000 1.00000000
1.00000000 1.00000000 1.00000000
1.00000000 1.00000000 1.00000000
1.00000000 1.00000000 1.00000000
0.92156863 0.92156863 0.92156863
0.89803922 0.89803922 0.89803922
0.92941176 0.92941176 0.92941176
0.93333333 0.93333333 0.93333333
0.99607843 0.99607843 0.99607843
0.82352941 0.82352941 0.82352941
0.84705882 0.84705882 0.84705882
0.89411765 0.89411765 0.89411765
0.96862745 0.96862745 0.96862745
1.00000000 1.00000000 1.00000000
1.00000000 1.00000000 1.00000000
1.00000000 1.00000000 1.00000000
1.00000000 1.00000000 1.00000000
1.00000000 1.00000000 1.00000000
1.00000000 1.00000000 1.00000000
0.96470588 0.96470588 0.96470588
0.94117647 0.94117647 0.94117647
0.99215686 0.99215686 0.99215686
0.00000000 0.00000000 0.00000000
0.03529412 0.03529412 0.03529412
0.11372549 0.11372549 0.11372549
0.20392157 0.20392157 0.20392157
0.29803922 0.29803922 0.29803922
0.40784314 0.40784314 0.40784314
0.52941176 0.52941176 0.52941176
0.63137255 0.63137255 0.63137255
0.73333333 0.73333333 0.73333333
0.81568627 0.81568627 0.81568627
0.87450980 0.87450980 0.87450980
0.94509804 0.94509804 0.94509804
0.99215686 0.99215686 0.99215686
0.04705882 0.04705882 0.04705882
0.10588235 0.10588235 0.10588235
0.15294118 0.15294118 0.15294118
0.23137255 0.23137255 0.23137255
0.31372549 0.31372549 0.31372549
0.41176471 0.41176471 0.41176471
0.52549020 0.52549020 0.52549020
0.62745098 0.62745098 0.62745098
0.72549020 0.72549020 0.72549020
0.81176471 0.81176471 0.81176471
0.87058824 0.87058824 0.87058824
0.94117647 0.94117647 0.94117647
0.98823529 0.98823529 0.98823529
0.12941176 0.12941176 0.12941176
0.16078431 0.16078431 0.16078431
0.19607843 0.19607843 0.19607843
0.25882353 0.25882353 0.25882353
0.33333333 0.33333333 0.33333333
0.41960784 0.41960784 0.41960784
0.52941176 0.52941176 0.52941176
0.63137255 0.63137255 0.63137255
0.72549020 0.72549020 0.72549020
0.80784314 0.80784314 0.80784314
0.87058824 0.87058824 0.87058824
0.94117647 0.94117647 0.94117647
0.98823529 0.98823529 0.98823529
0.20392157 0.20392157 0.20392157
0.21960784 0.21960784 0.21960784
0.25098039 0.25098039 0.25098039
0.29803922 0.29803922 0.29803922
0.36470588 0.36470588 0.36470588
0.44313725 0.44313725 0.44313725
0.54117647 0.54117647 0.54117647
0.63921569 0.63921569 0.63921569
0.72941176 0.72941176 0.72941176
0.81176471 0.81176471 0.81176471
0.87058824 0.87058824 0.87058824
0.94117647 0.94117647 0.94117647
0.98431373 0.98431373 0.98431373
0.28235294 0.28235294 0.28235294
0.29411765 0.29411765 0.29411765
0.31372549 0.31372549 0.31372549
0.34901961 0.34901961 0.34901961
0.40392157 0.40392157 0.40392157
0.47058824 0.47058824 0.47058824
0.56078431 0.56078431 0.56078431
0.65098039 0.65098039 0.65098039
0.73725490 0.73725490 0.73725490
0.81568627 0.81568627 0.81568627
0.87450980 0.87450980 0.87450980
0.94117647 0.94117647 0.94117647
0.98823529 0.98823529 0.98823529
0.36862745 0.36862745 0.36862745
0.37647059 0.37647059 0.37647059
0.38431373 0.38431373 0.38431373
0.40784314 0.40784314 0.40784314
0.45490196 0.45490196 0.45490196
0.50588235 0.50588235 0.50588235
0.58431373 0.58431373 0.58431373
0.66666667 0.66666667 0.66666667
0.74901961 0.74901961 0.74901961
0.82352941 0.82352941 0.82352941
0.87843137 0.87843137 0.87843137
0.94117647 0.94117647 0.94117647
0.98823529 0.98823529 0.98823529
0.47450980 0.47450980 0.47450980
0.47843137 0.47843137 0.47843137
0.48235294 0.48235294 0.48235294
0.49019608 0.49019608 0.49019608
0.52156863 0.52156863 0.52156863
0.55686275 0.55686275 0.55686275
0.61568627 0.61568627 0.61568627
0.68627451 0.68627451 0.68627451
0.76078431 0.76078431 0.76078431
0.82745098 0.82745098 0.82745098
0.88627451 0.88627451 0.88627451
0.94117647 0.94117647 0.94117647
0.98823529 0.98823529 0.98823529
0.58431373 0.58431373 0.58431373
0.58823529 0.58823529 0.58823529
0.58823529 0.58823529 0.58823529
0.58431373 0.58431373 0.58431373
0.59607843 0.59607843 0.59607843
0.61176471 0.61176471 0.61176471
0.65098039 0.65098039 0.65098039
0.70980392 0.70980392 0.70980392
0.77254902 0.77254902 0.77254902
0.83529412 0.83529412 0.83529412
0.89411765 0.89411765 0.89411765
0.94117647 0.94117647 0.94117647
0.99215686 0.99215686 0.99215686
0.73725490 0.73725490 0.73725490
0.73333333 0.73333333 0.73333333
0.72549020 0.72549020 0.72549020
0.71764706 0.71764706 0.71764706
0.69803922 0.69803922 0.69803922
0.69019608 0.69019608 0.69019608
0.69803922 0.69803922 0.69803922
0.73725490 0.73725490 0.73725490
0.78823529 0.78823529 0.78823529
0.84705882 0.84705882 0.84705882
0.90196078 0.90196078 0.90196078
0.94509804 0.94509804 0.94509804
0.99215686 0.99215686 0.99215686
0.95294118 0.95294118 0.95294118
0.94117647 0.94117647 0.94117647
0.92156863 0.92156863 0.92156863
0.89019608 0.89019608 0.89019608
0.84705882 0.84705882 0.84705882
0.80000000 0.80000000 0.80000000
0.76470588 0.76470588 0.76470588
0.77647059 0.77647059 0.77647059
0.81176471 0.81176471 0.81176471
0.85882353 0.85882353 0.85882353
0.90980392 0.90980392 0.90980392
0.94509804 0.94509804 0.94509804
0.99607843 0.99607843 0.99607843
0.93333333 0.93333333 0.93333333
0.96862745 0.96862745 0.96862745
1.00000000 1.00000000 1.00000000
1.00000000 1.00000000 1.00000000
1.00000000 1.00000000 1.00000000
0.97647059 0.97647059 0.97647059
0.89019608 0.89019608 0.89019608
0.83921569 0.83921569 0.83921569
0.84313725 0.84313725 0.84313725
0.87058824 0.87058824 0.87058824
0.92156863 0.92156863 0.92156863
0.94117647 0.94117647 0.94117647
0.99607843 0.99607843 0.99607843
0.94509804 0.94509804 0.94509804
0.96470588 0.96470588 0.96470588
1.00000000 1.00000000 1.00000000
1.00000000 1.00000000 1.00000000
1.00000000 1.00000000 1.00000000
1.00000000 1.00000000 1.00000000
1.00000000 1.00000000 1.00000000
0.99607843 0.99607843 0.99607843
0.90980392 0.90980392 0.90980392
0.89803922 0.89803922 0.89803922
0.92941176 0.92941176 0.92941176
0.93725490 0.93725490 0.93725490
1.00000000 1.00000000 1.00000000
0.84705882 0.84705882 0.84705882
0.87058824 0.87058824 0.87058824
0.91764706 0.91764706 0.91764706
0.98823529 0.98823529 0.98823529
1.00000000 1.00000000 1.00000000
1.00000000 1.00000000 1.00000000
1.00000000 1.00000000 1.00000000
1.00000000 1.00000000 1.00000000
1.00000000 1.00000000 1.00000000
1.00000000 1.00000000 1.00000000
0.96078431 0.96078431 0.96078431
0.94117647 0.94117647 0.94117647
0.99607843 0.99607843 0.99607843
0.00000000 0.00000000 0.00000000
0.02745098 0.02745098 0.02745098
0.12156863 0.12156863 0.12156863
0.21176471 0.21176471 0.21176471
0.30980392 0.30980392 0.30980392
0.42745098 0.42745098 0.42745098
0.54509804 0.54509804 0.54509804
0.64705882 0.64705882 0.64705882
0.74509804 0.74509804 0.74509804
0.81960784 0.81960784 0.81960784
0.87843137 0.87843137 0.87843137
0.95294118 0.95294118 0.95294118
0.99215686 0.99215686 0.99215686
0.04313725 0.04313725 0.04313725
0.09019608 0.09019608 0.09019608
0.15294118 0.15294118 0.15294118
0.23529412 0.23529412 0.23529412
0.32156863 0.32156863 0.32156863
0.42745098 0.42745098 0.42745098
0.54117647 0.54117647 0.54117647
0.63921569 0.63921569 0.63921569
0.73725490 0.73725490 0.73725490
0.81568627 0.81568627 0.81568627
0.87450980 0.87450980 0.87450980
0.94901961 0.94901961 0.94901961
0.99215686 0.99215686 0.99215686
0.11764706 0.11764706 0.11764706
0.14509804 0.14509804 0.14509804
0.19215686 0.19215686 0.19215686
0.26274510 0.26274510 0.26274510
0.33725490 0.33725490 0.33725490
0.43529412 0.43529412 0.43529412
0.54509804 0.54509804 0.54509804
0.64313725 0.64313725 0.64313725
0.73725490 0.73725490 0.73725490
0.81960784 0.81960784 0.81960784
0.87450980 0.87450980 0.87450980
0.94509804 0.94509804 0.94509804
0.99215686 0.99215686 0.99215686
0.18823529 0.18823529 0.18823529
0.20392157 0.20392157 0.20392157
0.24313725 0.24313725 0.24313725
0.29803922 0.29803922 0.29803922
0.36862745 0.36862745 0.36862745
0.45098039 0.45098039 0.45098039
0.55686275 0.55686275 0.55686275
0.65098039 0.65098039 0.65098039
0.74117647 0.74117647 0.74117647
0.81960784 0.81960784 0.81960784
0.87843137 0.87843137 0.87843137
0.94509804 0.94509804 0.94509804
0.98823529 0.98823529 0.98823529
0.26274510 0.26274510 0.26274510
0.27450980 0.27450980 0.27450980
0.30196078 0.30196078 0.30196078
0.34509804 0.34509804 0.34509804
0.40392157 0.40392157 0.40392157
0.47843137 0.47843137 0.47843137
0.57254902 0.57254902 0.57254902
0.66274510 0.66274510 0.66274510
0.74901961 0.74901961 0.74901961
0.82352941 0.82352941 0.82352941
0.87843137 0.87843137 0.87843137
0.94509804 0.94509804 0.94509804
0.99215686 0.99215686 0.99215686
0.34901961 0.34901961 0.34901961
0.35294118 0.35294118 0.35294118
0.36862745 0.36862745 0.36862745
0.40392157 0.40392157 0.40392157
0.45098039 0.45098039 0.45098039
0.51372549 0.51372549 0.51372549
0.59607843 0.59607843 0.59607843
0.67843137 0.67843137 0.67843137
0.75686275 0.75686275 0.75686275
0.83137255 0.83137255 0.83137255
0.88627451 0.88627451 0.88627451
0.94901961 0.94901961 0.94901961
0.99215686 0.99215686 0.99215686
0.44705882 0.44705882 0.44705882
0.45098039 0.45098039 0.45098039
0.45882353 0.45882353 0.45882353
0.47843137 0.47843137 0.47843137
0.51372549 0.51372549 0.51372549
0.55686275 0.55686275 0.55686275
0.62352941 0.62352941 0.62352941
0.69411765 0.69411765 0.69411765
0.76862745 0.76862745 0.76862745
0.83529412 0.83529412 0.83529412
0.89019608 0.89019608 0.89019608
0.94901961 0.94901961 0.94901961
0.99215686 0.99215686 0.99215686
0.55686275 0.55686275 0.55686275
0.55686275 0.55686275 0.55686275
0.55686275 0.55686275 0.55686275
0.56470588 0.56470588 0.56470588
0.58431373 0.58431373 0.58431373
0.60784314 0.60784314 0.60784314
0.65490196 0.65490196 0.65490196
0.71764706 0.71764706 0.71764706
0.78039216 0.78039216 0.78039216
0.84313725 0.84313725 0.84313725
0.89803922 0.89803922 0.89803922
0.94901961 0.94901961 0.94901961
0.99215686 0.99215686 0.99215686
0.69803922 0.69803922 0.69803922
0.69803922 0.69803922 0.69803922
0.69411765 0.69411765 0.69411765
0.68235294 0.68235294 0.68235294
0.67843137 0.67843137 0.67843137
0.67450980 0.67450980 0.67450980
0.69803922 0.69803922 0.69803922
0.74509804 0.74509804 0.74509804
0.79607843 0.79607843 0.79607843
0.85490196 0.85490196 0.85490196
0.90588235 0.90588235 0.90588235
0.94901961 0.94901961 0.94901961
0.99607843 0.99607843 0.99607843
0.89803922 0.89803922 0.89803922
0.89019608 0.89019608 0.89019608
0.87058824 0.87058824 0.87058824
0.84705882 0.84705882 0.84705882
0.80392157 0.80392157 0.80392157
0.77254902 0.77254902 0.77254902
0.75294118 0.75294118 0.75294118
0.77647059 0.77647059 0.77647059
0.81568627 0.81568627 0.81568627
0.86666667 0.86666667 0.86666667
0.91372549 0.91372549 0.91372549
0.94901961 0.94901961 0.94901961
1.00000000 1.00000000 1.00000000
1.00000000 1.00000000 1.00000000
1.00000000 1.00000000 1.00000000
1.00000000 1.00000000 1.00000000
1.00000000 1.00000000 1.00000000
1.00000000 1.00000000 1.00000000
0.93333333 0.93333333 0.93333333
0.85882353 0.85882353 0.85882353
0.83137255 0.83137255 0.83137255
0.84313725 0.84313725 0.84313725
0.87843137 0.87843137 0.87843137
0.92156863 0.92156863 0.92156863
0.94901961 0.94901961 0.94901961
1.00000000 1.00000000 1.00000000
0.98039216 0.98039216 0.98039216
0.99607843 0.99607843 0.99607843
1.00000000 1.00000000 1.00000000
1.00000000 1.00000000 1.00000000
1.00000000 1.00000000 1.00000000
1.00000000 1.00000000 1.00000000
1.00000000 1.00000000 1.00000000
0.97647059 0.97647059 0.97647059
0.90196078 0.90196078 0.90196078
0.89803922 0.89803922 0.89803922
0.93333333 0.93333333 0.93333333
0.94117647 0.94117647 0.94117647
1.00000000 1.00000000 1.00000000
0.88235294 0.88235294 0.88235294
0.90588235 0.90588235 0.90588235
0.94901961 0.94901961 0.94901961
1.00000000 1.00000000 1.00000000
1.00000000 1.00000000 1.00000000
1.00000000 1.00000000 1.00000000
1.00000000 1.00000000 1.00000000
1.00000000 1.00000000 1.00000000
1.00000000 1.00000000 1.00000000
1.00000000 1.00000000 1.00000000
0.95686275 0.95686275 0.95686275
0.94117647 0.94117647 0.94117647
1.00000000 1.00000000 1.00000000
0.00000000 0.00000000 0.00000000
0.02745098 0.02745098 0.02745098
0.13333333 0.13333333 0.13333333
0.22352941 0.22352941 0.22352941
0.32941176 0.32941176 0.32941176
0.44705882 0.44705882 0.44705882
0.56078431 0.56078431 0.56078431
0.66274510 0.66274510 0.66274510
0.75686275 0.75686275 0.75686275
0.82745098 0.82745098 0.82745098
0.88627451 0.88627451 0.88627451
0.95686275 0.95686275 0.95686275
0.99607843 0.99607843 0.99607843
0.02745098 0.02745098 0.02745098
0.07843137 0.07843137 0.07843137
0.16078431 0.16078431 0.16078431
0.23921569 0.23921569 0.23921569
0.33333333 0.33333333 0.33333333
0.44313725 0.44313725 0.44313725
0.55686275 0.55686275 0.55686275
0.65490196 0.65490196 0.65490196
0.74901961 0.74901961 0.74901961
0.82352941 0.82352941 0.82352941
0.88235294 0.88235294 0.88235294
0.95294118 0.95294118 0.95294118
0.99607843 0.99607843 0.99607843
0.09803922 0.09803922 0.09803922
0.13333333 0.13333333 0.13333333
0.19607843 0.19607843 0.19607843
0.26666667 0.26666667 0.26666667
0.34901961 0.34901961 0.34901961
0.45490196 0.45490196 0.45490196
0.56078431 0.56078431 0.56078431
0.65882353 0.65882353 0.65882353
0.75294118 0.75294118 0.75294118
0.82745098 0.82745098 0.82745098
0.88235294 0.88235294 0.88235294
0.95294118 0.95294118 0.95294118
0.99215686 0.99215686 0.99215686
0.17254902 0.17254902 0.17254902
0.19607843 0.19607843 0.19607843
0.24313725 0.24313725 0.24313725
0.30196078 0.30196078 0.30196078
0.37647059 0.37647059 0.37647059
