core/profiles/src/main/assets/luts/kodak_ektar_100.cube
# Source: RawTherapee Film Simulation Collection (HaldCLUT.zip)
# Converted from: HaldCLUT/Color/Kodak/Kodak Ektar 100.png
TITLE "kodak_ektar_100"
LUT_3D_SIZE 7
DOMAIN_MIN 0.0 0.0 0.0
DOMAIN_MAX 1.0 1.0 1.0
0.00000000 0.00000000 0.00000000
0.18039216 0.00000000 0.00000000
0.33725490 0.01176471 0.00000000
0.54117647 0.03137255 0.00000000
0.74509804 0.05882353 0.00000000
0.91372549 0.08235294 0.00000000
1.00000000 0.10588235 0.00000000
0.05098039 0.13725490 0.03921569
0.14509804 0.14117647 0.03529412
0.30196078 0.15294118 0.03137255
0.51764706 0.16470588 0.02352941
0.72156863 0.16862745 0.01176471
0.90196078 0.15686275 0.00392157
1.00000000 0.11372549 0.00000000
0.09019608 0.26666667 0.10588235
0.12941176 0.27058824 0.10588235
0.27843137 0.28235294 0.10196078
0.50588235 0.29411765 0.09019608
0.68627451 0.30196078 0.07450980
0.86666667 0.29411765 0.05882353
1.00000000 0.26274510 0.03921569
0.00000000 0.44705882 0.15294118
0.03137255 0.45098039 0.14901961
0.21568627 0.45882353 0.14509804
0.45882353 0.47450980 0.13333333
0.62352941 0.48235294 0.12549020
0.80000000 0.47843137 0.10980392
0.96470588 0.44705882 0.09411765
0.00000000 0.58823529 0.18823529
0.03529412 0.59215686 0.18431373
0.24705882 0.60000000 0.17647059
0.42745098 0.61176471 0.16862745
0.58823529 0.61960784 0.15294118
0.74901961 0.62745098 0.14117647
0.89803922 0.62352941 0.12549020
0.00784314 0.72156863 0.23529412
0.10196078 0.72549020 0.23137255
0.24705882 0.72941176 0.22745098
0.41176471 0.73725490 0.21960784
0.56470588 0.74901961 0.20784314
0.70196078 0.75686275 0.19215686
0.85882353 0.76470588 0.16078431
0.07058824 0.87058824 0.29019608
0.12156863 0.87058824 0.29019608
0.25490196 0.87843137 0.28627451
0.40000000 0.88627451 0.28235294
0.52549020 0.89411765 0.27450980
0.64705882 0.90196078 0.25882353
0.85490196 0.91372549 0.21568627
0.00000000 0.00000000 0.11764706
0.20000000 0.00392157 0.10980392
0.36078431 0.01176471 0.10588235
0.56862745 0.03137255 0.09411765
0.76862745 0.05882353 0.07843137
0.94117647 0.08235294 0.06274510
1.00000000 0.10588235 0.03921569
0.06274510 0.14509804 0.15686275
0.15294118 0.15294118 0.15294118
0.31372549 0.16078431 0.14901961
0.53333333 0.17647059 0.13725490
0.73333333 0.17647059 0.12156863
0.91764706 0.16470588 0.10588235
1.00000000 0.12156863 0.08627451
0.09803922 0.27450980 0.18823529
0.13725490 0.27843137 0.18823529
0.28627451 0.28627451 0.18039216
0.51372549 0.30196078 0.16862745
0.69803922 0.30588235 0.15686275
0.87450980 0.30196078 0.14509804
1.00000000 0.27058824 0.12549020
0.00000000 0.45098039 0.21960784
0.03921569 0.45490196 0.21960784
0.22745098 0.46666667 0.21176471
0.46666667 0.47843137 0.20000000
0.63529412 0.48627451 0.18823529
0.80784314 0.48627451 0.17647059
0.97254902 0.45490196 0.16078431
0.00000000 0.59215686 0.25490196
0.04313725 0.59607843 0.25490196
0.25882353 0.60392157 0.24705882
0.43529412 0.61568627 0.23921569
0.60000000 0.62352941 0.23137255
0.75686275 0.63137255 0.21568627
0.90588235 0.62745098 0.19215686
0.03529412 0.72156863 0.30588235
0.12941176 0.72549020 0.30588235
0.26666667 0.72941176 0.30196078
0.42352941 0.74117647 0.29803922
0.57647059 0.74901961 0.29019608
0.71372549 0.76078431 0.27450980
0.87058824 0.76470588 0.25098039
0.10196078 0.87450980 0.37254902
0.14509804 0.87450980 0.36862745
0.27843137 0.87843137 0.36862745
0.41568627 0.88627451 0.36470588
0.53725490 0.89411765 0.35686275
0.65882353 0.90588235 0.34901961
0.86666667 0.91764706 0.31372549
0.00000000 0.00392157 0.23529412
0.21176471 0.00784314 0.22745098
0.37254902 0.01960784 0.22352941
0.58823529 0.03137255 0.21176471
0.78823529 0.05882353 0.20000000
0.95686275 0.08235294 0.18431373
1.00000000 0.10588235 0.16470588
0.07058824 0.15686275 0.26666667
0.16078431 0.16470588 0.26274510
0.32156863 0.17254902 0.25882353
0.54509804 0.18823529 0.25098039
0.74901961 0.18823529 0.23921569
0.93333333 0.17647059 0.22745098
1.00000000 0.13333333 0.20784314
0.10196078 0.28235294 0.30196078
0.13725490 0.29019608 0.30196078
0.29803922 0.29803922 0.29803922
0.52941176 0.31372549 0.28627451
0.70980392 0.31764706 0.27843137
0.89019608 0.31372549 0.26666667
1.00000000 0.28235294 0.25098039
0.00000000 0.45882353 0.34509804
0.05490196 0.46274510 0.34509804
0.24705882 0.47450980 0.34117647
0.47843137 0.49019608 0.33333333
0.64705882 0.49411765 0.32549020
0.82352941 0.49803922 0.31372549
0.98823529 0.47058824 0.29803922
0.01568627 0.59607843 0.40000000
0.06274510 0.60000000 0.40000000
0.28627451 0.61176471 0.39607843
0.45490196 0.61960784 0.39215686
0.61960784 0.63137255 0.38823529
0.77647059 0.63529412 0.37647059
0.92941176 0.63137255 0.36078431
0.12156863 0.72549020 0.45490196
0.17647059 0.72941176 0.45490196
0.30588235 0.73333333 0.45490196
0.45098039 0.74117647 0.45098039
0.60000000 0.75294118 0.44313725
0.73725490 0.76078431 0.43529412
0.89803922 0.76862745 0.41960784
0.13725490 0.87843137 0.49019608
0.18823529 0.88235294 0.49019608
0.30588235 0.88627451 0.48627451
0.43529412 0.89411765 0.48235294
0.55294118 0.90196078 0.47843137
0.67450980 0.90980392 0.47058824
0.89019608 0.92549020 0.45098039
0.00392157 0.00784314 0.35686275
0.21960784 0.01960784 0.35294118
0.38039216 0.03137255 0.35294118
0.60392157 0.03921569 0.34117647
0.80784314 0.05882353 0.33333333
0.98039216 0.08235294 0.32156863
1.00000000 0.10588235 0.30588235
0.08235294 0.16862745 0.41176471
0.17254902 0.17647059 0.41176471
0.33333333 0.18431373 0.40784314
0.56078431 0.20000000 0.40392157
0.76470588 0.20392157 0.39607843
0.94901961 0.19215686 0.38431373
1.00000000 0.14509804 0.37254902
0.09411765 0.29803922 0.46666667
0.14117647 0.30196078 0.46666667
0.30980392 0.30980392 0.46274510
0.54509804 0.32549020 0.45490196
0.72941176 0.32941176 0.45098039
0.90980392 0.32549020 0.44313725
1.00000000 0.29411765 0.43137255
0.01960784 0.46666667 0.50980392
0.07450980 0.47058824 0.50980392
0.26666667 0.48235294 0.50588235
0.49803922 0.49803922 0.49803922
0.66666667 0.50588235 0.49411765
0.83921569 0.50980392 0.48627451
1.00000000 0.48627451 0.47450980
0.03137255 0.60392157 0.54509804
0.06666667 0.60784314 0.54117647
0.30588235 0.61568627 0.53725490
0.47450980 0.62745098 0.53333333
0.63529412 0.63921569 0.52941176
0.79215686 0.64313725 0.52156863
0.94901961 0.63921569 0.50980392
0.15294118 0.72941176 0.57254902
0.20784314 0.73333333 0.57254902
0.32549020 0.73725490 0.57254902
0.47058824 0.74901961 0.56862745
0.61960784 0.75686275 0.56470588
0.75294118 0.76862745 0.55686275
0.91764706 0.77647059 0.54509804
0.16078431 0.88627451 0.60000000
0.21568627 0.89019608 0.60000000
0.32549020 0.89411765 0.60000000
0.45098039 0.90196078 0.59607843
0.56862745 0.90980392 0.59215686
0.69019608 0.92156863 0.58823529
0.91372549 0.93725490 0.57254902
0.00784314 0.01960784 0.52156863
0.22352941 0.03529412 0.51764706
0.39215686 0.04313725 0.51372549
0.61568627 0.06274510 0.50588235
0.83137255 0.06274510 0.49803922
1.00000000 0.08235294 0.49019608
1.00000000 0.10588235 0.47843137
0.08627451 0.18039216 0.56078431
0.17647059 0.18823529 0.56078431
0.33725490 0.20392157 0.55686275
0.56862745 0.21568627 0.54901961
0.77647059 0.22352941 0.54117647
0.96470588 0.21176471 0.53333333
1.00000000 0.16862745 0.52156863
0.06666667 0.31372549 0.59607843
0.12549020 0.31764706 0.59215686
0.30588235 0.32941176 0.58823529
0.54901961 0.34509804 0.58039216
0.73725490 0.34901961 0.57647059
0.92156863 0.34117647 0.56862745
1.00000000 0.31372549 0.56078431
0.00784314 0.47843137 0.62745098
0.05882353 0.48235294 0.62745098
0.26274510 0.49411765 0.62352941
0.50588235 0.50980392 0.61568627
0.67450980 0.51764706 0.61176471
0.85098039 0.52549020 0.60392157
1.00000000 0.50588235 0.59607843
0.01176471 0.61176471 0.65882353
0.05882353 0.61568627 0.65882353
0.31372549 0.62745098 0.65490196
0.48235294 0.63529412 0.65098039
0.64705882 0.64705882 0.64705882
0.80784314 0.65490196 0.64313725
0.96470588 0.65098039 0.63529412
0.17254902 0.73333333 0.69019608
0.22745098 0.73725490 0.69019608
0.34509804 0.74509804 0.69019608
0.48627451 0.75294118 0.68627451
0.63529412 0.76470588 0.68235294
0.76862745 0.77254902 0.67843137
0.94117647 0.78039216 0.67058824
0.18431373 0.89803922 0.71764706
0.23529412 0.89803922 0.71764706
0.34117647 0.90588235 0.71764706
0.46274510 0.91372549 0.71372549
0.58039216 0.92156863 0.70980392
0.70196078 0.93333333 0.70588235
0.93725490 0.94901961 0.69411765
0.01176471 0.04313725 0.63921569
0.21568627 0.05882353 0.63529412
0.38823529 0.07058824 0.63137255
0.61568627 0.08627451 0.62352941
0.83529412 0.09019608 0.61960784
1.00000000 0.08235294 0.61176471
1.00000000 0.10588235 0.60392157
0.07450980 0.20000000 0.67843137
0.16078431 0.20784314 0.67843137
0.32941176 0.21960784 0.67450980
0.56862745 0.23921569 0.66666667
0.78039216 0.24705882 0.65882353
0.96862745 0.23529412 0.65490196
1.00000000 0.19215686 0.64705882
0.04705882 0.33725490 0.71372549
0.07843137 0.34117647 0.71372549
0.28627451 0.35294118 0.70980392
0.54509804 0.36862745 0.70196078
0.73725490 0.37254902 0.69411765
0.92549020 0.36470588 0.69019608
1.00000000 0.33725490 0.68235294
0.00000000 0.49019608 0.74509804
0.01568627 0.49411765 0.74509804
0.24705882 0.50588235 0.74117647
0.50588235 0.52156863 0.73333333
0.67843137 0.53333333 0.72941176
0.85882353 0.54117647 0.72156863
1.00000000 0.52549020 0.71764706
0.00000000 0.61960784 0.77254902
0.01176471 0.62352941 0.76862745
0.30588235 0.63529412 0.76470588
0.48627451 0.64705882 0.76078431
0.65098039 0.65882353 0.75686275
0.81568627 0.66666667 0.75294118
0.97647059 0.66274510 0.74509804
0.16470588 0.74117647 0.79215686
0.22745098 0.74117647 0.79215686
0.34901961 0.74901961 0.79215686
0.49019608 0.75686275 0.78823529
0.64313725 0.77254902 0.78431373
0.78039216 0.78039216 0.78039216
0.95686275 0.78823529 0.77254902
0.17647059 0.90980392 0.81568627
0.22745098 0.90980392 0.81176471
0.33725490 0.91764706 0.81176471
0.46274510 0.92549020 0.81176471
0.58431373 0.93333333 0.80784314
0.70588235 0.94509804 0.80392157
0.95686275 0.96470588 0.79215686
0.01568627 0.07843137 0.76078431
0.18823529 0.09019608 0.75686275
0.37254902 0.10196078 0.75294118
0.60784314 0.11764706 0.74509804
0.83529412 0.12549020 0.73725490
1.00000000 0.11372549 0.72941176
1.00000000 0.10196078 0.72549020
0.03921569 0.22745098 0.79607843
0.12156863 0.23529412 0.79215686
0.30588235 0.24705882 0.78823529
0.55294118 0.26666667 0.78039216
0.77254902 0.27450980 0.77254902
0.96862745 0.27058824 0.76470588
1.00000000 0.22745098 0.76078431
0.00000000 0.36862745 0.81960784
0.01176471 0.37647059 0.81960784
0.23529412 0.38431373 0.81568627
0.51764706 0.40392157 0.80784314
0.72549020 0.40784314 0.80000000
0.91764706 0.40000000 0.79215686
1.00000000 0.36862745 0.78823529
0.00000000 0.50196078 0.84313725
0.00000000 0.50980392 0.84313725
0.18823529 0.52156863 0.83921569
0.49019608 0.54117647 0.83137255
0.67058824 0.55294118 0.82745098
0.85490196 0.56078431 0.81960784
1.00000000 0.55294118 0.81568627
0.00000000 0.63137255 0.87058824
0.00000000 0.63529412 0.87058824
0.25882353 0.64705882 0.86274510
0.46666667 0.66274510 0.86274510
0.64313725 0.67450980 0.85882353
0.81176471 0.68235294 0.85490196
0.98039216 0.68235294 0.85098039
0.11372549 0.74509804 0.90588235
0.18431373 0.74901961 0.90588235
0.32549020 0.75686275 0.90588235
0.48235294 0.76470588 0.90196078
0.64313725 0.78039216 0.90196078
0.78823529 0.79215686 0.90196078
0.97254902 0.80000000 0.90196078
0.12156863 0.92156863 0.96862745
0.17647059 0.92549020 0.96862745
0.30980392 0.92941176 0.96862745
0.45490196 0.94117647 0.97254902
0.58431373 0.95294118 0.97647059
0.71372549 0.96470588 0.98431373
1.00000000 0.99215686 0.99215686
