core/profiles/src/main/assets/luts/kodak_tri-x_400.cube
# Source: RawTherapee Film Simulation Collection (HaldCLUT.zip)
# Converted from: HaldCLUT/Black-and-White/Kodak/Kodak TRI-X 400 2.png
TITLE "kodak_tri-x_400"
LUT_3D_SIZE 7
DOMAIN_MIN 0.0 0.0 0.0
DOMAIN_MAX 1.0 1.0 1.0
0.04313725 0.04313725 0.04313725
0.05882353 0.05882353 0.05882353
0.09411765 0.09411765 0.09411765
0.16078431 0.16078431 0.16078431
0.24313725 0.24313725 0.24313725
0.35294118 0.35294118 0.35294118
0.51372549 0.51372549 0.51372549
0.09803922 0.09803922 0.09803922
0.12941176 0.12941176 0.12941176
0.18039216 0.18039216 0.18039216
0.23529412 0.23529412 0.23529412
0.30588235 0.30588235 0.30588235
0.40392157 0.40392157 0.40392157
0.55686275 0.55686275 0.55686275
0.21960784 0.21960784 0.21960784
0.20784314 0.20784314 0.20784314
0.29019608 0.29019608 0.29019608
0.38823529 0.38823529 0.38823529
0.45098039 0.45098039 0.45098039
0.53725490 0.53725490 0.53725490
0.66666667 0.66666667 0.66666667
0.37647059 0.37647059 0.37647059
0.36470588 0.36470588 0.36470588
0.39215686 0.39215686 0.39215686
0.49411765 0.49411765 0.49411765
0.61960784 0.61960784 0.61960784
0.69803922 0.69803922 0.69803922
0.79215686 0.79215686 0.79215686
0.54509804 0.54509804 0.54509804
0.54509804 0.54509804 0.54509804
0.52156863 0.52156863 0.52156863
0.60392157 0.60392157 0.60392157
0.70196078 0.70196078 0.70196078
0.80392157 0.80392157 0.80392157
0.87450980 0.87450980 0.87450980
0.74901961 0.74901961 0.74901961
0.74509804 0.74509804 0.74509804
0.72941176 0.72941176 0.72941176
0.74901961 0.74901961 0.74901961
0.81176471 0.81176471 0.81176471
0.87450980 0.87450980 0.87450980
0.94901961 0.94901961 0.94901961
0.93333333 0.93333333 0.93333333
0.92941176 0.92941176 0.92941176
0.92941176 0.92941176 0.92941176
0.92156863 0.92156863 0.92156863
0.94901961 0.94901961 0.94901961
0.96862745 0.96862745 0.96862745
0.98823529 0.98823529 0.98823529
0.07058824 0.07058824 0.07058824
0.10588235 0.10588235 0.10588235
0.16470588 0.16470588 0.16470588
0.18823529 0.18823529 0.18823529
0.26666667 0.26666667 0.26666667
0.36470588 0.36470588 0.36470588
0.50980392 0.50980392 0.50980392
0.13725490 0.13725490 0.13725490
0.14901961 0.14901961 0.14901961
0.18823529 0.18823529 0.18823529
0.24313725 0.24313725 0.24313725
0.31764706 0.31764706 0.31764706
0.41176471 0.41176471 0.41176471
0.55686275 0.55686275 0.55686275
0.27843137 0.27843137 0.27843137
0.25882353 0.25882353 0.25882353
0.30588235 0.30588235 0.30588235
0.39607843 0.39607843 0.39607843
0.45098039 0.45098039 0.45098039
0.53725490 0.53725490 0.53725490
0.66666667 0.66666667 0.66666667
0.42352941 0.42352941 0.42352941
0.40784314 0.40784314 0.40784314
0.40784314 0.40784314 0.40784314
0.50980392 0.50980392 0.50980392
0.61960784 0.61960784 0.61960784
0.70196078 0.70196078 0.70196078
0.78823529 0.78823529 0.78823529
0.58039216 0.58039216 0.58039216
0.57647059 0.57647059 0.57647059
0.54901961 0.54901961 0.54901961
0.61568627 0.61568627 0.61568627
0.70588235 0.70588235 0.70588235
0.80392157 0.80392157 0.80392157
0.87450980 0.87450980 0.87450980
0.76862745 0.76862745 0.76862745
0.76470588 0.76470588 0.76470588
0.74901961 0.74901961 0.74901961
0.75686275 0.75686275 0.75686275
0.81568627 0.81568627 0.81568627
0.87843137 0.87843137 0.87843137
0.94509804 0.94509804 0.94509804
0.93725490 0.93725490 0.93725490
0.93333333 0.93333333 0.93333333
0.93333333 0.93333333 0.93333333
0.92549020 0.92549020 0.92549020
0.94509804 0.94509804 0.94509804
0.97254902 0.97254902 0.97254902
0.98823529 0.98823529 0.98823529
0.13725490 0.13725490 0.13725490
0.16862745 0.16862745 0.16862745
0.23529412 0.23529412 0.23529412
0.35294118 0.35294118 0.35294118
0.39215686 0.39215686 0.39215686
0.43137255 0.43137255 0.43137255
0.50588235 0.50588235 0.50588235
0.18431373 0.18431373 0.18431373
0.21568627 0.21568627 0.21568627
0.27058824 0.27058824 0.27058824
0.37647059 0.37647059 0.37647059
0.39607843 0.39607843 0.39607843
0.43137255 0.43137255 0.43137255
0.55294118 0.55294118 0.55294118
0.30980392 0.30980392 0.30980392
0.32156863 0.32156863 0.32156863
0.34509804 0.34509804 0.34509804
0.39215686 0.39215686 0.39215686
0.45490196 0.45490196 0.45490196
0.53725490 0.53725490 0.53725490
0.66274510 0.66274510 0.66274510
0.51372549 0.51372549 0.51372549
0.50980392 0.50980392 0.50980392
0.47843137 0.47843137 0.47843137
0.53725490 0.53725490 0.53725490
0.62745098 0.62745098 0.62745098
0.70196078 0.70196078 0.70196078
0.78823529 0.78823529 0.78823529
0.65490196 0.65490196 0.65490196
0.65490196 0.65490196 0.65490196
0.63137255 0.63137255 0.63137255
0.63921569 0.63921569 0.63921569
0.72156863 0.72156863 0.72156863
0.80784314 0.80784314 0.80784314
0.87843137 0.87843137 0.87843137
0.80392157 0.80392157 0.80392157
0.80392157 0.80392157 0.80392157
0.78823529 0.78823529 0.78823529
0.76470588 0.76470588 0.76470588
0.82352941 0.82352941 0.82352941
0.88235294 0.88235294 0.88235294
0.94901961 0.94901961 0.94901961
0.94901961 0.94901961 0.94901961
0.94509804 0.94509804 0.94509804
0.94509804 0.94509804 0.94509804
0.93333333 0.93333333 0.93333333
0.94901961 0.94901961 0.94901961
0.97254902 0.97254902 0.97254902
0.98823529 0.98823529 0.98823529
0.24313725 0.24313725 0.24313725
0.27058824 0.27058824 0.27058824
0.33333333 0.33333333 0.33333333
0.41568627 0.41568627 0.41568627
0.51372549 0.51372549 0.51372549
0.65490196 0.65490196 0.65490196
0.70980392 0.70980392 0.70980392
0.29019608 0.29019608 0.29019608
0.30980392 0.30980392 0.30980392
0.36470588 0.36470588 0.36470588
0.43921569 0.43921569 0.43921569
0.54117647 0.54117647 0.54117647
0.65490196 0.65490196 0.65490196
0.70980392 0.70980392 0.70980392
0.32941176 0.32941176 0.32941176
0.36078431 0.36078431 0.36078431
0.43137255 0.43137255 0.43137255
0.49803922 0.49803922 0.49803922
0.60392157 0.60392157 0.60392157
0.64705882 0.64705882 0.64705882
0.69803922 0.69803922 0.69803922
0.52941176 0.52941176 0.52941176
0.53333333 0.53333333 0.53333333
0.55294118 0.55294118 0.55294118
0.58039216 0.58039216 0.58039216
0.62352941 0.62352941 0.62352941
0.68627451 0.68627451 0.68627451
0.76862745 0.76862745 0.76862745
0.72941176 0.72941176 0.72941176
0.73333333 0.73333333 0.73333333
0.72549020 0.72549020 0.72549020
0.69803922 0.69803922 0.69803922
0.74117647 0.74117647 0.74117647
0.81176471 0.81176471 0.81176471
0.87843137 0.87843137 0.87843137
0.85490196 0.85490196 0.85490196
0.85490196 0.85490196 0.85490196
0.84705882 0.84705882 0.84705882
0.82352941 0.82352941 0.82352941
0.83529412 0.83529412 0.83529412
0.89019608 0.89019608 0.89019608
0.95294118 0.95294118 0.95294118
0.96078431 0.96078431 0.96078431
0.96078431 0.96078431 0.96078431
0.95686275 0.95686275 0.95686275
0.95294118 0.95294118 0.95294118
0.94509804 0.94509804 0.94509804
0.97254902 0.97254902 0.97254902
0.98823529 0.98823529 0.98823529
0.38039216 0.38039216 0.38039216
0.40000000 0.40000000 0.40000000
0.45098039 0.45098039 0.45098039
0.53725490 0.53725490 0.53725490
0.60784314 0.60784314 0.60784314
0.69019608 0.69019608 0.69019608
0.84705882 0.84705882 0.84705882
0.42352941 0.42352941 0.42352941
0.43921569 0.43921569 0.43921569
0.48627451 0.48627451 0.48627451
0.56078431 0.56078431 0.56078431
0.62745098 0.62745098 0.62745098
0.70980392 0.70980392 0.70980392
0.85882353 0.85882353 0.85882353
0.47843137 0.47843137 0.47843137
0.49803922 0.49803922 0.49803922
0.54117647 0.54117647 0.54117647
0.60784314 0.60784314 0.60784314
0.66666667 0.66666667 0.66666667
0.74901961 0.74901961 0.74901961
0.85882353 0.85882353 0.85882353
0.55294118 0.55294118 0.55294118
0.56078431 0.56078431 0.56078431
0.57647059 0.57647059 0.57647059
0.66274510 0.66274510 0.66274510
0.71764706 0.71764706 0.71764706
0.80000000 0.80000000 0.80000000
0.84705882 0.84705882 0.84705882
0.72549020 0.72549020 0.72549020
0.73333333 0.73333333 0.73333333
0.73725490 0.73725490 0.73725490
0.75294118 0.75294118 0.75294118
0.77254902 0.77254902 0.77254902
0.80784314 0.80784314 0.80784314
0.85882353 0.85882353 0.85882353
0.89803922 0.89803922 0.89803922
0.89411765 0.89411765 0.89411765
0.89411765 0.89411765 0.89411765
0.88627451 0.88627451 0.88627451
0.87058824 0.87058824 0.87058824
0.90588235 0.90588235 0.90588235
0.95686275 0.95686275 0.95686275
0.97647059 0.97647059 0.97647059
0.97647059 0.97647059 0.97647059
0.97647059 0.97647059 0.97647059
0.97254902 0.97254902 0.97254902
0.96862745 0.96862745 0.96862745
0.97254902 0.97254902 0.97254902
0.99215686 0.99215686 0.99215686
0.58823529 0.58823529 0.58823529
0.60784314 0.60784314 0.60784314
0.64313725 0.64313725 0.64313725
0.70196078 0.70196078 0.70196078
0.75686275 0.75686275 0.75686275
0.80000000 0.80000000 0.80000000
0.85098039 0.85098039 0.85098039
0.61568627 0.61568627 0.61568627
0.62745098 0.62745098 0.62745098
0.66274510 0.66274510 0.66274510
0.71372549 0.71372549 0.71372549
0.76862745 0.76862745 0.76862745
0.81176471 0.81176471 0.81176471
0.85882353 0.85882353 0.85882353
0.65490196 0.65490196 0.65490196
0.66666667 0.66666667 0.66666667
0.69803922 0.69803922 0.69803922
0.74117647 0.74117647 0.74117647
0.79215686 0.79215686 0.79215686
0.82745098 0.82745098 0.82745098
0.87843137 0.87843137 0.87843137
0.66274510 0.66274510 0.66274510
0.68235294 0.68235294 0.68235294
0.72941176 0.72941176 0.72941176
0.76862745 0.76862745 0.76862745
0.81176471 0.81176471 0.81176471
0.85098039 0.85098039 0.85098039
0.90588235 0.90588235 0.90588235
0.76078431 0.76078431 0.76078431
0.76862745 0.76862745 0.76862745
0.77254902 0.77254902 0.77254902
0.77254902 0.77254902 0.77254902
0.84313725 0.84313725 0.84313725
0.87843137 0.87843137 0.87843137
0.93725490 0.93725490 0.93725490
0.89019608 0.89019608 0.89019608
0.89019608 0.89019608 0.89019608
0.89803922 0.89803922 0.89803922
0.90196078 0.90196078 0.90196078
0.90980392 0.90980392 0.90980392
0.92549020 0.92549020 0.92549020
0.94901961 0.94901961 0.94901961
0.98431373 0.98431373 0.98431373
0.98823529 0.98823529 0.98823529
0.98823529 0.98823529 0.98823529
0.98823529 0.98823529 0.98823529
0.98431373 0.98431373 0.98431373
0.98039216 0.98039216 0.98039216
0.98823529 0.98823529 0.98823529
0.83529412 0.83529412 0.83529412
0.83529412 0.83529412 0.83529412
0.85490196 0.85490196 0.85490196
0.87843137 0.87843137 0.87843137
0.90196078 0.90196078 0.90196078
0.92941176 0.92941176 0.92941176
0.94901961 0.94901961 0.94901961
0.84313725 0.84313725 0.84313725
0.84705882 0.84705882 0.84705882
0.86274510 0.86274510 0.86274510
0.88235294 0.88235294 0.88235294
0.90588235 0.90588235 0.90588235
0.93333333 0.93333333 0.93333333
0.94901961 0.94901961 0.94901961
0.85490196 0.85490196 0.85490196
0.85882353 0.85882353 0.85882353
0.87058824 0.87058824 0.87058824
0.89019608 0.89019608 0.89019608
0.91372549 0.91372549 0.91372549
0.94117647 0.94117647 0.94117647
0.95686275 0.95686275 0.95686275
0.86274510 0.86274510 0.86274510
0.86666667 0.86666667 0.86666667
0.87843137 0.87843137 0.87843137
0.90196078 0.90196078 0.90196078
0.92156863 0.92156863 0.92156863
0.94901961 0.94901961 0.94901961
0.96470588 0.96470588 0.96470588
0.82745098 0.82745098 0.82745098
0.83921569 0.83921569 0.83921569
0.86666667 0.86666667 0.86666667
0.90196078 0.90196078 0.90196078
0.92941176 0.92941176 0.92941176
0.95686275 0.95686275 0.95686275
0.97647059 0.97647059 0.97647059
0.94509804 0.94509804 0.94509804
0.94509804 0.94509804 0.94509804
0.94509804 0.94509804 0.94509804
0.94117647 0.94117647 0.94117647
0.94117647 0.94117647 0.94117647
0.96862745 0.96862745 0.96862745
0.98431373 0.98431373 0.98431373
0.98823529 0.98823529 0.98823529
0.98823529 0.98823529 0.98823529
0.98823529 0.98823529 0.98823529
0.98823529 0.98823529 0.98823529
0.98823529 0.98823529 0.98823529
0.99215686 0.99215686 0.99215686
0.99215686 0.99215686 0.99215686
