core/profiles/src/main/assets/luts/kodak_elite_color_200.cube
# Source: RawTherapee Film Simulation Collection (HaldCLUT.zip)
# Converted from: HaldCLUT/Color/Kodak/Kodak Elite Color 200.png
TITLE "kodak_elite_color_200"
LUT_3D_SIZE 7
DOMAIN_MIN 0.0 0.0 0.0
DOMAIN_MAX 1.0 1.0 1.0
0.00000000 0.00000000 0.00000000
0.09411765 0.00000000 0.00000000
0.21568627 0.00000000 0.00000000
0.36862745 0.00392157 0.00392157
0.57254902 0.01176471 0.01568627
0.78039216 0.03921569 0.03529412
0.96862745 0.09411765 0.07450980
0.04705882 0.08627451 0.00784314
0.11372549 0.09019608 0.00784314
0.23137255 0.09803922 0.01568627
0.38431373 0.11372549 0.02352941
0.58431373 0.13333333 0.04313725
0.79215686 0.16078431 0.06666667
0.97254902 0.21176471 0.10980392
0.12156863 0.20000000 0.02352941
0.16078431 0.20392157 0.02745098
0.25882353 0.20784314 0.03529412
0.41176471 0.21960784 0.04705882
0.60784314 0.23529412 0.06274510
0.80784314 0.26274510 0.09019608
0.98431373 0.30980392 0.12549020
0.11764706 0.34509804 0.01960784
0.17647059 0.34901961 0.02352941
0.29019608 0.35294118 0.02745098
0.45882353 0.36470588 0.03529412
0.64313725 0.37647059 0.05098039
0.83529412 0.40000000 0.07450980
0.99607843 0.43529412 0.11372549
0.17647059 0.49019608 0.00000000
0.23137255 0.49019608 0.00000000
0.34509804 0.49411765 0.00392157
0.52156863 0.50196078 0.00784314
0.69019608 0.50980392 0.01568627
0.87058824 0.52549020 0.03137255
1.00000000 0.55686275 0.06666667
0.29803922 0.62352941 0.00000000
0.34509804 0.62352941 0.00000000
0.45490196 0.61960784 0.00000000
0.60000000 0.61960784 0.00000000
0.76078431 0.62352941 0.00000000
0.91764706 0.62352941 0.00000000
1.00000000 0.63921569 0.00000000
0.46274510 0.72156863 0.00000000
0.49411765 0.72156863 0.00000000
0.57647059 0.72156863 0.00000000
0.69411765 0.72156863 0.00000000
0.83137255 0.71764706 0.00000000
0.96862745 0.71764706 0.00000000
1.00000000 0.71764706 0.00000000
0.00000000 0.00784314 0.10588235
0.10588235 0.00784314 0.11764706
0.22745098 0.01568627 0.12941176
0.38039216 0.02352941 0.14509804
0.58039216 0.04313725 0.16470588
0.78823529 0.07450980 0.18823529
0.96862745 0.13333333 0.22352941
0.05490196 0.10980392 0.10980392
0.11372549 0.11372549 0.11372549
0.23921569 0.12549020 0.12549020
0.39215686 0.13725490 0.13725490
0.59215686 0.15686275 0.15686275
0.79607843 0.18823529 0.18039216
0.97254902 0.23921569 0.21960784
0.11372549 0.21960784 0.10980392
0.15686275 0.22352941 0.11764706
0.25882353 0.23137255 0.12549020
0.41568627 0.23921569 0.13725490
0.61176471 0.25882353 0.15294118
0.80784314 0.28627451 0.17647059
0.98039216 0.33333333 0.21568627
0.11372549 0.36470588 0.09411765
0.17254902 0.36470588 0.09411765
0.29019608 0.37254902 0.10196078
0.45882353 0.38431373 0.11372549
0.64313725 0.39607843 0.12941176
0.83529412 0.41960784 0.15294118
0.99607843 0.45882353 0.19215686
0.16470588 0.50980392 0.04313725
0.22352941 0.50980392 0.04313725
0.34509804 0.51372549 0.05098039
0.51764706 0.52156863 0.05882353
0.69019608 0.52941176 0.07450980
0.86666667 0.54509804 0.09803922
1.00000000 0.57647059 0.13333333
0.31372549 0.62352941 0.00000000
0.36078431 0.62352941 0.00000000
0.47058824 0.62352941 0.00000000
0.61176471 0.62352941 0.00000000
0.76470588 0.62745098 0.00000000
0.91764706 0.63921569 0.00784314
1.00000000 0.65882353 0.03921569
0.47843137 0.72549020 0.00000000
0.50980392 0.72549020 0.00000000
0.58431373 0.72156863 0.00000000
0.70588235 0.72156863 0.00000000
0.83529412 0.72156863 0.00000000
0.97254902 0.71764706 0.00000000
1.00000000 0.71764706 0.00000000
0.00000000 0.03137255 0.22745098
0.11372549 0.03137255 0.23921569
0.23529412 0.04313725 0.25098039
0.38823529 0.05490196 0.26274510
0.58823529 0.07450980 0.27843137
0.79215686 0.10196078 0.30196078
0.96862745 0.16078431 0.33725490
0.06274510 0.13725490 0.23921569
0.12549020 0.14509804 0.24313725
0.24313725 0.15294118 0.25490196
0.40000000 0.16470588 0.26666667
0.59607843 0.18431373 0.28235294
0.80000000 0.21568627 0.30588235
0.97254902 0.26666667 0.34117647
0.10196078 0.25098039 0.24705882
0.14509804 0.25490196 0.25098039
0.26274510 0.25882353 0.25882353
0.42352941 0.27058824 0.27450980
0.61568627 0.29019608 0.29019608
0.81176471 0.31764706 0.31372549
0.98039216 0.36470588 0.34901961
0.10588235 0.40000000 0.23529412
0.16470588 0.40000000 0.23921569
0.28235294 0.40784314 0.24705882
0.46274510 0.41568627 0.25882353
0.64313725 0.43137255 0.27843137
0.83137255 0.45490196 0.30196078
0.99215686 0.49411765 0.34117647
0.14509804 0.54901961 0.18823529
0.19607843 0.54901961 0.19215686
0.33333333 0.55294118 0.20000000
0.51372549 0.56078431 0.21568627
0.68627451 0.57254902 0.23529412
0.85882353 0.58823529 0.26666667
1.00000000 0.61568627 0.30980392
0.30196078 0.66274510 0.08235294
0.34901961 0.66274510 0.08235294
0.45882353 0.66274510 0.09019608
0.60000000 0.66666667 0.10196078
0.75294118 0.67450980 0.11764706
0.90196078 0.68627451 0.14901961
1.00000000 0.70980392 0.21568627
0.50588235 0.72549020 0.00000000
0.53333333 0.72549020 0.00000000
0.60784314 0.72549020 0.00000000
0.72156863 0.72156863 0.00000000
0.85098039 0.72156863 0.00000000
0.98039216 0.72156863 0.00000000
1.00000000 0.72156863 0.00000000
0.00392157 0.07058824 0.36470588
0.11764706 0.07058824 0.37647059
0.24705882 0.07450980 0.38823529
0.40000000 0.08627451 0.40392157
0.60000000 0.10588235 0.41960784
0.79607843 0.13725490 0.44313725
0.96862745 0.19215686 0.47450980
0.07843137 0.17254902 0.38823529
0.13725490 0.17647059 0.39607843
0.24705882 0.18431373 0.40784314
0.40784314 0.20000000 0.42352941
0.60392157 0.21960784 0.44313725
0.80000000 0.25098039 0.46666667
0.96862745 0.30196078 0.49803922
0.10588235 0.28627451 0.41960784
0.13725490 0.29019608 0.42352941
0.26274510 0.29803922 0.43529412
0.43137255 0.30980392 0.45098039
0.61960784 0.32941176 0.46666667
0.81176471 0.35686275 0.49019608
0.97254902 0.40392157 0.52156863
0.10196078 0.44313725 0.43529412
0.14509804 0.44705882 0.43921569
0.27450980 0.45098039 0.45098039
0.46274510 0.46274510 0.46274510
0.64313725 0.47843137 0.47843137
0.82745098 0.50196078 0.50196078
0.98039216 0.54117647 0.53333333
0.07058824 0.60000000 0.42745098
0.14901961 0.60392157 0.43137255
0.32156863 0.60784314 0.43921569
0.50196078 0.61568627 0.45098039
0.67450980 0.62352941 0.47058824
0.84705882 0.64313725 0.49411765
0.99215686 0.67058824 0.52941176
0.25882353 0.72549020 0.35686275
0.31764706 0.72549020 0.36078431
0.43137255 0.72941176 0.36862745
0.57647059 0.73333333 0.38431373
0.73333333 0.74117647 0.40784314
0.88235294 0.75294118 0.43921569
1.00000000 0.77254902 0.48627451
0.52549020 0.74509804 0.01568627
0.55294118 0.74901961 0.01568627
0.62352941 0.74901961 0.01960784
0.72941176 0.74901961 0.02745098
0.84705882 0.75686275 0.03921569
0.97254902 0.76470588 0.05882353
1.00000000 0.78431373 0.11764706
0.01176471 0.11764706 0.52549020
0.12549020 0.11764706 0.53725490
0.25490196 0.12156863 0.54901961
0.41568627 0.12156863 0.56078431
0.60784314 0.13725490 0.57647059
0.80000000 0.16862745 0.59607843
0.96862745 0.21960784 0.61960784
0.08627451 0.20784314 0.56470588
0.14509804 0.21176471 0.57254902
0.25882353 0.21960784 0.58431373
0.42352941 0.23137255 0.59607843
0.61176471 0.25098039 0.60784314
0.80392157 0.28235294 0.62745098
0.96470588 0.33333333 0.65098039
0.07843137 0.32156863 0.60392157
0.13333333 0.32549020 0.60784314
0.27058824 0.33333333 0.61568627
0.44313725 0.34509804 0.62745098
0.62745098 0.36078431 0.63921569
0.81176471 0.38823529 0.65882353
0.96862745 0.43529412 0.68235294
0.07450980 0.48235294 0.63137255
0.12156863 0.48627451 0.63137255
0.28235294 0.49019608 0.63921569
0.47058824 0.50196078 0.65098039
0.64705882 0.51764706 0.66274510
0.82352941 0.53725490 0.67843137
0.97254902 0.57647059 0.70196078
0.06666667 0.65098039 0.64313725
0.14509804 0.65098039 0.64313725
0.31764706 0.65490196 0.65098039
0.49803922 0.66274510 0.65882353
0.67058824 0.67058824 0.67058824
0.83529412 0.68627451 0.68627451
0.98039216 0.71372549 0.70980392
0.21960784 0.78823529 0.62352941
0.28235294 0.79215686 0.62352941
0.40784314 0.79215686 0.63137255
0.56078431 0.79607843 0.63921569
0.71372549 0.80000000 0.65490196
0.86274510 0.81176471 0.67450980
0.99607843 0.82745098 0.70196078
0.47058824 0.84313725 0.40392157
0.50196078 0.84705882 0.40784314
0.57647059 0.84705882 0.41568627
0.68627451 0.85098039 0.42745098
0.80392157 0.85490196 0.45098039
0.92941176 0.86274510 0.47843137
1.00000000 0.87450980 0.53333333
0.02745098 0.16862745 0.69411765
0.14901961 0.16862745 0.70196078
0.27450980 0.16862745 0.71372549
0.44313725 0.16862745 0.72156863
0.62352941 0.16862745 0.72941176
0.80784314 0.19215686 0.74117647
0.96862745 0.23921569 0.76078431
0.09803922 0.23137255 0.73333333
0.16078431 0.23529412 0.73725490
0.28235294 0.24313725 0.74509804
0.45098039 0.25098039 0.75294118
0.63137255 0.27058824 0.76470588
0.81176471 0.29803922 0.77254902
0.96862745 0.34901961 0.78823529
0.09411765 0.34509804 0.76862745
0.17254902 0.34901961 0.77254902
0.29803922 0.35294118 0.77647059
0.47450980 0.36470588 0.78431373
0.64705882 0.38039216 0.79215686
0.81960784 0.40392157 0.80000000
0.96862745 0.45098039 0.81568627
0.09019608 0.50588235 0.79607843
0.17647059 0.50980392 0.80000000
0.32156863 0.51372549 0.80392157
0.49803922 0.52156863 0.80784314
0.66666667 0.53725490 0.81568627
0.83137255 0.56078431 0.82352941
0.97254902 0.59607843 0.83921569
0.10588235 0.68235294 0.81568627
0.20000000 0.68627451 0.81960784
0.35294118 0.68627451 0.82352941
0.52156863 0.69411765 0.82745098
0.68235294 0.70196078 0.83529412
0.83921569 0.71764706 0.84313725
0.97647059 0.74117647 0.85490196
0.24313725 0.83921569 0.82745098
0.30196078 0.83921569 0.82745098
0.41960784 0.83921569 0.83137255
0.56862745 0.84313725 0.83921569
0.71372549 0.84705882 0.84313725
0.85490196 0.85490196 0.85490196
0.98431373 0.86666667 0.86666667
0.43137255 0.93725490 0.76470588
0.46666667 0.93725490 0.76862745
0.54509804 0.93725490 0.77254902
0.65490196 0.93725490 0.77647059
0.77254902 0.94117647 0.78823529
0.89411765 0.94509804 0.80000000
1.00000000 0.95294118 0.82352941
0.05490196 0.20784314 0.82745098
0.18431373 0.20784314 0.83529412
0.30980392 0.20784314 0.83921569
0.47843137 0.20392157 0.84705882
0.65098039 0.20392157 0.85098039
0.82352941 0.20000000 0.85882353
0.97254902 0.24313725 0.87058824
0.14901961 0.23137255 0.86274510
0.21568627 0.23529412 0.86666667
0.33333333 0.23921569 0.87058824
0.49411765 0.25098039 0.87450980
0.66274510 0.26666667 0.88235294
0.82745098 0.29019608 0.88627451
0.97254902 0.34117647 0.89803922
0.19607843 0.33725490 0.89411765
0.25490196 0.34117647 0.89411765
0.36862745 0.34509804 0.89803922
0.52156863 0.35686275 0.90196078
0.68235294 0.37254902 0.90588235
0.83921569 0.39607843 0.91372549
0.97647059 0.44313725 0.92156863
0.24705882 0.50196078 0.91764706
0.29803922 0.50196078 0.92156863
0.40784314 0.50588235 0.92156863
0.55294118 0.51372549 0.92549020
0.70588235 0.52941176 0.92941176
0.85098039 0.55294118 0.93333333
0.98039216 0.59215686 0.94117647
0.29019608 0.69019608 0.94117647
0.33725490 0.69019608 0.94117647
0.44313725 0.69411765 0.94509804
0.58039216 0.69803922 0.94901961
0.72156863 0.70588235 0.94901961
0.85490196 0.72156863 0.95686275
0.98039216 0.74901961 0.96078431
0.37647059 0.85882353 0.96078431
0.41568627 0.85882353 0.96470588
0.50588235 0.86274510 0.96470588
0.62745098 0.86274510 0.96862745
0.74509804 0.86666667 0.96862745
0.87058824 0.87450980 0.97254902
0.98431373 0.88627451 0.98039216
0.51372549 0.99215686 0.97254902
0.53725490 0.99215686 0.97254902
0.60000000 0.99215686 0.97647059
0.69019608 0.99215686 0.98039216
0.78431373 0.99215686 0.98431373
0.89019608 0.99607843 0.99215686
1.00000000 1.00000000 1.00000000
