core/profiles/src/main/assets/luts/kodak_hie_hs_infra.cube
# Source: RawTherapee Film Simulation Collection (HaldCLUT.zip)
# Converted from: HaldCLUT/Black-and-White/Kodak/Kodak HIE (HS Infra).png
TITLE "kodak_hie_hs_infra"
LUT_3D_SIZE 5
DOMAIN_MIN 0.0 0.0 0.0
DOMAIN_MAX 1.0 1.0 1.0
0.00000000 0.00000000 0.00000000
0.19215686 0.19215686 0.19215686
0.48627451 0.48627451 0.48627451
0.79607843 0.79607843 0.79607843
0.98039216 0.98039216 0.98039216
0.22745098 0.22745098 0.22745098
0.30980392 0.30980392 0.30980392
0.51764706 0.51764706 0.51764706
0.79607843 0.79607843 0.79607843
0.98039216 0.98039216 0.98039216
0.49803922 0.49803922 0.49803922
0.51764706 0.51764706 0.51764706
0.60784314 0.60784314 0.60784314
0.81960784 0.81960784 0.81960784
0.98431373 0.98431373 0.98431373
0.90588235 0.90588235 0.90588235
0.94117647 0.94117647 0.94117647
0.78431373 0.78431373 0.78431373
0.85098039 0.85098039 0.85098039
0.99215686 0.99215686 0.99215686
0.81176471 0.81176471 0.81176471
0.95686275 0.95686275 0.95686275
1.00000000 1.00000000 1.00000000
1.00000000 1.00000000 1.00000000
0.99215686 0.99215686 0.99215686
0.00000000 0.00000000 0.00000000
0.21176471 0.21176471 0.21176471
0.54509804 0.54509804 0.54509804
0.81960784 0.81960784 0.81960784
0.99215686 0.99215686 0.99215686
0.18823529 0.18823529 0.18823529
0.29803922 0.29803922 0.29803922
0.55686275 0.55686275 0.55686275
0.81960784 0.81960784 0.81960784
0.98823529 0.98823529 0.98823529
0.44705882 0.44705882 0.44705882
0.47843137 0.47843137 0.47843137
0.62352941 0.62352941 0.62352941
0.83529412 0.83529412 0.83529412
0.99215686 0.99215686 0.99215686
0.89803922 0.89803922 0.89803922
0.84705882 0.84705882 0.84705882
0.75294118 0.75294118 0.75294118
0.86666667 0.86666667 0.86666667
1.00000000 1.00000000 1.00000000
0.88235294 0.88235294 0.88235294
1.00000000 1.00000000 1.00000000
1.00000000 1.00000000 1.00000000
1.00000000 1.00000000 1.00000000
1.00000000 1.00000000 1.00000000
0.00000000 0.00000000 0.00000000
0.26666667 0.26666667 0.26666667
0.60392157 0.60392157 0.60392157
0.84313725 0.84313725 0.84313725
1.00000000 1.00000000 1.00000000
0.18039216 0.18039216 0.18039216
0.32549020 0.32549020 0.32549020
0.61568627 0.61568627 0.61568627
0.84313725 0.84313725 0.84313725
1.00000000 1.00000000 1.00000000
0.39607843 0.39607843 0.39607843
0.47058824 0.47058824 0.47058824
0.67450980 0.67450980 0.67450980
0.86274510 0.86274510 0.86274510
1.00000000 1.00000000 1.00000000
0.69803922 0.69803922 0.69803922
0.69019608 0.69019608 0.69019608
0.75686275 0.75686275 0.75686275
0.89019608 0.89019608 0.89019608
1.00000000 1.00000000 1.00000000
1.00000000 1.00000000 1.00000000
1.00000000 1.00000000 1.00000000
1.00000000 1.00000000 1.00000000
0.97254902 0.97254902 0.97254902
1.00000000 1.00000000 1.00000000
0.00392157 0.00392157 0.00392157
0.40784314 0.40784314 0.40784314
0.68627451 0.68627451 0.68627451
0.87843137 0.87843137 0.87843137
1.00000000 1.00000000 1.00000000
0.29411765 0.29411765 0.29411765
0.46274510 0.46274510 0.46274510
0.70588235 0.70588235 0.70588235
0.88235294 0.88235294 0.88235294
1.00000000 1.00000000 1.00000000
0.48627451 0.48627451 0.48627451
0.57254902 0.57254902 0.57254902
0.75294118 0.75294118 0.75294118
0.90196078 0.90196078 0.90196078
1.00000000 1.00000000 1.00000000
0.64313725 0.64313725 0.64313725
0.69019608 0.69019608 0.69019608
0.80784314 0.80784314 0.80784314
0.92549020 0.92549020 0.92549020
1.00000000 1.00000000 1.00000000
1.00000000 1.00000000 1.00000000
1.00000000 1.00000000 1.00000000
1.00000000 1.00000000 1.00000000
0.94901961 0.94901961 0.94901961
1.00000000 1.00000000 1.00000000
0.30588235 0.30588235 0.30588235
0.60000000 0.60000000 0.60000000
0.78039216 0.78039216 0.78039216
0.95294118 0.95294118 0.95294118
1.00000000 1.00000000 1.00000000
0.55294118 0.55294118 0.55294118
0.65882353 0.65882353 0.65882353
0.80392157 0.80392157 0.80392157
0.96470588 0.96470588 0.96470588
1.00000000 1.00000000 1.00000000
0.69019608 0.69019608 0.69019608
0.74509804 0.74509804 0.74509804
0.84705882 0.84705882 0.84705882
0.98823529 0.98823529 0.98823529
1.00000000 1.00000000 1.00000000
0.79607843 0.79607843 0.79607843
0.82352941 0.82352941 0.82352941
0.90588235 0.90588235 0.90588235
1.00000000 1.00000000 1.00000000
1.00000000 1.00000000 1.00000000
0.87058824 0.87058824 0.87058824
0.88627451 0.88627451 0.88627451
0.92941176 0.92941176 0.92941176
0.99215686 0.99215686 0.99215686
1.00000000 1.00000000 1.00000000
