core/profiles/src/main/assets/luts/kodak_elite_100_xpro.cube
# Source: RawTherapee Film Simulation Collection (HaldCLUT.zip)
# Converted from: HaldCLUT/Color/Kodak/Kodak Elite 100 XPRO.png
TITLE "kodak_elite_100_xpro"
LUT_3D_SIZE 13
DOMAIN_MIN 0.0 0.0 0.0
DOMAIN_MAX 1.0 1.0 1.0
0.00000000 0.00000000 0.00000000
0.04313725 0.00000000 0.00000000
0.09019608 0.00000000 0.00000000
0.13725490 0.00000000 0.00000000
0.20392157 0.00000000 0.00000000
0.29019608 0.00392157 0.00392157
0.38039216 0.00784314 0.00784314
0.49411765 0.01176471 0.01176471
0.63921569 0.02352941 0.02352941
0.75294118 0.03529412 0.03137255
0.84313725 0.05098039 0.03921569
0.91372549 0.07058824 0.04705882
0.97254902 0.09019608 0.05490196
0.01960784 0.01568627 0.00000000
0.05882353 0.01960784 0.00000000
0.10196078 0.02352941 0.00000000
0.14901961 0.02745098 0.00000000
0.21568627 0.03137255 0.00000000
0.30196078 0.04313725 0.00392157
0.39215686 0.05098039 0.00392157
0.50196078 0.06274510 0.01176471
0.64705882 0.07843137 0.01960784
0.76078431 0.09803922 0.02745098
0.85098039 0.11372549 0.03529412
0.92156863 0.14117647 0.04313725
0.98431373 0.17647059 0.04705882
0.05098039 0.05490196 0.00000000
0.07450980 0.05882353 0.00000000
0.10980392 0.06274510 0.00000000
0.15686275 0.07058824 0.00392157
0.22745098 0.07843137 0.00392157
0.31372549 0.08627451 0.00784314
0.40392157 0.09803922 0.00784314
0.51764706 0.11372549 0.01176471
0.65882353 0.12941176 0.01960784
0.77254902 0.15294118 0.02352941
0.85882353 0.18039216 0.03137255
0.93333333 0.21568627 0.03529412
0.99215686 0.25490196 0.03921569
0.09019608 0.12549020 0.00392157
0.10196078 0.12549020 0.00392157
0.12549020 0.13333333 0.00392157
0.16862745 0.14117647 0.00392157
0.24313725 0.14901961 0.00784314
0.32941176 0.16470588 0.00784314
0.41960784 0.17647059 0.01176471
0.53725490 0.19607843 0.01568627
0.67843137 0.21960784 0.01960784
0.78823529 0.24313725 0.02352941
0.87450980 0.26666667 0.02352941
0.94509804 0.29411765 0.03137255
1.00000000 0.33333333 0.03137255
0.10588235 0.23137255 0.00392157
0.11764706 0.23529412 0.00392157
0.13725490 0.23921569 0.00392157
0.18039216 0.24313725 0.00784314
0.26274510 0.25490196 0.00784314
0.34509804 0.26274510 0.01176471
0.44313725 0.27843137 0.01176471
0.56470588 0.29411765 0.01568627
0.69803922 0.31372549 0.02352941
0.80392157 0.33725490 0.02352941
0.88627451 0.36470588 0.01960784
0.95686275 0.39607843 0.02352941
1.00000000 0.42745098 0.02352941
0.04705882 0.35686275 0.00392157
0.05490196 0.35686275 0.00392157
0.10196078 0.36078431 0.00784314
0.18823529 0.36862745 0.00784314
0.27450980 0.37647059 0.00784314
0.36078431 0.38431373 0.01176471
0.46666667 0.39607843 0.01176471
0.59607843 0.41176471 0.01568627
0.72156863 0.42745098 0.01960784
0.81960784 0.44313725 0.02352941
0.90196078 0.45882353 0.01960784
0.96862745 0.47843137 0.01568627
1.00000000 0.50588235 0.01568627
0.07058824 0.47058824 0.00784314
0.08627451 0.47058824 0.00784314
0.11764706 0.47450980 0.00784314
0.20392157 0.47843137 0.00784314
0.28627451 0.48235294 0.00784314
0.38039216 0.49019608 0.01176471
0.50588235 0.50196078 0.01568627
0.63137255 0.51372549 0.01568627
0.74509804 0.52549020 0.01960784
0.83921569 0.53725490 0.01960784
0.91372549 0.55294118 0.01568627
0.97647059 0.56862745 0.01176471
1.00000000 0.58823529 0.01176471
0.07843137 0.56470588 0.00784314
0.10588235 0.56470588 0.00784314
0.14509804 0.56862745 0.00784314
0.22352941 0.57254902 0.00784314
0.30980392 0.57647059 0.00784314
0.41568627 0.58431373 0.01176471
0.54901961 0.59215686 0.01568627
0.66666667 0.60000000 0.01568627
0.76862745 0.61176471 0.01960784
0.85490196 0.61960784 0.01568627
0.92549020 0.63137255 0.01568627
0.98823529 0.64313725 0.01176471
1.00000000 0.65882353 0.00784314
0.12549020 0.65490196 0.00784314
0.14901961 0.65490196 0.00784314
0.19215686 0.65490196 0.00784314
0.26666667 0.65882353 0.00784314
0.36078431 0.66274510 0.00784314
0.47843137 0.66666667 0.01176471
0.60392157 0.67450980 0.01568627
0.70588235 0.68235294 0.01568627
0.79607843 0.69019608 0.01568627
0.87450980 0.69803922 0.01568627
0.94117647 0.70588235 0.01176471
0.99607843 0.71372549 0.00784314
1.00000000 0.72156863 0.00392157
0.21176471 0.72549020 0.00784314
0.23529412 0.72549020 0.00784314
0.28235294 0.72941176 0.00784314
0.35686275 0.72941176 0.00784314
0.45490196 0.73333333 0.01176471
0.56078431 0.74117647 0.01176471
0.66274510 0.74509804 0.01176471
0.74509804 0.74901961 0.01176471
0.82352941 0.75686275 0.01176471
0.89411765 0.76078431 0.01176471
0.95294118 0.76862745 0.00784314
1.00000000 0.77254902 0.00392157
1.00000000 0.78039216 0.00000000
0.35294118 0.79215686 0.00784314
0.37647059 0.79215686 0.00784314
0.41960784 0.79215686 0.00784314
0.48235294 0.79607843 0.00784314
0.56078431 0.80000000 0.00784314
0.64313725 0.80392157 0.00784314
0.72156863 0.80784314 0.00784314
0.78823529 0.81176471 0.00784314
0.85490196 0.81568627 0.00784314
0.91764706 0.81960784 0.00784314
0.97254902 0.82352941 0.00392157
1.00000000 0.82745098 0.00392157
1.00000000 0.83137255 0.00000000
0.51764706 0.84705882 0.00392157
0.53333333 0.84705882 0.00392157
0.56078431 0.84705882 0.00392157
0.60392157 0.85098039 0.00392157
0.65882353 0.85098039 0.00392157
0.71764706 0.85490196 0.00392157
0.78039216 0.85882353 0.00392157
0.83137255 0.85882353 0.00392157
0.88627451 0.86274510 0.00000000
0.94117647 0.86666667 0.00000000
0.98823529 0.86666667 0.00000000
1.00000000 0.87058824 0.00000000
1.00000000 0.87058824 0.00000000
0.66666667 0.88235294 0.00000000
0.67450980 0.88235294 0.00000000
0.69019608 0.88235294 0.00000000
0.72156863 0.88627451 0.00000000
0.75686275 0.88627451 0.00000000
0.79607843 0.88627451 0.00000000
0.83921569 0.89019608 0.00000000
0.88235294 0.89019608 0.00000000
0.92549020 0.89019608 0.00000000
0.97254902 0.89019608 0.00000000
1.00000000 0.89411765 0.00000000
1.00000000 0.89411765 0.00000000
1.00000000 0.89411765 0.00000000
0.00000000 0.00000000 0.00392157
0.03529412 0.00000000 0.00392157
0.08235294 0.00000000 0.00392157
0.12941176 0.00000000 0.00784314
0.19607843 0.00392157 0.00784314
0.28627451 0.00784314 0.01176471
0.37647059 0.01176471 0.01568627
0.49019608 0.01568627 0.01960784
0.63529412 0.02745098 0.02745098
0.75294118 0.03921569 0.03137255
0.84313725 0.05490196 0.03921569
0.91764706 0.07450980 0.04705882
0.97647059 0.09803922 0.05490196
0.01176471 0.01960784 0.00392157
0.05098039 0.02352941 0.00784314
0.09411765 0.02745098 0.00784314
0.14117647 0.03137255 0.00784314
0.20392157 0.03921569 0.01176471
0.29411765 0.04705882 0.01568627
0.38823529 0.05882353 0.01960784
0.50196078 0.07058824 0.02352941
0.64705882 0.08627451 0.03137255
0.76078431 0.10196078 0.03529412
0.85098039 0.12156863 0.03529412
0.92549020 0.14901961 0.04313725
0.98823529 0.18823529 0.04705882
0.04705882 0.06274510 0.00784314
0.07058824 0.06666667 0.00784314
0.10588235 0.07058824 0.00784314
0.14901961 0.07450980 0.01176471
0.21960784 0.08235294 0.01176471
0.30588235 0.09411765 0.01568627
0.40000000 0.10588235 0.01960784
0.51372549 0.11764706 0.02745098
0.65882353 0.13725490 0.03529412
0.77254902 0.16078431 0.03921569
0.86274510 0.18823529 0.03529412
0.93725490 0.22352941 0.03529412
0.99607843 0.26274510 0.03921569
0.08627451 0.12941176 0.01176471
0.09803922 0.13333333 0.01176471
0.12156863 0.14117647 0.01176471
0.16078431 0.14509804 0.01176471
0.23921569 0.15686275 0.01568627
0.32549020 0.16862745 0.01960784
0.41568627 0.18431373 0.02352941
0.53725490 0.20392157 0.02745098
0.67450980 0.22745098 0.03529412
0.78823529 0.24705882 0.03529412
0.87450980 0.27058824 0.03529412
0.94509804 0.29803922 0.02745098
1.00000000 0.33725490 0.03137255
0.09803922 0.23921569 0.01176471
0.10980392 0.23921569 0.01176471
0.13333333 0.24313725 0.01176471
0.17254902 0.25098039 0.01176471
0.25882353 0.25882353 0.01568627
0.34117647 0.26666667 0.01960784
0.43921569 0.28235294 0.02352941
0.56470588 0.29803922 0.02745098
0.69803922 0.32156863 0.03529412
0.80392157 0.34509804 0.03529412
0.88627451 0.37254902 0.03137255
0.95686275 0.40000000 0.02352941
1.00000000 0.43137255 0.02352941
0.03921569 0.36078431 0.01176471
0.04313725 0.36078431 0.01176471
0.09019608 0.36470588 0.01176471
0.18039216 0.37254902 0.01176471
0.27058824 0.38039216 0.01568627
0.35686275 0.38823529 0.01568627
0.46666667 0.40000000 0.01960784
0.59607843 0.41568627 0.02745098
0.72156863 0.43137255 0.03137255
0.81960784 0.44705882 0.03137255
0.90196078 0.46274510 0.02745098
0.96862745 0.48235294 0.02352941
1.00000000 0.50588235 0.01568627
0.06274510 0.47058824 0.01176471
0.07450980 0.47450980 0.01176471
0.10588235 0.47843137 0.01176471
0.19607843 0.48235294 0.01176471
0.28235294 0.48627451 0.01568627
0.37647059 0.49411765 0.01568627
0.50196078 0.50588235 0.01960784
0.62745098 0.51764706 0.02352941
0.74509804 0.52941176 0.02745098
0.83921569 0.54117647 0.02745098
0.91372549 0.55686275 0.02352941
0.97647059 0.57254902 0.01960784
1.00000000 0.59215686 0.01176471
0.07058824 0.56862745 0.01176471
0.09411765 0.56862745 0.01176471
0.13725490 0.57254902 0.01176471
0.21568627 0.57254902 0.01176471
0.30588235 0.58039216 0.01568627
0.41176471 0.58431373 0.01568627
0.54509804 0.59607843 0.01960784
0.66274510 0.60392157 0.02352941
0.76862745 0.61176471 0.02352941
0.85490196 0.62352941 0.02352941
0.92549020 0.63529412 0.01960784
0.98823529 0.64705882 0.01568627
1.00000000 0.65882353 0.00784314
0.11764706 0.65490196 0.01176471
0.13725490 0.65490196 0.01176471
0.18039216 0.65882353 0.01176471
0.26274510 0.65882353 0.01176471
0.35686275 0.66274510 0.01568627
0.47450980 0.67058824 0.01568627
0.60392157 0.67843137 0.01960784
0.70196078 0.68235294 0.01960784
0.79607843 0.69019608 0.01960784
0.87058824 0.69803922 0.01960784
0.93725490 0.70588235 0.01568627
0.99607843 0.71372549 0.01176471
1.00000000 0.72549020 0.00392157
0.20000000 0.72941176 0.01176471
0.22745098 0.72941176 0.01176471
0.27450980 0.72941176 0.01176471
0.34901961 0.73333333 0.01176471
0.44705882 0.73725490 0.01568627
0.55686275 0.74117647 0.01568627
0.66274510 0.74509804 0.01568627
0.74509804 0.75294118 0.01568627
0.82352941 0.75686275 0.01568627
0.89411765 0.76470588 0.01568627
0.95294118 0.76862745 0.01176471
1.00000000 0.77647059 0.00784314
1.00000000 0.78039216 0.00392157
0.34509804 0.79215686 0.01176471
0.36862745 0.79215686 0.01176471
0.41176471 0.79607843 0.01176471
0.47843137 0.79607843 0.01176471
0.55686275 0.80000000 0.01176471
0.63921569 0.80392157 0.01176471
0.71764706 0.80784314 0.01176471
0.78823529 0.81176471 0.01176471
0.85490196 0.81568627 0.01176471
0.91372549 0.81960784 0.00784314
0.96862745 0.82352941 0.00784314
1.00000000 0.82745098 0.00392157
1.00000000 0.83137255 0.00000000
0.51372549 0.85098039 0.00784314
0.52941176 0.85098039 0.00784314
0.55686275 0.85098039 0.00784314
0.60000000 0.85098039 0.00784314
0.65490196 0.85490196 0.00784314
0.71764706 0.85490196 0.00784314
0.77647059 0.85882353 0.00392157
0.83137255 0.86274510 0.00392157
0.88627451 0.86274510 0.00392157
0.93725490 0.86666667 0.00392157
0.98823529 0.86666667 0.00000000
1.00000000 0.87058824 0.00000000
1.00000000 0.87058824 0.00000000
0.66274510 0.88627451 0.00000000
0.67058824 0.88627451 0.00000000
0.69019608 0.88627451 0.00000000
0.71764706 0.88627451 0.00000000
0.75294118 0.88627451 0.00000000
0.79607843 0.89019608 0.00000000
0.83921569 0.89019608 0.00000000
0.87843137 0.89019608 0.00000000
0.92549020 0.89411765 0.00000000
0.96862745 0.89411765 0.00000000
1.00000000 0.89411765 0.00000000
1.00000000 0.89411765 0.00000000
1.00000000 0.89411765 0.00000000
0.00000000 0.00000000 0.01176471
0.03137255 0.00000000 0.01568627
0.07843137 0.00000000 0.01568627
0.12549020 0.00392157 0.01960784
0.18823529 0.00392157 0.01960784
0.28235294 0.00784314 0.02352941
0.37647059 0.01176471 0.03137255
0.49019608 0.01960784 0.03921569
0.63529412 0.03137255 0.04705882
0.75294118 0.04705882 0.05098039
0.84313725 0.05882353 0.05098039
0.91764706 0.07843137 0.04705882
0.98039216 0.10196078 0.05098039
0.01176471 0.02352941 0.01568627
0.04313725 0.02745098 0.01568627
0.09019608 0.03137255 0.01960784
0.13333333 0.03529412 0.01960784
0.20000000 0.04313725 0.02352941
0.29019608 0.05098039 0.02745098
0.38431373 0.06274510 0.03529412
0.49803922 0.07450980 0.03921569
0.64705882 0.09019608 0.05098039
0.76078431 0.10980392 0.05490196
0.85098039 0.12941176 0.05490196
0.92549020 0.15294118 0.04705882
0.98823529 0.19607843 0.04705882
0.04313725 0.06666667 0.01960784
0.06274510 0.07058824 0.01960784
0.09803922 0.07450980 0.01960784
0.14509804 0.07843137 0.02352941
0.21568627 0.08627451 0.02745098
0.30196078 0.09803922 0.03137255
0.39607843 0.10980392 0.03529412
0.51372549 0.12549020 0.04313725
0.65882353 0.14509804 0.05098039
0.77254902 0.16862745 0.05490196
0.86274510 0.19607843 0.05098039
0.93725490 0.23137255 0.04313725
0.99607843 0.26666667 0.03921569
0.08235294 0.13725490 0.02352941
0.09411765 0.14117647 0.02352941
0.12156863 0.14509804 0.02352941
0.15686275 0.15294118 0.02745098
0.23137255 0.16470588 0.02745098
0.32156863 0.17647059 0.03529412
0.41568627 0.19215686 0.03921569
0.53333333 0.21176471 0.04313725
0.67450980 0.23137255 0.05098039
0.78823529 0.25490196 0.05490196
0.87450980 0.27843137 0.05098039
0.94509804 0.30588235 0.04313725
1.00000000 0.34509804 0.03137255
0.09019608 0.24313725 0.02352941
0.10196078 0.24705882 0.02352941
0.12156863 0.25098039 0.02352941
0.16470588 0.25490196 0.02745098
0.25098039 0.26666667 0.03137255
0.33725490 0.27450980 0.03529412
0.43529412 0.29019608 0.03921569
0.56078431 0.30588235 0.04313725
0.69803922 0.32941176 0.05098039
0.80392157 0.35294118 0.05098039
0.88627451 0.38039216 0.04705882
0.95686275 0.40392157 0.03921569
1.00000000 0.43529412 0.02745098
0.02745098 0.36862745 0.02352941
0.03137255 0.36862745 0.02352941
0.07450980 0.37254902 0.02352941
0.16862745 0.38039216 0.02745098
0.25882353 0.38823529 0.02745098
0.34901961 0.39607843 0.03137255
0.46274510 0.40784314 0.03529412
0.59215686 0.42352941 0.04313725
0.71764706 0.43529412 0.04705882
0.81960784 0.45098039 0.04705882
0.89803922 0.47058824 0.04313725
0.96862745 0.49019608 0.03529412
1.00000000 0.51372549 0.02352941
0.04313725 0.47843137 0.02352941
0.05882353 0.47843137 0.02352941
0.08627451 0.48235294 0.02352941
0.18039216 0.48627451 0.02745098
0.27450980 0.49411765 0.02745098
0.37254902 0.50196078 0.03137255
0.49803922 0.50980392 0.03529412
0.62745098 0.52156863 0.03921569
0.74117647 0.53333333 0.04313725
0.83529412 0.54901961 0.03921569
0.91372549 0.56078431 0.03529412
0.97647059 0.57647059 0.02745098
1.00000000 0.59607843 0.01960784
0.05098039 0.57254902 0.02352941
0.07843137 0.57254902 0.02352941
0.11764706 0.57647059 0.02352941
0.20000000 0.58039216 0.02745098
0.29411765 0.58431373 0.02745098
0.40392157 0.59215686 0.03137255
0.54117647 0.60000000 0.03137255
0.65882353 0.60784314 0.03529412
0.76470588 0.61960784 0.03529412
0.85098039 0.62745098 0.03529412
0.92549020 0.63921569 0.03137255
0.98431373 0.65098039 0.02352941
1.00000000 0.66274510 0.01568627
0.09411765 0.65882353 0.02352941
0.11764706 0.65882353 0.02352941
0.16078431 0.66274510 0.02745098
0.24705882 0.66666667 0.02745098
0.34509804 0.67058824 0.02745098
0.47058824 0.67450980 0.03137255
0.59607843 0.68235294 0.03137255
0.69803922 0.68627451 0.03137255
0.79215686 0.69411765 0.03137255
0.87058824 0.70196078 0.03137255
0.93725490 0.70980392 0.02352941
0.99215686 0.71764706 0.01960784
1.00000000 0.72941176 0.01176471
0.18039216 0.73333333 0.02352941
0.20784314 0.73333333 0.02352941
0.25882353 0.73333333 0.02352941
0.33725490 0.73725490 0.02352941
0.43921569 0.74117647 0.02745098
0.55294118 0.74509804 0.02745098
0.65490196 0.74901961 0.02745098
0.74117647 0.75686275 0.02745098
0.81960784 0.76078431 0.02352941
0.89019608 0.76470588 0.02352941
0.95294118 0.77254902 0.01568627
1.00000000 0.77647059 0.01176471
1.00000000 0.78431373 0.00784314
0.33333333 0.79607843 0.01960784
0.35686275 0.80000000 0.01960784
0.40000000 0.80000000 0.02352941
0.46666667 0.80000000 0.02352941
0.54901961 0.80392157 0.01960784
0.63529412 0.80784314 0.01960784
0.71372549 0.81176471 0.01960784
0.78431373 0.81568627 0.01960784
0.85098039 0.81960784 0.01568627
0.91372549 0.82352941 0.01176471
0.96862745 0.82745098 0.01176471
1.00000000 0.83137255 0.00784314
1.00000000 0.83529412 0.00392157
0.50196078 0.85490196 0.01176471
0.51764706 0.85490196 0.01176471
0.54901961 0.85490196 0.01176471
0.59215686 0.85490196 0.01176471
0.65098039 0.85882353 0.01176471
0.70980392 0.85882353 0.01176471
0.77254902 0.86274510 0.00784314
0.82745098 0.86666667 0.00784314
0.88235294 0.86666667 0.00392157
0.93725490 0.87058824 0.00392157
0.98431373 0.87058824 0.00392157
1.00000000 0.87450980 0.00000000
1.00000000 0.87450980 0.00000000
0.65490196 0.88627451 0.00000000
0.66274510 0.89019608 0.00000000
0.68235294 0.89019608 0.00000000
0.70980392 0.89019608 0.00000000
0.74901961 0.89019608 0.00000000
0.78823529 0.89019608 0.00000000
0.83529412 0.89411765 0.00000000
0.87450980 0.89411765 0.00000000
0.92156863 0.89411765 0.00000000
0.96862745 0.89411765 0.00000000
1.00000000 0.89411765 0.00000000
1.00000000 0.89411765 0.00000000
1.00000000 0.89411765 0.00000000
0.00000000 0.00000000 0.02745098
0.02745098 0.00000000 0.03137255
0.07450980 0.00392157 0.03529412
0.12156863 0.00392157 0.03921569
0.18431373 0.00784314 0.03921569
0.27843137 0.01176471 0.04705882
0.37254902 0.01568627 0.05098039
0.48627451 0.02352941 0.05882353
0.63529412 0.03529412 0.06666667
0.75294118 0.05098039 0.07058824
0.84313725 0.06274510 0.07058824
0.91764706 0.08235294 0.06274510
0.98039216 0.10588235 0.05098039
0.00784314 0.02745098 0.03529412
0.03921569 0.03137255 0.03921569
0.08235294 0.03529412 0.03921569
0.12941176 0.04313725 0.04313725
0.19607843 0.04705882 0.04705882
0.28627451 0.05882353 0.05098039
0.38039216 0.06666667 0.05490196
0.49803922 0.08235294 0.06274510
0.64313725 0.09803922 0.07058824
0.76078431 0.11372549 0.07450980
0.85098039 0.13725490 0.07450980
0.92941176 0.16078431 0.06666667
0.99215686 0.20392157 0.05098039
0.03921569 0.07450980 0.04313725
0.05882353 0.07843137 0.04313725
0.09019608 0.08235294 0.04313725
0.13725490 0.08627451 0.04705882
0.20784314 0.09411765 0.05098039
0.29803922 0.10588235 0.05490196
0.39215686 0.11764706 0.05882353
0.50980392 0.13333333 0.06666667
0.65490196 0.15294118 0.07450980
0.77254902 0.17647059 0.07843137
0.86274510 0.20784314 0.07450980
0.93725490 0.23921569 0.06666667
0.99607843 0.27450980 0.05098039
0.07843137 0.14901961 0.04705882
0.09019608 0.14901961 0.04705882
0.11764706 0.15686275 0.05098039
0.15294118 0.16470588 0.05098039
0.22352941 0.17254902 0.05490196
0.31372549 0.18823529 0.05882353
0.41176471 0.20392157 0.06274510
0.52941176 0.21960784 0.06666667
0.67450980 0.24313725 0.07450980
0.78431373 0.26274510 0.07450980
0.87450980 0.28627451 0.07058824
0.94509804 0.31372549 0.06274510
1.00000000 0.35686275 0.04705882
0.08627451 0.25098039 0.05098039
0.09803922 0.25490196 0.05098039
0.11372549 0.25882353 0.05098039
0.15294118 0.26666667 0.05490196
0.23921569 0.27450980 0.05882353
0.32941176 0.28627451 0.06274510
0.43137255 0.29803922 0.06274510
0.55686275 0.31764706 0.07058824
0.69411765 0.33725490 0.07450980
0.80000000 0.36078431 0.07058824
0.88627451 0.38823529 0.07058824
0.95686275 0.41568627 0.05882353
1.00000000 0.44313725 0.04313725
0.01176471 0.37647059 0.05098039
0.01568627 0.38039216 0.05098039
0.04705882 0.38431373 0.05490196
0.14901961 0.38823529 0.05490196
0.24705882 0.39607843 0.05882353
0.34117647 0.40392157 0.06274510
0.45490196 0.41568627 0.06274510
0.58823529 0.43137255 0.06666667
0.71764706 0.44313725 0.07058824
0.81568627 0.45882353 0.07058824
0.89803922 0.47843137 0.06274510
0.96470588 0.49803922 0.05490196
1.00000000 0.52156863 0.03921569
0.01176471 0.48627451 0.05490196
0.01960784 0.48627451 0.05490196
0.05490196 0.49019608 0.05882353
0.15294118 0.49411765 0.05882353
0.25882353 0.50196078 0.05882353
0.36078431 0.50980392 0.06274510
0.49019608 0.51764706 0.06274510
0.61960784 0.52941176 0.06666667
0.73725490 0.54117647 0.06666667
0.83529412 0.55686275 0.06274510
0.90980392 0.56862745 0.05882353
0.97647059 0.58431373 0.04705882
1.00000000 0.60392157 0.03529412
0.01960784 0.58039216 0.05490196
0.04313725 0.58039216 0.05882353
0.09411765 0.58431373 0.05882353
0.16862745 0.58823529 0.05882353
0.27843137 0.59215686 0.05882353
0.39215686 0.60000000 0.06274510
0.53333333 0.60784314 0.06274510
0.65490196 0.61568627 0.06666667
0.76078431 0.62352941 0.06274510
0.84705882 0.63529412 0.05882353
0.92156863 0.64705882 0.05098039
0.98431373 0.65490196 0.03921569
1.00000000 0.67058824 0.02745098
0.05882353 0.66666667 0.05882353
0.07843137 0.66666667 0.05882353
0.12941176 0.67058824 0.05882353
0.21960784 0.67058824 0.05882353
0.32941176 0.67450980 0.05882353
0.45490196 0.68235294 0.05882353
0.58823529 0.69019608 0.05882353
0.69411765 0.69411765 0.06274510
0.78823529 0.70196078 0.05882353
0.86666667 0.70980392 0.05098039
0.93333333 0.71764706 0.04313725
0.99215686 0.72549020 0.03529412
1.00000000 0.73333333 0.01960784
0.13725490 0.74117647 0.05882353
0.16470588 0.74117647 0.05882353
0.22745098 0.74117647 0.05882353
0.31372549 0.74509804 0.05882353
0.42352941 0.74901961 0.05882353
0.53725490 0.75294118 0.05882353
0.64705882 0.75686275 0.05490196
0.73333333 0.76078431 0.05490196
0.81568627 0.76862745 0.05098039
0.88627451 0.77254902 0.04313725
0.94901961 0.77647059 0.03529412
1.00000000 0.78431373 0.02352941
1.00000000 0.78823529 0.01568627
0.30196078 0.80392157 0.05490196
0.32549020 0.80784314 0.05490196
0.37254902 0.80784314 0.05490196
0.44705882 0.80784314 0.05490196
0.53333333 0.81176471 0.05098039
0.61960784 0.81568627 0.05098039
0.70196078 0.81960784 0.04705882
0.77254902 0.82352941 0.03921569
0.84313725 0.82352941 0.03529412
0.90588235 0.82745098 0.02745098
0.96470588 0.83137255 0.01960784
1.00000000 0.83529412 0.01568627
1.00000000 0.83921569 0.00784314
0.48235294 0.86274510 0.03137255
0.49803922 0.86274510 0.03137255
0.52941176 0.86274510 0.02745098
0.57647059 0.86274510 0.02745098
0.63529412 0.86666667 0.02745098
0.69803922 0.86666667 0.02352941
0.76078431 0.87058824 0.01960784
0.81568627 0.87058824 0.01568627
0.87450980 0.87450980 0.01176471
0.92941176 0.87450980 0.00784314
0.98039216 0.87843137 0.00784314
1.00000000 0.87843137 0.00392157
1.00000000 0.87843137 0.00000000
0.63921569 0.89411765 0.00392157
0.64705882 0.89411765 0.00392157
0.66666667 0.89803922 0.00392157
0.69803922 0.89803922 0.00000000
0.73333333 0.89803922 0.00000000
0.77647059 0.89803922 0.00000000
0.82352941 0.89803922 0.00000000
0.86666667 0.90196078 0.00000000
0.91764706 0.90196078 0.00000000
0.96078431 0.90196078 0.00000000
1.00000000 0.90196078 0.00000000
1.00000000 0.89803922 0.00000000
1.00000000 0.89803922 0.00000000
0.00000000 0.00000000 0.05882353
0.01960784 0.00392157 0.06274510
0.06666667 0.00392157 0.06274510
0.11372549 0.00784314 0.06666667
0.17647059 0.01176471 0.07058824
0.27058824 0.01176471 0.07450980
0.36862745 0.01960784 0.07843137
0.48627451 0.02745098 0.08627451
0.63529412 0.04313725 0.09411765
0.75294118 0.05882353 0.09803922
0.84313725 0.07058824 0.09411765
0.91764706 0.09019608 0.08627451
0.98039216 0.11372549 0.07450980
0.00392157 0.03529412 0.07058824
0.03137255 0.03921569 0.07058824
0.07450980 0.04313725 0.07450980
0.12156863 0.04705882 0.07450980
0.18823529 0.05490196 0.07843137
0.28235294 0.06666667 0.08235294
0.37647059 0.07450980 0.08627451
0.49411765 0.08627451 0.09411765
0.64313725 0.10588235 0.09803922
0.76078431 0.12156863 0.10196078
0.85098039 0.14509804 0.09803922
0.92941176 0.17254902 0.09019608
0.99215686 0.21568627 0.07450980
0.03137255 0.08235294 0.07843137
0.05490196 0.08627451 0.08235294
0.08235294 0.09019608 0.08235294
0.12941176 0.09411765 0.08235294
0.19607843 0.10196078 0.08627451
0.29019608 0.11372549 0.09019608
0.38823529 0.12549020 0.09411765
0.50588235 0.14117647 0.09803922
0.65490196 0.16470588 0.10588235
0.76862745 0.18823529 0.10588235
0.86274510 0.21568627 0.09803922
0.93725490 0.25098039 0.09019608
0.99607843 0.28235294 0.07450980
0.07058824 0.16078431 0.09019608
0.08627451 0.16078431 0.09019608
0.10980392 0.16862745 0.09019608
0.14509804 0.17647059 0.09411765
0.21176471 0.18431373 0.09803922
