core/profiles/src/main/assets/luts/kodak_elite_color_200.cube
# Source: RawTherapee Film Simulation Collection (HaldCLUT.zip)
# Converted from: HaldCLUT/Color/Kodak/Kodak Elite Color 200.png
TITLE "kodak_elite_color_200"
LUT_3D_SIZE 13
DOMAIN_MIN 0.0 0.0 0.0
DOMAIN_MAX 1.0 1.0 1.0
0.00000000 0.00000000 0.00000000
0.03921569 0.00000000 0.00000000
0.09411765 0.00000000 0.00000000
0.15294118 0.00000000 0.00000000
0.21568627 0.00000000 0.00000000
0.28627451 0.00392157 0.00392157
0.36862745 0.00392157 0.00392157
0.45882353 0.00784314 0.01176471
0.57254902 0.01176471 0.01568627
0.67450980 0.02352941 0.02352941
0.78039216 0.03921569 0.03529412
0.87843137 0.06274510 0.05098039
0.96862745 0.09411765 0.07450980
0.01568627 0.03137255 0.00000000
0.05098039 0.03529412 0.00000000
0.10196078 0.03921569 0.00000000
0.16078431 0.04313725 0.00392157
0.22352941 0.04705882 0.00392157
0.29411765 0.05490196 0.00784314
0.37647059 0.06274510 0.01176471
0.46666667 0.07058824 0.01568627
0.57647059 0.08235294 0.01960784
0.68235294 0.09803922 0.03137255
0.78431373 0.11372549 0.04313725
0.88235294 0.13725490 0.06274510
0.96862745 0.16862745 0.08627451
0.04705882 0.08627451 0.00784314
0.07058824 0.08627451 0.00784314
0.11372549 0.09019608 0.00784314
0.16862745 0.09411765 0.01176471
0.23137255 0.09803922 0.01568627
0.30196078 0.10588235 0.01960784
0.38431373 0.11372549 0.02352941
0.47843137 0.12156863 0.03529412
0.58431373 0.13333333 0.04313725
0.68627451 0.14509804 0.05490196
0.79215686 0.16078431 0.06666667
0.88627451 0.18431373 0.08627451
0.97254902 0.21176471 0.10980392
0.08627451 0.14117647 0.01568627
0.10196078 0.14117647 0.01960784
0.13333333 0.14509804 0.01960784
0.18039216 0.14901961 0.02352941
0.24313725 0.15294118 0.02745098
0.31372549 0.15686275 0.03137255
0.39607843 0.16470588 0.03921569
0.49019608 0.17254902 0.04705882
0.59607843 0.18039216 0.05882353
0.69803922 0.19607843 0.06666667
0.80000000 0.21176471 0.08235294
0.89019608 0.23137255 0.09803922
0.97647059 0.25882353 0.12156863
0.12156863 0.20000000 0.02352941
0.13725490 0.20000000 0.02745098
0.16078431 0.20392157 0.02745098
0.19607843 0.20392157 0.03137255
0.25882353 0.20784314 0.03529412
0.32549020 0.21568627 0.03921569
0.41176471 0.21960784 0.04705882
0.50588235 0.22745098 0.05490196
0.60784314 0.23529412 0.06274510
0.70980392 0.24705882 0.07450980
0.80784314 0.26274510 0.09019608
0.89803922 0.28235294 0.10588235
0.98431373 0.30980392 0.12549020
0.12549020 0.26274510 0.02745098
0.13725490 0.26666667 0.02745098
0.16470588 0.26666667 0.03137255
0.21568627 0.27058824 0.03529412
0.27450980 0.27450980 0.03921569
0.34509804 0.27843137 0.04313725
0.43137255 0.28627451 0.04705882
0.52549020 0.29019608 0.05490196
0.62352941 0.30196078 0.06274510
0.72156863 0.31372549 0.07450980
0.81960784 0.32941176 0.08627451
0.90980392 0.34901961 0.10588235
0.98823529 0.37254902 0.12156863
0.11764706 0.34509804 0.01960784
0.14117647 0.34509804 0.01960784
0.17647059 0.34901961 0.02352941
0.22745098 0.34901961 0.02352941
0.29019608 0.35294118 0.02745098
0.36470588 0.35686275 0.03137255
0.45882353 0.36470588 0.03529412
0.54901961 0.36862745 0.04313725
0.64313725 0.37647059 0.05098039
0.74117647 0.38823529 0.06274510
0.83529412 0.40000000 0.07450980
0.92156863 0.41568627 0.09019608
0.99607843 0.43529412 0.11372549
0.14901961 0.41568627 0.01176471
0.16470588 0.41960784 0.01176471
0.19607843 0.41960784 0.01176471
0.24705882 0.41960784 0.01176471
0.30980392 0.42352941 0.01568627
0.39215686 0.42745098 0.01960784
0.48627451 0.43137255 0.02352941
0.57254902 0.43529412 0.02745098
0.66274510 0.44313725 0.03529412
0.76078431 0.45098039 0.04313725
0.85098039 0.46274510 0.05882353
0.93333333 0.47843137 0.07450980
1.00000000 0.49803922 0.09411765
0.17647059 0.49019608 0.00000000
0.19607843 0.49019608 0.00000000
0.23137255 0.49019608 0.00000000
0.27843137 0.49411765 0.00000000
0.34509804 0.49411765 0.00392157
0.43137255 0.49803922 0.00392157
0.52156863 0.50196078 0.00784314
0.60000000 0.50588235 0.00784314
0.69019608 0.50980392 0.01568627
0.78431373 0.51764706 0.01960784
0.87058824 0.52549020 0.03137255
0.94901961 0.53725490 0.04705882
1.00000000 0.55686275 0.06666667
0.22745098 0.56078431 0.00000000
0.24313725 0.56078431 0.00000000
0.27843137 0.56078431 0.00000000
0.32941176 0.56078431 0.00000000
0.40000000 0.56078431 0.00000000
0.47843137 0.56078431 0.00000000
0.56078431 0.56078431 0.00000000
0.63921569 0.56470588 0.00000000
0.72549020 0.56862745 0.00000000
0.81176471 0.57254902 0.00000000
0.89411765 0.58039216 0.00392157
0.96862745 0.58823529 0.01176471
1.00000000 0.60392157 0.02745098
0.29803922 0.62352941 0.00000000
0.31372549 0.62352941 0.00000000
0.34509804 0.62352941 0.00000000
0.39607843 0.61960784 0.00000000
0.45490196 0.61960784 0.00000000
0.52549020 0.61960784 0.00000000
0.60000000 0.61960784 0.00000000
0.67450980 0.61960784 0.00000000
0.76078431 0.62352941 0.00000000
0.84313725 0.62352941 0.00000000
0.91764706 0.62352941 0.00000000
0.99215686 0.62745098 0.00000000
1.00000000 0.63921569 0.00000000
0.38431373 0.67450980 0.00000000
0.39607843 0.67450980 0.00000000
0.42352941 0.67450980 0.00000000
0.46274510 0.67450980 0.00000000
0.51372549 0.67450980 0.00000000
0.57647059 0.67450980 0.00000000
0.64705882 0.67450980 0.00000000
0.71764706 0.67450980 0.00000000
0.79215686 0.67450980 0.00000000
0.87058824 0.67450980 0.00000000
0.94117647 0.67450980 0.00000000
1.00000000 0.67450980 0.00000000
1.00000000 0.67843137 0.00000000
0.46274510 0.72156863 0.00000000
0.47450980 0.72156863 0.00000000
0.49411765 0.72156863 0.00000000
0.52941176 0.72156863 0.00000000
0.57647059 0.72156863 0.00000000
0.63137255 0.72156863 0.00000000
0.69411765 0.72156863 0.00000000
0.76078431 0.72156863 0.00000000
0.83137255 0.71764706 0.00000000
0.89803922 0.71764706 0.00000000
0.96862745 0.71764706 0.00000000
1.00000000 0.71764706 0.00000000
1.00000000 0.71764706 0.00000000
0.00000000 0.00000000 0.04705882
0.04705882 0.00000000 0.05490196
0.10196078 0.00392157 0.05882353
0.15686275 0.00392157 0.06666667
0.22352941 0.00784314 0.07058824
0.29411765 0.01176471 0.07843137
0.37647059 0.01568627 0.08627451
0.47058824 0.01960784 0.09411765
0.57647059 0.02745098 0.10588235
0.68235294 0.04313725 0.11764706
0.78431373 0.06274510 0.12941176
0.88235294 0.08627451 0.14901961
0.96862745 0.11764706 0.17254902
0.01960784 0.04705882 0.04705882
0.05098039 0.05098039 0.05098039
0.10588235 0.05490196 0.05490196
0.16470588 0.05882353 0.06274510
0.22745098 0.06666667 0.06666667
0.29803922 0.07450980 0.07450980
0.38039216 0.07843137 0.08235294
0.47450980 0.09019608 0.09019608
0.58039216 0.09803922 0.10196078
0.68627451 0.11372549 0.11372549
0.78823529 0.13333333 0.12549020
0.88235294 0.15686275 0.14509804
0.96862745 0.18823529 0.16470588
0.05098039 0.09803922 0.05490196
0.07843137 0.09803922 0.05490196
0.11372549 0.10196078 0.05882353
0.17254902 0.10588235 0.06666667
0.23529412 0.11372549 0.07058824
0.30588235 0.11764706 0.07843137
0.38823529 0.12549020 0.08627451
0.48235294 0.13333333 0.09411765
0.58823529 0.14509804 0.10196078
0.69019608 0.15686275 0.11372549
0.79215686 0.17647059 0.12941176
0.88627451 0.19607843 0.14509804
0.97254902 0.22745098 0.16470588
0.09019608 0.14901961 0.05882353
0.10588235 0.15294118 0.06274510
0.13725490 0.15294118 0.06666667
0.18039216 0.15686275 0.07058824
0.24705882 0.16078431 0.07450980
0.31372549 0.16862745 0.08235294
0.40000000 0.17647059 0.09019608
0.49411765 0.18431373 0.09803922
0.59607843 0.19215686 0.10588235
0.69803922 0.20784314 0.11764706
0.80000000 0.21960784 0.12941176
0.89411765 0.24313725 0.14509804
0.97647059 0.27058824 0.16862745
0.12156863 0.20784314 0.06274510
0.13333333 0.20784314 0.06274510
0.15686275 0.21176471 0.06666667
0.19607843 0.21568627 0.07058824
0.25882353 0.21960784 0.07450980
0.32941176 0.22352941 0.07843137
0.41568627 0.22745098 0.08627451
0.50980392 0.23529412 0.09411765
0.60784314 0.24705882 0.10196078
0.70980392 0.25882353 0.11372549
0.80784314 0.27450980 0.12941176
0.89803922 0.29411765 0.14509804
0.98039216 0.32156863 0.16470588
0.12549020 0.27058824 0.05882353
0.13725490 0.27450980 0.05882353
0.16078431 0.27450980 0.06274510
0.21568627 0.27843137 0.06666667
0.27450980 0.28235294 0.07058824
0.34509804 0.28627451 0.07450980
0.43529412 0.29411765 0.08235294
0.52941176 0.29803922 0.09019608
0.62745098 0.30980392 0.09803922
0.72549020 0.32156863 0.10980392
0.81960784 0.33725490 0.12156863
0.90980392 0.35686275 0.13725490
0.98823529 0.38039216 0.15686275
0.11764706 0.35294118 0.04705882
0.13725490 0.35294118 0.04705882
0.17647059 0.35294118 0.04705882
0.22745098 0.35686275 0.05098039
0.29019608 0.36078431 0.05490196
0.36470588 0.36470588 0.05882353
0.45882353 0.36862745 0.06666667
0.54901961 0.37647059 0.07450980
0.64313725 0.38431373 0.08235294
0.74117647 0.39607843 0.09411765
0.83529412 0.40784314 0.10588235
0.92156863 0.42352941 0.12156863
0.99607843 0.44705882 0.14117647
0.14509804 0.42352941 0.02745098
0.16078431 0.42352941 0.02745098
0.19607843 0.42352941 0.02745098
0.24705882 0.42745098 0.03137255
0.30980392 0.43137255 0.03529412
0.39215686 0.43137255 0.03921569
0.48627451 0.43921569 0.04313725
0.57254902 0.44313725 0.05098039
0.66274510 0.45098039 0.05882353
0.76078431 0.45882353 0.07058824
0.85098039 0.47058824 0.08235294
0.93333333 0.48235294 0.09803922
1.00000000 0.50588235 0.12156863
0.17254902 0.49803922 0.00784314
0.19215686 0.49803922 0.00784314
0.22745098 0.49803922 0.01176471
0.27843137 0.49803922 0.01176471
0.34509804 0.50196078 0.01176471
0.43137255 0.50588235 0.01568627
0.52156863 0.50980392 0.01960784
0.60000000 0.51372549 0.02352941
0.69019608 0.51764706 0.03137255
0.78039216 0.52549020 0.03921569
0.86666667 0.53333333 0.05490196
0.94901961 0.54509804 0.07058824
1.00000000 0.56078431 0.09019608
0.23529412 0.56078431 0.00000000
0.25098039 0.56078431 0.00000000
0.28235294 0.56078431 0.00000000
0.33333333 0.56078431 0.00000000
0.40392157 0.56078431 0.00000000
0.48235294 0.56470588 0.00000000
0.56078431 0.56862745 0.00000000
0.63529412 0.56862745 0.00392157
0.72549020 0.57254902 0.00784314
0.81176471 0.58039216 0.01176471
0.89019608 0.58823529 0.01960784
0.96862745 0.59607843 0.03137255
1.00000000 0.61176471 0.05098039
0.30196078 0.62352941 0.00000000
0.31764706 0.62352941 0.00000000
0.35294118 0.62352941 0.00000000
0.40000000 0.62352941 0.00000000
0.46274510 0.61960784 0.00000000
0.52941176 0.61960784 0.00000000
0.60392157 0.61960784 0.00000000
0.67843137 0.62352941 0.00000000
0.76078431 0.62352941 0.00000000
0.84313725 0.62352941 0.00000000
0.92156863 0.62745098 0.00000000
0.99215686 0.63529412 0.00000000
1.00000000 0.64705882 0.00784314
0.38823529 0.67843137 0.00000000
0.40000000 0.67450980 0.00000000
0.42745098 0.67450980 0.00000000
0.46666667 0.67450980 0.00000000
0.51764706 0.67450980 0.00000000
0.58039216 0.67450980 0.00000000
0.65098039 0.67450980 0.00000000
0.71764706 0.67450980 0.00000000
0.79607843 0.67450980 0.00000000
0.87058824 0.67450980 0.00000000
0.94509804 0.67450980 0.00000000
1.00000000 0.67450980 0.00000000
1.00000000 0.67843137 0.00000000
0.47058824 0.72549020 0.00000000
0.47843137 0.72156863 0.00000000
0.50196078 0.72156863 0.00000000
0.53333333 0.72156863 0.00000000
0.58039216 0.72156863 0.00000000
0.63529412 0.72156863 0.00000000
0.69803922 0.72156863 0.00000000
0.76078431 0.72156863 0.00000000
0.83137255 0.71764706 0.00000000
0.90196078 0.71764706 0.00000000
0.96862745 0.71764706 0.00000000
1.00000000 0.71764706 0.00000000
1.00000000 0.71764706 0.00000000
0.00000000 0.00784314 0.10588235
0.05098039 0.00784314 0.11372549
0.10588235 0.00784314 0.11764706
0.16078431 0.01176471 0.12549020
0.22745098 0.01568627 0.12941176
0.29803922 0.01960784 0.13725490
0.38039216 0.02352941 0.14509804
0.47450980 0.03137255 0.15294118
0.58039216 0.04313725 0.16470588
0.68627451 0.05882353 0.17254902
0.78823529 0.07450980 0.18823529
0.88235294 0.09803922 0.20392157
0.96862745 0.13333333 0.22352941
0.01960784 0.06274510 0.10588235
0.05490196 0.06666667 0.10980392
0.10588235 0.07058824 0.11372549
0.16862745 0.07450980 0.12156863
0.23137255 0.07843137 0.12549020
0.30196078 0.08627451 0.13333333
0.38431373 0.09411765 0.14117647
0.47843137 0.10196078 0.14901961
0.58431373 0.11372549 0.15686275
0.68627451 0.12549020 0.16862745
0.79215686 0.14509804 0.18039216
0.88627451 0.16862745 0.19607843
0.96862745 0.20000000 0.21960784
0.05490196 0.10980392 0.10980392
0.08235294 0.10980392 0.10980392
0.11372549 0.11372549 0.11372549
0.17254902 0.11764706 0.12156863
0.23921569 0.12549020 0.12549020
0.30980392 0.12941176 0.13333333
0.39215686 0.13725490 0.13725490
0.48627451 0.14509804 0.14509804
0.59215686 0.15686275 0.15686275
0.69411765 0.17254902 0.16862745
0.79607843 0.18823529 0.18039216
0.88627451 0.21176471 0.19607843
0.97254902 0.23921569 0.21960784
0.09411765 0.16078431 0.11372549
0.10980392 0.16470588 0.11372549
0.14117647 0.16470588 0.11764706
0.18431373 0.16862745 0.12156863
0.24705882 0.17254902 0.12549020
0.31764706 0.18039216 0.13333333
0.40000000 0.18823529 0.14117647
0.49803922 0.19607843 0.14901961
0.60000000 0.20392157 0.15686275
0.70196078 0.21960784 0.16862745
0.80000000 0.23529412 0.18039216
0.89411765 0.25490196 0.19607843
0.97647059 0.28235294 0.21568627
0.11372549 0.21960784 0.10980392
0.12941176 0.21960784 0.11372549
0.15686275 0.22352941 0.11764706
0.19607843 0.22352941 0.11764706
0.25882353 0.23137255 0.12549020
0.32941176 0.23529412 0.12941176
0.41568627 0.23921569 0.13725490
0.50980392 0.24705882 0.14509804
0.61176471 0.25882353 0.15294118
0.70980392 0.27058824 0.16470588
0.80784314 0.28627451 0.17647059
0.89803922 0.30588235 0.19215686
0.98039216 0.33333333 0.21568627
0.12549020 0.28235294 0.10588235
0.13333333 0.28235294 0.10980392
0.16078431 0.28627451 0.10980392
0.21176471 0.29019608 0.11372549
0.27450980 0.29411765 0.11764706
0.34509804 0.29803922 0.12549020
0.43529412 0.30588235 0.12941176
0.52941176 0.31372549 0.13725490
0.62745098 0.32156863 0.14509804
0.72549020 0.33333333 0.15686275
0.81960784 0.34901961 0.16862745
0.90980392 0.36862745 0.18823529
0.98823529 0.39607843 0.20784314
0.11372549 0.36470588 0.09411765
0.13725490 0.36470588 0.09411765
0.17254902 0.36470588 0.09411765
0.22745098 0.36862745 0.09803922
0.29019608 0.37254902 0.10196078
0.36470588 0.37647059 0.10980392
0.45882353 0.38431373 0.11372549
0.54901961 0.38823529 0.12156863
0.64313725 0.39607843 0.12941176
0.74117647 0.40784314 0.14117647
0.83529412 0.41960784 0.15294118
0.91764706 0.43529412 0.16862745
0.99607843 0.45882353 0.19215686
0.14509804 0.43529412 0.07058824
0.15686275 0.43529412 0.07450980
0.18823529 0.43529412 0.07450980
0.24313725 0.43921569 0.07843137
0.30980392 0.44313725 0.08235294
0.39215686 0.44705882 0.08627451
0.48627451 0.45098039 0.09411765
0.57254902 0.45490196 0.09803922
0.66274510 0.46274510 0.10980392
0.75686275 0.47058824 0.11764706
0.84705882 0.48235294 0.13333333
0.92941176 0.49803922 0.14509804
1.00000000 0.51764706 0.16862745
0.16470588 0.50980392 0.04313725
0.18431373 0.50980392 0.04313725
0.22352941 0.50980392 0.04313725
0.27450980 0.50980392 0.04705882
0.34509804 0.51372549 0.05098039
0.43137255 0.51764706 0.05490196
0.51764706 0.52156863 0.05882353
0.60000000 0.52549020 0.06666667
0.69019608 0.52941176 0.07450980
0.78039216 0.53725490 0.08627451
0.86666667 0.54509804 0.09803922
0.94509804 0.56078431 0.11372549
1.00000000 0.57647059 0.13333333
0.22745098 0.57254902 0.01176471
0.24705882 0.57254902 0.01176471
0.27843137 0.57254902 0.01176471
0.33333333 0.57254902 0.01176471
0.40000000 0.57254902 0.01568627
0.47843137 0.57647059 0.01960784
0.56078431 0.58039216 0.01960784
0.63529412 0.58039216 0.02745098
0.72156863 0.58823529 0.03137255
0.80784314 0.59215686 0.04313725
0.89019608 0.60000000 0.05490196
0.96470588 0.60784314 0.07058824
1.00000000 0.62352941 0.09411765
0.31372549 0.62352941 0.00000000
0.32941176 0.62352941 0.00000000
0.36078431 0.62352941 0.00000000
0.41176471 0.62352941 0.00000000
0.47058824 0.62352941 0.00000000
0.53725490 0.62352941 0.00000000
0.61176471 0.62352941 0.00000000
0.68235294 0.62745098 0.00000000
0.76470588 0.62745098 0.00000000
0.84313725 0.63529412 0.00392157
0.91764706 0.63921569 0.00784314
0.98823529 0.64705882 0.01960784
1.00000000 0.65882353 0.03921569
0.40000000 0.67843137 0.00000000
0.41176471 0.67843137 0.00000000
0.43529412 0.67843137 0.00000000
0.47450980 0.67450980 0.00000000
0.52549020 0.67450980 0.00000000
0.58823529 0.67450980 0.00000000
0.65490196 0.67450980 0.00000000
0.72549020 0.67450980 0.00000000
0.80000000 0.67450980 0.00000000
0.87450980 0.67450980 0.00000000
0.94901961 0.67450980 0.00000000
1.00000000 0.67450980 0.00000000
1.00000000 0.67843137 0.00000000
0.47843137 0.72549020 0.00000000
0.48627451 0.72549020 0.00000000
0.50980392 0.72549020 0.00000000
0.54117647 0.72156863 0.00000000
0.58431373 0.72156863 0.00000000
0.63921569 0.72156863 0.00000000
0.70588235 0.72156863 0.00000000
0.76862745 0.72156863 0.00000000
0.83529412 0.72156863 0.00000000
0.90588235 0.71764706 0.00000000
0.97254902 0.71764706 0.00000000
1.00000000 0.71764706 0.00000000
1.00000000 0.71764706 0.00000000
0.00000000 0.01568627 0.16862745
0.05098039 0.01568627 0.17647059
0.10980392 0.01960784 0.18039216
0.16862745 0.02352941 0.18823529
0.23137255 0.02352941 0.19215686
0.30196078 0.03137255 0.20000000
0.38431373 0.03921569 0.20392157
0.47843137 0.04705882 0.21176471
0.58431373 0.05882353 0.21960784
0.68627451 0.07058824 0.23137255
0.78823529 0.09019608 0.24313725
0.88235294 0.11372549 0.25882353
0.96862745 0.14509804 0.27843137
0.02352941 0.07843137 0.16862745
0.06274510 0.08235294 0.17254902
0.10980392 0.08235294 0.17647059
0.16862745 0.09019608 0.18039216
0.23529412 0.09411765 0.18823529
0.30588235 0.09803922 0.19215686
0.38823529 0.10588235 0.20000000
0.48235294 0.11372549 0.20784314
0.58823529 0.12549020 0.21568627
0.69019608 0.14117647 0.22745098
0.79215686 0.16078431 0.23921569
0.88627451 0.18039216 0.25490196
0.96862745 0.21176471 0.27450980
0.05882353 0.12156863 0.17254902
0.08627451 0.12549020 0.17254902
0.11764706 0.12941176 0.17647059
0.17647059 0.13333333 0.18431373
0.23921569 0.13725490 0.18823529
0.30980392 0.14509804 0.19607843
0.39607843 0.15294118 0.20000000
0.49019608 0.16078431 0.20784314
0.59607843 0.17254902 0.21960784
0.69411765 0.18431373 0.22745098
0.79607843 0.20392157 0.24313725
0.89019608 0.22352941 0.25490196
0.97254902 0.25098039 0.27450980
0.09803922 0.17647059 0.17254902
0.11372549 0.17647059 0.17647059
0.14509804 0.18039216 0.18039216
0.18431373 0.18431373 0.18431373
0.25098039 0.18823529 0.18823529
0.31764706 0.19607843 0.19607843
0.40392157 0.20000000 0.20392157
0.50196078 0.20784314 0.21176471
0.60392157 0.21960784 0.21960784
0.70196078 0.23137255 0.23137255
0.80392157 0.24705882 0.24313725
0.89411765 0.26666667 0.25882353
0.97647059 0.29411765 0.27843137
0.10980392 0.23529412 0.17647059
0.12549020 0.23529412 0.17647059
0.14901961 0.23921569 0.18039216
0.19607843 0.23921569 0.18431373
0.25882353 0.24313725 0.18823529
0.32941176 0.25098039 0.19607843
0.41960784 0.25490196 0.20000000
0.51372549 0.26274510 0.20784314
0.61568627 0.27450980 0.21960784
0.71372549 0.28627451 0.23137255
0.81176471 0.30196078 0.24313725
0.89803922 0.32156863 0.25882353
0.98039216 0.34901961 0.27843137
0.11372549 0.29803922 0.17254902
0.12549020 0.29803922 0.17254902
0.15686275 0.30196078 0.17254902
0.21176471 0.30588235 0.17647059
0.27450980 0.30980392 0.18431373
0.34509804 0.31372549 0.18823529
0.43921569 0.32156863 0.19607843
0.53333333 0.32549020 0.20392157
0.62745098 0.33725490 0.21176471
0.72549020 0.34901961 0.22352941
0.81960784 0.36470588 0.23529412
0.90588235 0.38431373 0.25490196
0.98823529 0.41176471 0.27450980
0.11372549 0.38039216 0.15686275
0.13333333 0.38039216 0.15686275
0.16862745 0.38039216 0.16078431
0.21960784 0.38431373 0.16078431
0.28627451 0.38823529 0.16470588
0.36470588 0.39215686 0.17254902
0.46274510 0.40000000 0.17647059
0.54901961 0.40392157 0.18431373
0.64313725 0.41176471 0.19607843
0.74117647 0.42352941 0.20784314
0.83137255 0.43529412 0.21960784
0.91764706 0.45098039 0.23921569
0.99215686 0.47450980 0.26274510
0.13333333 0.45098039 0.13333333
0.14509804 0.45098039 0.13725490
0.18039216 0.45490196 0.13725490
0.23529412 0.45490196 0.14117647
0.30588235 0.45882353 0.14509804
0.39215686 0.46274510 0.14901961
0.48627451 0.46666667 0.15686275
0.57254902 0.47450980 0.16078431
0.66274510 0.47843137 0.17254902
0.75686275 0.49019608 0.18431373
0.84705882 0.50196078 0.20000000
0.92549020 0.51372549 0.21960784
1.00000000 0.53333333 0.24313725
0.15294118 0.52549020 0.10196078
0.17254902 0.52549020 0.10196078
0.21176471 0.52549020 0.10588235
0.26666667 0.52941176 0.10588235
0.34117647 0.52941176 0.10980392
0.42745098 0.53333333 0.11764706
0.51764706 0.53725490 0.12156863
0.59607843 0.54117647 0.12941176
0.68627451 0.54901961 0.13725490
0.77647059 0.55686275 0.14901961
0.86274510 0.56470588 0.16078431
0.94117647 0.57647059 0.18431373
1.00000000 0.59607843 0.21176471
0.21568627 0.58823529 0.05882353
0.23529412 0.58823529 0.05882353
0.27058824 0.58823529 0.06274510
0.32549020 0.59215686 0.06274510
0.40000000 0.59215686 0.06666667
0.47450980 0.59607843 0.07450980
0.55686275 0.59607843 0.07843137
0.63137255 0.60000000 0.08627451
0.71764706 0.60392157 0.09411765
0.80392157 0.61176471 0.10588235
0.88627451 0.61960784 0.11764706
0.96078431 0.63137255 0.13333333
1.00000000 0.64313725 0.16470588
0.31372549 0.63529412 0.01176471
0.32941176 0.63529412 0.01176471
0.36078431 0.63529412 0.01176471
0.40784314 0.63529412 0.01568627
0.46666667 0.63921569 0.01568627
0.53333333 0.63921569 0.01960784
0.60784314 0.64313725 0.02352941
0.67843137 0.64313725 0.02745098
0.76078431 0.64705882 0.03529412
0.83921569 0.65490196 0.04705882
0.91372549 0.65882353 0.05882353
0.98431373 0.67058824 0.07450980
1.00000000 0.68235294 0.10196078
0.41568627 0.67843137 0.00000000
0.42745098 0.67843137 0.00000000
0.45098039 0.67843137 0.00000000
0.49019608 0.67843137 0.00000000
0.53725490 0.67450980 0.00000000
0.59607843 0.67450980 0.00000000
0.66666667 0.67450980 0.00000000
0.73333333 0.67450980 0.00000000
0.80784314 0.67450980 0.00000000
0.87843137 0.67843137 0.00000000
0.94901961 0.68235294 0.00000000
1.00000000 0.69019608 0.00392157
1.00000000 0.70196078 0.01960784
0.49019608 0.72549020 0.00000000
0.49803922 0.72549020 0.00000000
0.52156863 0.72549020 0.00000000
0.55294118 0.72549020 0.00000000
0.59607843 0.72156863 0.00000000
0.65098039 0.72156863 0.00000000
0.71372549 0.72156863 0.00000000
0.77254902 0.72156863 0.00000000
0.84313725 0.72156863 0.00000000
0.90980392 0.72156863 0.00000000
0.97647059 0.71764706 0.00000000
1.00000000 0.71764706 0.00000000
1.00000000 0.72156863 0.00000000
0.00000000 0.03137255 0.22745098
0.05490196 0.03137255 0.23529412
0.11372549 0.03137255 0.23921569
0.17254902 0.03529412 0.24705882
0.23529412 0.04313725 0.25098039
0.30588235 0.04313725 0.25882353
0.38823529 0.05490196 0.26274510
0.48627451 0.05882353 0.27058824
0.58823529 0.07450980 0.27843137
0.69019608 0.08627451 0.29019608
0.79215686 0.10196078 0.30196078
0.88627451 0.12549020 0.31764706
0.96862745 0.16078431 0.33725490
0.02745098 0.09411765 0.23137255
0.06666667 0.09411765 0.23529412
0.10980392 0.09803922 0.23921569
0.17254902 0.10196078 0.24705882
0.23921569 0.10980392 0.25098039
0.30980392 0.11372549 0.25882353
0.39215686 0.12156863 0.26274510
0.49019608 0.12941176 0.27058824
0.59215686 0.14117647 0.27843137
0.69411765 0.15686275 0.29019608
0.79607843 0.17254902 0.30196078
0.88627451 0.19607843 0.31764706
0.96862745 0.22745098 0.33725490
0.06274510 0.13725490 0.23921569
0.09019608 0.14117647 0.23921569
0.12549020 0.14509804 0.24313725
0.17647059 0.14901961 0.24705882
0.24313725 0.15294118 0.25490196
0.31372549 0.15686275 0.25882353
0.40000000 0.16470588 0.26666667
0.49411765 0.17647059 0.27450980
0.59607843 0.18431373 0.28235294
0.69803922 0.20000000 0.29411765
0.80000000 0.21568627 0.30588235
0.89019608 0.23921569 0.32156863
0.97254902 0.26666667 0.34117647
0.10196078 0.19215686 0.24313725
0.11764706 0.19215686 0.24705882
0.14901961 0.19607843 0.24705882
0.18823529 0.20000000 0.25490196
0.25098039 0.20392157 0.25882353
