core/profiles/src/main/assets/luts/kodak_portra_800_hc.cube
# Source: RawTherapee Film Simulation Collection (HaldCLUT.zip)
# Converted from: HaldCLUT/Color/Kodak/Kodak Portra 800 HC.png
TITLE "kodak_portra_800_hc"
LUT_3D_SIZE 13
DOMAIN_MIN 0.0 0.0 0.0
DOMAIN_MAX 1.0 1.0 1.0
0.00392157 0.00784314 0.00784314
0.03137255 0.00784314 0.00392157
0.08235294 0.00784314 0.00392157
0.17254902 0.00000000 0.00392157
0.31372549 0.00000000 0.00000000
0.50196078 0.00000000 0.00000000
0.67450980 0.00000000 0.00000000
0.80392157 0.00000000 0.00000000
0.90588235 0.00000000 0.00000000
0.98039216 0.00000000 0.00000000
1.00000000 0.00000000 0.00000000
1.00000000 0.00000000 0.00000000
1.00000000 0.10588235 0.00000000
0.00392157 0.03137255 0.01176471
0.02352941 0.03529412 0.00784314
0.08627451 0.03921569 0.00784314
0.17647059 0.02745098 0.00784314
0.32156863 0.00000000 0.00000000
0.50196078 0.00000000 0.00000000
0.67450980 0.00000000 0.00000000
0.80784314 0.00000000 0.00000000
0.90588235 0.00000000 0.00000000
0.97647059 0.00000000 0.00000000
1.00000000 0.00000000 0.00000000
1.00000000 0.04313725 0.00000000
1.00000000 0.17647059 0.00000000
0.00000000 0.07843137 0.01960784
0.00392157 0.07450980 0.01568627
0.05882353 0.09019608 0.00784314
0.17647059 0.10196078 0.00000000
0.32156863 0.07843137 0.00000000
0.49803922 0.00000000 0.00000000
0.67843137 0.00000000 0.00000000
0.80392157 0.00000000 0.00000000
0.89803922 0.00000000 0.00000000
0.96862745 0.04705882 0.00000000
1.00000000 0.14509804 0.00000000
1.00000000 0.21176471 0.00000000
1.00000000 0.26666667 0.00000000
0.00000000 0.14509804 0.01568627
0.00000000 0.14509804 0.01568627
0.00000000 0.15686275 0.00784314
0.11764706 0.18431373 0.00000000
0.31764706 0.21960784 0.00000000
0.50196078 0.21568627 0.00000000
0.67058824 0.20784314 0.00000000
0.78823529 0.22352941 0.00000000
0.88235294 0.25098039 0.00000000
0.95294118 0.27843137 0.00000000
1.00000000 0.30980392 0.00000000
1.00000000 0.33725490 0.00000000
1.00000000 0.36862745 0.00000000
0.00000000 0.25490196 0.00000000
0.00000000 0.25490196 0.00000000
0.00000000 0.25882353 0.00000000
0.00000000 0.29019608 0.00000000
0.23921569 0.33333333 0.00000000
0.48627451 0.38823529 0.00000000
0.64705882 0.38823529 0.00000000
0.76078431 0.39607843 0.00000000
0.85882353 0.40784314 0.00000000
0.92941176 0.42352941 0.00000000
1.00000000 0.43921569 0.00000000
1.00000000 0.44705882 0.00000000
1.00000000 0.46274510 0.00000000
0.00000000 0.38039216 0.00000000
0.00000000 0.38039216 0.00000000
0.00000000 0.37254902 0.00000000
0.00000000 0.39215686 0.00000000
0.12156863 0.43137255 0.00000000
0.38039216 0.47058824 0.00000000
0.61568627 0.53333333 0.00000000
0.72941176 0.53333333 0.00000000
0.82352941 0.53333333 0.00000000
0.90588235 0.53333333 0.00000000
0.97647059 0.54117647 0.00000000
1.00000000 0.54901961 0.00000000
1.00000000 0.55294118 0.00000000
0.00000000 0.49411765 0.00000000
0.00000000 0.49411765 0.00000000
0.00000000 0.49019608 0.00000000
0.00000000 0.48627451 0.00000000
0.00000000 0.51764706 0.00000000
0.29019608 0.54901961 0.00000000
0.50980392 0.58039216 0.00000000
0.68235294 0.62745098 0.00000000
0.79215686 0.63921569 0.00000000
0.87843137 0.63529412 0.00000000
0.95686275 0.63529412 0.00000000
1.00000000 0.62745098 0.00000000
1.00000000 0.63137255 0.00000000
0.00000000 0.57647059 0.00000000
0.00000000 0.58431373 0.00000000
0.00000000 0.58039216 0.00000000
0.00000000 0.57647059 0.00000000
0.00000000 0.58431373 0.00000000
0.23137255 0.61176471 0.00000000
0.44705882 0.63921569 0.00000000
0.60392157 0.66274510 0.00000000
0.75686275 0.69803922 0.00000000
0.85098039 0.70588235 0.00000000
0.93333333 0.70588235 0.00000000
1.00000000 0.70196078 0.00000000
1.00000000 0.69411765 0.00000000
0.00000000 0.66666667 0.00000000
0.00000000 0.67058824 0.00000000
0.00000000 0.67058824 0.00000000
0.00000000 0.66274510 0.00000000
0.00000000 0.65882353 0.00000000
0.20392157 0.67843137 0.00000000
0.41568627 0.69803922 0.00000000
0.55686275 0.71372549 0.00000000
0.69019608 0.73725490 0.00000000
0.81176471 0.76078431 0.00000000
0.91764706 0.78039216 0.00000000
0.99215686 0.77254902 0.00000000
1.00000000 0.76470588 0.00000000
0.00000000 0.74509804 0.00000000
0.00000000 0.74901961 0.00000000
0.00000000 0.74509804 0.00000000
0.00000000 0.74117647 0.00000000
0.00000000 0.73725490 0.00000000
0.23529412 0.74117647 0.00000000
0.41176471 0.75686275 0.00000000
0.53725490 0.77254902 0.00000000
0.65098039 0.78431373 0.00000000
0.76078431 0.80392157 0.00000000
0.87058824 0.82352941 0.00000000
0.97647059 0.83921569 0.00000000
1.00000000 0.83529412 0.00000000
0.00000000 0.81568627 0.15294118
0.00000000 0.81960784 0.15686275
0.00000000 0.81568627 0.14901961
0.00000000 0.81568627 0.14509804
0.17647059 0.81176471 0.13725490
0.30588235 0.80784314 0.11764706
0.43137255 0.81568627 0.07843137
0.53725490 0.83137255 0.00000000
0.63529412 0.84313725 0.00000000
0.72941176 0.85490196 0.00000000
0.83137255 0.87058824 0.00000000
0.92941176 0.88235294 0.00000000
1.00000000 0.90196078 0.00000000
0.11764706 0.89411765 0.32156863
0.15686275 0.89411765 0.32156863
0.20784314 0.89411765 0.32156863
0.27058824 0.89019608 0.31764706
0.33333333 0.88627451 0.31372549
0.40392157 0.88627451 0.30980392
0.48235294 0.89019608 0.29803922
0.55686275 0.89803922 0.27843137
0.63921569 0.90980392 0.25098039
0.72156863 0.91764706 0.20392157
0.80784314 0.92549020 0.10588235
0.89803922 0.93333333 0.00000000
0.98823529 0.93725490 0.00000000
0.40784314 0.96862745 0.52941176
0.41176471 0.96862745 0.52941176
0.42745098 0.96470588 0.52549020
0.45098039 0.96470588 0.52941176
0.48627451 0.96862745 0.53333333
0.52549020 0.96862745 0.53333333
0.56862745 0.96862745 0.53725490
0.61568627 0.97254902 0.52549020
0.67450980 0.98039216 0.50980392
0.74117647 0.98431373 0.48235294
0.80784314 0.98431373 0.44313725
0.88235294 0.98823529 0.37647059
0.96078431 0.99215686 0.25882353
0.00784314 0.00784314 0.03921569
0.03529412 0.00784314 0.03921569
0.08235294 0.00392157 0.03529412
0.16862745 0.00000000 0.03137255
0.30980392 0.00000000 0.03137255
0.49019608 0.00000000 0.02352941
0.67058824 0.00000000 0.00784314
0.80392157 0.00000000 0.00000000
0.90196078 0.00000000 0.00000000
0.97254902 0.00000000 0.00000000
1.00000000 0.00000000 0.00000000
1.00000000 0.00000000 0.00000000
1.00000000 0.07843137 0.00000000
0.00784314 0.03529412 0.03921569
0.02745098 0.03529412 0.03921569
0.08235294 0.03529412 0.03529412
0.17647059 0.02352941 0.03529412
0.31764706 0.00000000 0.03137255
0.49411765 0.00000000 0.01960784
0.67058824 0.00000000 0.00000000
0.80392157 0.00000000 0.00000000
0.90196078 0.00000000 0.00000000
0.97254902 0.00000000 0.00000000
0.99607843 0.00000000 0.00000000
1.00000000 0.01960784 0.00000000
1.00000000 0.16862745 0.00000000
0.00392157 0.08235294 0.04705882
0.01568627 0.08235294 0.04313725
0.06666667 0.09411765 0.03529412
0.18039216 0.09803922 0.03137255
0.32549020 0.07843137 0.02352941
0.49803922 0.00000000 0.00392157
0.67843137 0.00000000 0.00000000
0.80392157 0.00000000 0.00000000
0.89411765 0.00000000 0.00000000
0.96470588 0.02745098 0.00000000
1.00000000 0.14117647 0.00000000
1.00000000 0.20392157 0.00000000
1.00000000 0.26274510 0.00000000
0.00000000 0.16078431 0.04313725
0.00000000 0.15686275 0.04313725
0.00784314 0.16078431 0.03529412
0.13333333 0.18823529 0.01176471
0.32156863 0.21568627 0.00000000
0.50196078 0.21176471 0.00000000
0.67450980 0.21176471 0.00000000
0.78823529 0.21960784 0.00000000
0.87843137 0.24313725 0.00000000
0.95294118 0.27450980 0.00000000
1.00000000 0.30588235 0.00000000
1.00000000 0.33725490 0.00000000
1.00000000 0.36862745 0.00000000
0.00000000 0.27058824 0.02352941
0.00000000 0.26666667 0.02352941
0.00000000 0.26666667 0.02352941
0.00784314 0.29411765 0.00000000
0.25098039 0.33333333 0.00000000
0.49019608 0.38039216 0.00000000
0.65098039 0.38823529 0.00000000
0.76470588 0.39215686 0.00000000
0.85490196 0.40000000 0.00000000
0.92941176 0.41960784 0.00000000
1.00000000 0.43529412 0.00000000
1.00000000 0.44705882 0.00000000
1.00000000 0.46274510 0.00000000
0.00000000 0.39215686 0.00000000
0.00000000 0.39215686 0.00000000
0.00000000 0.38431373 0.00000000
0.00000000 0.39607843 0.00000000
0.14509804 0.43137255 0.00000000
0.38823529 0.47450980 0.00000000
0.61568627 0.52941176 0.00000000
0.72941176 0.53333333 0.00000000
0.82352941 0.53333333 0.00000000
0.90196078 0.53333333 0.00000000
0.97647059 0.54117647 0.00000000
1.00000000 0.54509804 0.00000000
1.00000000 0.55294118 0.00000000
0.00000000 0.50588235 0.00000000
0.00000000 0.50196078 0.00000000
0.00000000 0.49803922 0.00000000
0.00000000 0.49411765 0.00000000
0.00000000 0.51764706 0.00000000
0.30196078 0.55294118 0.00000000
0.51764706 0.58431373 0.00000000
0.69019608 0.62745098 0.00000000
0.79215686 0.63529412 0.00000000
0.87450980 0.63137255 0.00000000
0.95686275 0.63137255 0.00000000
1.00000000 0.62745098 0.00000000
1.00000000 0.62745098 0.00000000
0.00000000 0.58431373 0.00000000
0.00000000 0.59215686 0.00000000
0.00000000 0.58823529 0.00000000
0.00000000 0.58039216 0.00000000
0.00000000 0.58823529 0.00000000
0.24705882 0.61568627 0.00000000
0.45882353 0.63921569 0.00000000
0.60784314 0.66274510 0.00000000
0.75686275 0.69803922 0.00000000
0.85490196 0.70980392 0.00000000
0.93333333 0.70196078 0.00000000
1.00000000 0.70196078 0.00000000
1.00000000 0.69411765 0.00000000
0.00000000 0.67058824 0.00000000
0.00000000 0.67843137 0.00000000
0.00000000 0.67450980 0.00000000
0.00000000 0.66666667 0.00000000
0.00000000 0.65882353 0.00000000
0.21960784 0.67843137 0.00000000
0.42352941 0.69803922 0.00000000
0.56078431 0.71764706 0.00000000
0.69411765 0.73725490 0.00000000
0.81568627 0.76470588 0.00000000
0.91764706 0.77647059 0.00000000
0.98823529 0.77254902 0.00000000
1.00000000 0.76470588 0.00000000
0.00000000 0.74901961 0.04313725
0.00000000 0.74901961 0.05098039
0.00000000 0.74901961 0.03921569
0.00000000 0.74509804 0.02352941
0.00000000 0.73725490 0.00000000
0.24705882 0.74509804 0.00000000
0.41568627 0.75686275 0.00000000
0.54117647 0.77254902 0.00000000
0.65490196 0.78431373 0.00000000
0.76470588 0.80392157 0.00000000
0.87058824 0.82352941 0.00000000
0.97647059 0.83921569 0.00000000
1.00000000 0.83529412 0.00000000
0.00000000 0.81960784 0.18823529
0.00000000 0.81960784 0.19215686
0.00000000 0.81960784 0.18823529
0.00000000 0.81176471 0.18039216
0.19215686 0.81176471 0.17254902
0.30980392 0.80392157 0.16078431
0.43529412 0.81568627 0.13333333
0.53725490 0.83137255 0.09411765
0.63921569 0.84313725 0.00000000
0.73333333 0.85882353 0.00000000
0.82745098 0.87058824 0.00000000
0.93333333 0.88235294 0.00000000
1.00000000 0.90196078 0.00000000
0.13725490 0.89411765 0.34117647
0.16862745 0.89019608 0.34117647
0.21568627 0.89019608 0.33725490
0.27450980 0.89019608 0.33725490
0.34117647 0.89019608 0.33333333
0.40784314 0.88627451 0.32941176
0.47843137 0.89019608 0.31764706
0.55294118 0.89411765 0.30196078
0.63921569 0.90980392 0.27843137
0.72156863 0.91764706 0.23529412
0.80784314 0.92549020 0.16078431
0.89803922 0.93333333 0.00000000
0.98823529 0.94117647 0.00000000
0.40784314 0.96862745 0.53725490
0.41568627 0.96862745 0.53725490
0.43529412 0.96862745 0.54117647
0.45882353 0.96862745 0.54117647
0.49019608 0.96862745 0.54117647
0.52549020 0.96862745 0.54117647
0.56862745 0.96470588 0.54117647
0.61568627 0.97254902 0.53725490
0.67450980 0.97647059 0.51764706
0.74117647 0.98431373 0.49411765
0.80784314 0.98431373 0.45490196
0.88235294 0.99215686 0.39607843
0.96078431 0.99215686 0.28627451
0.00392157 0.00784314 0.09411765
0.02745098 0.00784314 0.09411765
0.09019608 0.00784314 0.09803922
0.18039216 0.00000000 0.09803922
0.32156863 0.00000000 0.09019608
0.49803922 0.00000000 0.07843137
0.67058824 0.00000000 0.07058824
0.80392157 0.00000000 0.07058824
0.90196078 0.00000000 0.05098039
0.97254902 0.00000000 0.01176471
1.00000000 0.00000000 0.00000000
1.00000000 0.00000000 0.00000000
1.00000000 0.09803922 0.00000000
0.00000000 0.03921569 0.09803922
0.02352941 0.03921569 0.09803922
0.09019608 0.03529412 0.10196078
0.18431373 0.01568627 0.09803922
0.32941176 0.00000000 0.09019608
0.50196078 0.00000000 0.07843137
0.67843137 0.00000000 0.08235294
0.80392157 0.00000000 0.06666667
0.90196078 0.00000000 0.03529412
0.96862745 0.00000000 0.00000000
1.00000000 0.00000000 0.00000000
1.00000000 0.03529412 0.00000000
1.00000000 0.17647059 0.00000000
0.00000000 0.09019608 0.09411765
0.01960784 0.09019608 0.09411765
0.08235294 0.09803922 0.09803922
0.18823529 0.09411765 0.09803922
0.33725490 0.07450980 0.09411765
0.50980392 0.00000000 0.08235294
0.68235294 0.00000000 0.06666667
0.80392157 0.00000000 0.04705882
0.89411765 0.00000000 0.00392157
0.96470588 0.02352941 0.00000000
1.00000000 0.14117647 0.00000000
1.00000000 0.21176471 0.00000000
1.00000000 0.27058824 0.00000000
0.00000000 0.17254902 0.10588235
0.00000000 0.17647059 0.10980392
0.04705882 0.17647059 0.09803922
0.15686275 0.19215686 0.08627451
0.33725490 0.21176471 0.07450980
0.51764706 0.20784314 0.06274510
0.67843137 0.20784314 0.03137255
0.79215686 0.21960784 0.00000000
0.87843137 0.23921569 0.00000000
0.95294118 0.27058824 0.00000000
1.00000000 0.30588235 0.00000000
1.00000000 0.33725490 0.00000000
1.00000000 0.37254902 0.00000000
0.00000000 0.29803922 0.11764706
0.00000000 0.29411765 0.10196078
0.00000000 0.28627451 0.09803922
0.07843137 0.29803922 0.08627451
0.27843137 0.33725490 0.03529412
0.50196078 0.38039216 0.00000000
0.65882353 0.38039216 0.00000000
0.76470588 0.38823529 0.00000000
0.85882353 0.40392157 0.00000000
0.93333333 0.41960784 0.00000000
1.00000000 0.43529412 0.00000000
1.00000000 0.45098039 0.00000000
1.00000000 0.46274510 0.00000000
0.00000000 0.41568627 0.08627451
0.00000000 0.41176471 0.08627451
0.00000000 0.40784314 0.08235294
0.00000000 0.40000000 0.07843137
0.18431373 0.43529412 0.01568627
0.40784314 0.47843137 0.00000000
0.61960784 0.52549020 0.00000000
0.73333333 0.52941176 0.00000000
0.82352941 0.52941176 0.00000000
0.90588235 0.53333333 0.00000000
0.97647059 0.54117647 0.00000000
1.00000000 0.54901961 0.00000000
1.00000000 0.55294118 0.00000000
0.00000000 0.52549020 0.07450980
0.00000000 0.52156863 0.07058824
0.00000000 0.51764706 0.06666667
0.00000000 0.50980392 0.05882353
0.04313725 0.52549020 0.01176471
0.32941176 0.55686275 0.00000000
0.52941176 0.58823529 0.00000000
0.69803922 0.63137255 0.00000000
0.79607843 0.63529412 0.00000000
0.87843137 0.63137255 0.00000000
0.95686275 0.63137255 0.00000000
1.00000000 0.62745098 0.00000000
1.00000000 0.62745098 0.00000000
0.00000000 0.59607843 0.06666667
0.00000000 0.60392157 0.07450980
0.00000000 0.60000000 0.06666667
0.00000000 0.59215686 0.05490196
0.00000000 0.58823529 0.02745098
0.27450980 0.61568627 0.00000000
0.46666667 0.63921569 0.00000000
0.61568627 0.66274510 0.00000000
0.76470588 0.70196078 0.00000000
0.85490196 0.70588235 0.00000000
0.93725490 0.70588235 0.00000000
1.00000000 0.69803922 0.00000000
1.00000000 0.69019608 0.00000000
0.00000000 0.67843137 0.09411765
0.00000000 0.68235294 0.10196078
0.00000000 0.67843137 0.09411765
0.00000000 0.67450980 0.08235294
0.00000000 0.66666667 0.07058824
0.24705882 0.67843137 0.01176471
0.43137255 0.69803922 0.00000000
0.56470588 0.71372549 0.00000000
0.69803922 0.73725490 0.00000000
0.81960784 0.76470588 0.00000000
0.91764706 0.77647059 0.00000000
0.99215686 0.77254902 0.00000000
1.00000000 0.76470588 0.00000000
0.00000000 0.75294118 0.16078431
0.00000000 0.75294118 0.16078431
0.00000000 0.75294118 0.15686275
0.00000000 0.74901961 0.15294118
0.01960784 0.74509804 0.14117647
0.26666667 0.74117647 0.12156863
0.42745098 0.75686275 0.08235294
0.54117647 0.76862745 0.00000000
0.65882353 0.78823529 0.00000000
0.76470588 0.80392157 0.00000000
0.87450980 0.82352941 0.00000000
0.97647059 0.83921569 0.00000000
1.00000000 0.83529412 0.00000000
0.00000000 0.82352941 0.25098039
0.00000000 0.81960784 0.25098039
0.00000000 0.81960784 0.24705882
0.04705882 0.81960784 0.24313725
0.22352941 0.81176471 0.23529412
0.32941176 0.80784314 0.22352941
0.44313725 0.81960784 0.20784314
0.54117647 0.83137255 0.18823529
0.63529412 0.84313725 0.14117647
0.72941176 0.85490196 0.05490196
0.83137255 0.87058824 0.00000000
0.92941176 0.88235294 0.00000000
1.00000000 0.90196078 0.00000000
0.16862745 0.89019608 0.37254902
0.19607843 0.89411765 0.37647059
0.23529412 0.89019608 0.37647059
0.29019608 0.89019608 0.37254902
0.35294118 0.89019608 0.36862745
0.41568627 0.89019608 0.36470588
0.48235294 0.88627451 0.35294118
0.55686275 0.89803922 0.34509804
0.63921569 0.90980392 0.32549020
0.72156863 0.91764706 0.29411765
0.80784314 0.92549020 0.23921569
0.89803922 0.93333333 0.13333333
0.98823529 0.94117647 0.00000000
0.41568627 0.96862745 0.55686275
0.42745098 0.96862745 0.55686275
0.43921569 0.96470588 0.55686275
0.46274510 0.96862745 0.55686275
0.49411765 0.96862745 0.56078431
0.52941176 0.96862745 0.56078431
0.57254902 0.96862745 0.56078431
0.61960784 0.97254902 0.55686275
0.67450980 0.97647059 0.53725490
0.74117647 0.98039216 0.51764706
0.80784314 0.98823529 0.48627451
0.87843137 0.98823529 0.43137255
0.96078431 0.99607843 0.33725490
0.00000000 0.01176471 0.20000000
0.00000000 0.00784314 0.20000000
0.07058824 0.00392157 0.20392157
0.19215686 0.00000000 0.20784314
0.32941176 0.00000000 0.20392157
0.50980392 0.00000000 0.20000000
0.68235294 0.00000000 0.19215686
0.80784314 0.00000000 0.17647059
0.90196078 0.00000000 0.14901961
0.97254902 0.00000000 0.18039216
1.00000000 0.00000000 0.16862745
1.00000000 0.00000000 0.15294118
1.00000000 0.13725490 0.12941176
0.00000000 0.03921569 0.19607843
0.00000000 0.03921569 0.20000000
0.07843137 0.03137255 0.20000000
0.20000000 0.01176471 0.21176471
0.33725490 0.00000000 0.20392157
0.51372549 0.00000000 0.19607843
0.68627451 0.00000000 0.18823529
0.81176471 0.00000000 0.17647059
0.90588235 0.00000000 0.17254902
0.96862745 0.00000000 0.18039216
1.00000000 0.00000000 0.16470588
1.00000000 0.08235294 0.14901961
1.00000000 0.20000000 0.12549020
0.00000000 0.09411765 0.19607843
0.00000000 0.09411765 0.19607843
0.07843137 0.09803922 0.20000000
0.20392157 0.09019608 0.20784314
0.34901961 0.04705882 0.20392157
0.52549020 0.00000000 0.19607843
0.69411765 0.00000000 0.18431373
0.80392157 0.00000000 0.19215686
0.89411765 0.00000000 0.18823529
0.96470588 0.01960784 0.17647059
1.00000000 0.15294118 0.16078431
1.00000000 0.22352941 0.13725490
1.00000000 0.28627451 0.11764706
0.00000000 0.18039216 0.18823529
0.00000000 0.18823529 0.19215686
0.06666667 0.19215686 0.19215686
0.19215686 0.20392157 0.20000000
0.36078431 0.20784314 0.20392157
0.53333333 0.20392157 0.20000000
0.68627451 0.20000000 0.19607843
0.79607843 0.21176471 0.18823529
0.87843137 0.23529412 0.17254902
0.94901961 0.27450980 0.15686275
1.00000000 0.31372549 0.14117647
1.00000000 0.34509804 0.11764706
1.00000000 0.38039216 0.09803922
0.00000000 0.31372549 0.21568627
0.00000000 0.31764706 0.21568627
0.03529412 0.31764706 0.21960784
0.15686275 0.31764706 0.20392157
0.31764706 0.34901961 0.19215686
0.51372549 0.36862745 0.18039216
0.66274510 0.37647059 0.18039216
0.76862745 0.38823529 0.16470588
0.85490196 0.40000000 0.14901961
0.92941176 0.41960784 0.12941176
0.99607843 0.43921569 0.11372549
1.00000000 0.45490196 0.09019608
1.00000000 0.47450980 0.07058824
0.00000000 0.44313725 0.23921569
0.00000000 0.44313725 0.23921569
0.00000000 0.44313725 0.21960784
0.04705882 0.43529412 0.20392157
0.23921569 0.44313725 0.18823529
0.43921569 0.48627451 0.16078431
0.62745098 0.52156863 0.11764706
0.73725490 0.52549020 0.12156863
0.82745098 0.52549020 0.12941176
0.90588235 0.53333333 0.11764706
0.97647059 0.54117647 0.09803922
1.00000000 0.54901961 0.07058824
1.00000000 0.55686275 0.03529412
0.00000000 0.54901961 0.23529412
0.00000000 0.54509804 0.21960784
0.00000000 0.54117647 0.20784314
0.00000000 0.53333333 0.20000000
0.16470588 0.52941176 0.19215686
0.36078431 0.55686275 0.16470588
0.54509804 0.58823529 0.12156863
0.70196078 0.63137255 0.01960784
0.79607843 0.62745098 0.04313725
0.87843137 0.63137255 0.07843137
0.95294118 0.62745098 0.10196078
1.00000000 0.63137255 0.08627451
1.00000000 0.63137255 0.06666667
0.00000000 0.61568627 0.21176471
0.00000000 0.62352941 0.21960784
0.00000000 0.61568627 0.21568627
0.00000000 0.61176471 0.20784314
0.10196078 0.60000000 0.19607843
0.31372549 0.61568627 0.17647059
0.48627451 0.64313725 0.14117647
0.62352941 0.66666667 0.09019608
0.76862745 0.70196078 0.00000000
0.85490196 0.70196078 0.00000000
0.93333333 0.70196078 0.01960784
1.00000000 0.69803922 0.07058824
1.00000000 0.69411765 0.09411765
0.00000000 0.69411765 0.23137255
0.00000000 0.69411765 0.23137255
0.00000000 0.69019608 0.22745098
0.00000000 0.68627451 0.22352941
0.08627451 0.67843137 0.21176471
0.28627451 0.67843137 0.20000000
0.45098039 0.69803922 0.17647059
0.57647059 0.71764706 0.14901961
0.69803922 0.73725490 0.09411765
0.82745098 0.76862745 0.00000000
0.91764706 0.77647059 0.00000000
0.99215686 0.77254902 0.00000000
1.00000000 0.76470588 0.03921569
0.00000000 0.75686275 0.26666667
0.00000000 0.76078431 0.27058824
0.00000000 0.75686275 0.26666667
0.00000000 0.75686275 0.25882353
0.16470588 0.74901961 0.25098039
0.29803922 0.74117647 0.23529412
0.43529412 0.75294118 0.22352941
0.54901961 0.76862745 0.20392157
0.66274510 0.78823529 0.17647059
0.76470588 0.80392157 0.12156863
0.87843137 0.82352941 0.00000000
0.97254902 0.83921569 0.00000000
1.00000000 0.83529412 0.00000000
0.00000000 0.82745098 0.33333333
0.00000000 0.82352941 0.32941176
0.00000000 0.82352941 0.32941176
0.15686275 0.81960784 0.32156863
0.26274510 0.81960784 0.31764706
0.35294118 0.81176471 0.30588235
0.44705882 0.81568627 0.29411765
0.54117647 0.82745098 0.28235294
0.63529412 0.83921569 0.25882353
0.73333333 0.85490196 0.23137255
0.83137255 0.87058824 0.18039216
0.92941176 0.88235294 0.05098039
1.00000000 0.90196078 0.00000000
0.21176471 0.89411765 0.42745098
0.23529412 0.89411765 0.43137255
0.26666667 0.89411765 0.43137255
0.31372549 0.89411765 0.42745098
0.36862745 0.89411765 0.42352941
0.42352941 0.88627451 0.41568627
0.48627451 0.88627451 0.40784314
0.55686275 0.89411765 0.40000000
0.63921569 0.90588235 0.38823529
0.72156863 0.91764706 0.36470588
0.80784314 0.92549020 0.32941176
0.89803922 0.93333333 0.27058824
0.98823529 0.94117647 0.14509804
0.42745098 0.96862745 0.58431373
0.43921569 0.96862745 0.58431373
0.45098039 0.96862745 0.58431373
0.47058824 0.96862745 0.58431373
0.49803922 0.96862745 0.58431373
0.53725490 0.96862745 0.58431373
0.57647059 0.96862745 0.58823529
0.62352941 0.97254902 0.58431373
0.67843137 0.97254902 0.56862745
0.74117647 0.98039216 0.55294118
0.80784314 0.98431373 0.52549020
0.88235294 0.98823529 0.48235294
0.95686275 0.99215686 0.40784314
0.00000000 0.00784314 0.34117647
0.00000000 0.00784314 0.34509804
0.00000000 0.00000000 0.34901961
0.19215686 0.00000000 0.35686275
0.36078431 0.00000000 0.36862745
0.50980392 0.00000000 0.35294118
0.68627451 0.00000000 0.35686275
0.80392157 0.00000000 0.34901961
0.90196078 0.00000000 0.32941176
0.97254902 0.00000000 0.30588235
1.00000000 0.00000000 0.28235294
1.00000000 0.00000000 0.29411765
1.00000000 0.19607843 0.32941176
0.00000000 0.03921569 0.33725490
0.00000000 0.03529412 0.34117647
0.00000000 0.02745098 0.34509804
0.20000000 0.00000000 0.35686275
0.36470588 0.00000000 0.36470588
0.51764706 0.00000000 0.35686275
0.69019608 0.00000000 0.36078431
0.80784314 0.00000000 0.34901961
0.90196078 0.00000000 0.32941176
0.97647059 0.00000000 0.30980392
1.00000000 0.00000000 0.28627451
1.00000000 0.04705882 0.31764706
1.00000000 0.24313725 0.32941176
0.00000000 0.09411765 0.33725490
0.00000000 0.09803922 0.33725490
0.00784314 0.09803922 0.34509804
0.20784314 0.08627451 0.35294118
0.37647059 0.03921569 0.36470588
0.53725490 0.00000000 0.36470588
0.69411765 0.00000000 0.35686275
0.80784314 0.00000000 0.34509804
0.89803922 0.00000000 0.32941176
0.96862745 0.00000000 0.30588235
1.00000000 0.10196078 0.32156863
1.00000000 0.25098039 0.32941176
1.00000000 0.31764706 0.32549020
0.00000000 0.19215686 0.32549020
0.00000000 0.19215686 0.32941176
0.00000000 0.20000000 0.33333333
0.20392157 0.21176471 0.35294118
0.38431373 0.21176471 0.36470588
