core/profiles/src/main/assets/luts/kodak_e-100_gx_ektachrome_100.cube
# Source: RawTherapee Film Simulation Collection (HaldCLUT.zip)
# Converted from: HaldCLUT/Color/Kodak/Kodak E-100 GX Ektachrome 100.png
TITLE "kodak_e-100_gx_ektachrome_100"
LUT_3D_SIZE 13
DOMAIN_MIN 0.0 0.0 0.0
DOMAIN_MAX 1.0 1.0 1.0
0.00000000 0.00000000 0.00000000
0.03529412 0.00000000 0.00000000
0.09019608 0.00000000 0.00000000
0.15686275 0.00000000 0.00000000
0.22745098 0.00000000 0.00000000
0.30980392 0.00000000 0.00000000
0.39607843 0.00000000 0.00000000
0.47450980 0.00000000 0.00000000
0.56078431 0.00000000 0.00000000
0.64313725 0.00392157 0.00000000
0.72156863 0.00392157 0.00000000
0.79607843 0.00784314 0.00000000
0.84705882 0.00784314 0.00000000
0.03137255 0.05882353 0.00784314
0.07058824 0.05098039 0.00392157
0.12549020 0.04313725 0.00392157
0.18823529 0.03529412 0.00392157
0.25490196 0.02745098 0.00000000
0.33333333 0.01960784 0.00000000
0.41176471 0.00784314 0.00000000
0.48235294 0.00000000 0.00000000
0.56470588 0.00000000 0.00000000
0.64313725 0.00392157 0.00000000
0.72156863 0.00392157 0.00000000
0.79607843 0.00784314 0.00000000
0.84313725 0.00784314 0.00000000
0.08235294 0.13333333 0.03921569
0.10588235 0.12941176 0.03529412
0.15294118 0.12156863 0.03137255
0.21568627 0.10980392 0.02745098
0.28235294 0.09803922 0.01960784
0.35686275 0.08627451 0.01176471
0.43137255 0.06666667 0.00784314
0.50196078 0.04705882 0.00392157
0.57647059 0.01960784 0.00000000
0.64705882 0.00392157 0.00000000
0.72156863 0.00392157 0.00000000
0.79607843 0.00392157 0.00000000
0.84313725 0.00392157 0.00000000
0.12941176 0.21960784 0.07843137
0.15294118 0.21568627 0.07450980
0.18823529 0.20784314 0.07058824
0.24705882 0.20000000 0.06666667
0.31372549 0.19215686 0.05882353
0.38823529 0.17647059 0.05098039
0.46274510 0.15294118 0.03921569
0.52941176 0.12549020 0.02745098
0.60000000 0.09411765 0.01568627
0.66666667 0.05490196 0.00784314
0.72941176 0.01568627 0.00000000
0.79607843 0.00392157 0.00000000
0.84313725 0.00392157 0.00000000
0.14901961 0.31372549 0.11764706
0.18039216 0.30980392 0.11372549
0.22352941 0.30588235 0.11372549
0.28235294 0.29803922 0.10588235
0.34901961 0.29019608 0.10196078
0.41960784 0.27450980 0.09411765
0.49411765 0.25490196 0.08627451
0.56078431 0.23529412 0.07450980
0.63137255 0.20000000 0.06274510
0.69411765 0.15686275 0.04705882
0.75294118 0.10196078 0.02745098
0.81176471 0.03529412 0.01176471
0.84705882 0.00392157 0.00392157
0.20392157 0.40784314 0.15686275
0.22745098 0.40784314 0.15686275
0.26666667 0.40392157 0.15294118
0.32156863 0.40000000 0.14901961
0.38823529 0.39215686 0.14509804
0.45490196 0.38431373 0.13725490
0.52549020 0.36862745 0.12941176
0.59215686 0.34901961 0.12156863
0.66274510 0.32156863 0.11372549
0.72941176 0.28235294 0.09803922
0.78823529 0.23137255 0.08235294
0.84313725 0.15686275 0.06274510
0.87450980 0.09411765 0.04313725
0.27058824 0.50588235 0.19607843
0.29019608 0.50196078 0.19215686
0.32549020 0.50196078 0.19215686
0.37254902 0.49803922 0.18823529
0.42745098 0.49411765 0.18039216
0.49019608 0.48627451 0.17647059
0.56078431 0.47843137 0.16862745
0.62745098 0.46666667 0.16078431
0.69411765 0.44705882 0.15686275
0.76078431 0.42352941 0.14509804
0.82352941 0.38431373 0.13725490
0.88235294 0.32156863 0.12156863
0.91372549 0.26274510 0.10588235
0.33725490 0.59215686 0.23529412
0.35294118 0.59215686 0.23529412
0.38039216 0.59215686 0.23137255
0.41960784 0.58823529 0.22745098
0.46666667 0.58823529 0.22352941
0.52941176 0.58039216 0.21960784
0.59607843 0.57254902 0.21176471
0.65490196 0.56470588 0.20392157
0.72156863 0.54901961 0.19607843
0.78431373 0.53333333 0.18823529
0.85098039 0.50588235 0.17647059
0.91372549 0.46274510 0.16470588
0.94901961 0.41960784 0.15686275
0.40392157 0.68235294 0.28627451
0.41568627 0.68235294 0.28627451
0.43529412 0.67843137 0.28235294
0.47058824 0.67843137 0.28235294
0.51764706 0.67843137 0.27843137
0.57254902 0.67450980 0.27450980
0.63137255 0.66666667 0.26666667
0.69019608 0.66274510 0.25882353
0.74901961 0.65490196 0.25490196
0.81176471 0.63921569 0.24313725
0.87450980 0.61960784 0.23529412
0.93725490 0.58823529 0.21960784
0.97647059 0.55686275 0.21176471
0.47058824 0.76470588 0.34117647
0.48235294 0.76470588 0.33725490
0.49803922 0.76470588 0.33725490
0.52941176 0.76078431 0.33725490
0.57254902 0.76078431 0.33333333
0.61960784 0.75686275 0.32941176
0.67058824 0.75686275 0.32549020
0.72156863 0.75294118 0.31764706
0.78039216 0.74509804 0.31372549
0.83921569 0.73725490 0.30588235
0.89803922 0.72156863 0.29411765
0.96078431 0.70196078 0.28235294
0.99607843 0.67843137 0.27450980
0.54901961 0.84313725 0.39215686
0.55686275 0.84313725 0.39215686
0.57254902 0.84313725 0.39215686
0.59607843 0.84313725 0.38823529
0.63137255 0.84313725 0.38823529
0.67058824 0.83921569 0.38431373
0.71372549 0.83921569 0.38039216
0.76078431 0.83529412 0.37647059
0.81176471 0.83137255 0.37254902
0.86666667 0.82745098 0.36470588
0.92549020 0.81960784 0.35686275
0.98039216 0.80392157 0.34509804
1.00000000 0.78823529 0.33725490
0.62745098 0.91764706 0.44705882
0.63529412 0.91764706 0.44705882
0.64705882 0.91764706 0.44705882
0.66666667 0.91764706 0.44705882
0.69019608 0.91764706 0.44313725
0.72549020 0.91764706 0.44313725
0.76470588 0.91764706 0.43921569
0.80000000 0.91372549 0.43529412
0.84705882 0.91372549 0.43137255
0.89803922 0.90980392 0.42352941
0.94901961 0.90588235 0.41960784
0.99607843 0.89803922 0.40784314
1.00000000 0.88627451 0.40392157
0.72156863 0.98039216 0.51372549
0.72549020 0.98039216 0.51372549
0.73333333 0.98039216 0.50980392
0.74901961 0.98039216 0.50980392
0.76862745 0.98039216 0.50980392
0.79215686 0.98039216 0.50980392
0.82352941 0.98039216 0.50588235
0.85490196 0.98039216 0.50588235
0.89411765 0.98039216 0.50196078
0.93333333 0.98039216 0.49803922
0.97647059 0.98039216 0.49019608
1.00000000 0.97647059 0.48627451
1.00000000 0.97254902 0.47843137
0.00000000 0.00000000 0.02745098
0.02352941 0.00000000 0.02352941
0.07450980 0.00000000 0.01960784
0.14509804 0.00000000 0.01568627
0.21568627 0.00000000 0.01176471
0.29803922 0.00000000 0.00784314
0.38823529 0.00000000 0.00392157
0.46666667 0.00000000 0.00000000
0.55294118 0.00000000 0.00000000
0.63529412 0.00392157 0.00000000
0.71372549 0.00392157 0.00000000
0.79215686 0.00392157 0.00000000
0.84313725 0.00392157 0.00000000
0.02352941 0.06274510 0.06274510
0.05882353 0.05490196 0.05882353
0.11372549 0.05098039 0.05490196
0.18039216 0.04313725 0.04705882
0.24705882 0.03137255 0.03921569
0.32549020 0.02352941 0.03137255
0.40392157 0.01176471 0.01960784
0.47450980 0.00392157 0.01568627
0.55686275 0.00000000 0.00784314
0.63921569 0.00392157 0.00392157
0.71372549 0.00392157 0.00000000
0.79215686 0.00392157 0.00000000
0.83921569 0.00392157 0.00000000
0.07843137 0.14117647 0.09411765
0.10196078 0.13333333 0.09019608
0.14509804 0.12549020 0.08235294
0.20784314 0.11764706 0.07843137
0.27450980 0.10196078 0.07058824
0.35294118 0.09019608 0.05882353
0.42745098 0.07058824 0.04705882
0.49803922 0.05098039 0.03921569
0.57254902 0.02352941 0.02352941
0.64313725 0.00392157 0.01568627
0.71764706 0.00392157 0.00784314
0.79215686 0.00392157 0.00392157
0.83921569 0.00392157 0.00000000
0.12156863 0.22352941 0.12549020
0.14509804 0.21960784 0.12156863
0.18039216 0.21176471 0.11764706
0.23921569 0.20784314 0.11372549
0.30588235 0.19607843 0.10588235
0.38431373 0.18039216 0.09803922
0.45490196 0.15686275 0.08627451
0.52549020 0.12941176 0.07450980
0.59607843 0.09803922 0.05882353
0.66274510 0.05882353 0.04313725
0.72549020 0.01568627 0.02745098
0.79215686 0.00392157 0.01568627
0.83921569 0.00392157 0.01176471
0.13725490 0.31372549 0.15686275
0.16862745 0.31372549 0.15686275
0.21568627 0.30980392 0.15294118
0.27450980 0.30196078 0.14901961
0.34509804 0.29411765 0.14509804
0.41568627 0.27843137 0.13725490
0.49019608 0.25882353 0.12549020
0.55686275 0.23529412 0.11372549
0.62745098 0.20392157 0.10588235
0.69019608 0.16078431 0.09019608
0.75294118 0.10196078 0.07058824
0.80784314 0.03921569 0.05098039
0.84313725 0.00392157 0.03529412
0.19607843 0.40784314 0.19215686
0.21960784 0.40784314 0.18823529
0.25882353 0.40784314 0.18823529
0.31764706 0.40392157 0.18039216
0.38431373 0.39607843 0.17647059
0.45098039 0.38823529 0.17254902
0.52156863 0.37254902 0.16470588
0.58823529 0.35294118 0.15686275
0.65882353 0.32549020 0.14509804
0.72549020 0.28627451 0.13333333
0.78431373 0.23529412 0.11764706
0.83921569 0.16078431 0.10196078
0.87058824 0.09411765 0.08235294
0.26274510 0.50588235 0.22745098
0.28235294 0.50588235 0.22745098
0.31764706 0.50588235 0.22352941
0.36862745 0.50196078 0.21960784
0.42352941 0.49803922 0.21568627
0.48627451 0.49019608 0.20784314
0.55686275 0.47843137 0.20000000
0.62352941 0.46666667 0.19215686
0.69019608 0.45098039 0.18431373
0.75686275 0.42352941 0.17254902
0.81960784 0.38823529 0.16470588
0.87843137 0.32549020 0.14901961
0.91372549 0.26274510 0.13725490
0.33333333 0.59607843 0.26274510
0.34509804 0.59215686 0.26274510
0.37254902 0.59215686 0.26274510
0.41176471 0.59215686 0.25882353
0.46274510 0.58823529 0.25490196
0.52549020 0.58431373 0.25098039
0.59215686 0.57647059 0.24313725
0.65490196 0.56470588 0.23529412
0.71764706 0.55294118 0.22745098
0.78431373 0.53333333 0.21960784
0.84705882 0.50588235 0.20784314
0.90980392 0.46274510 0.19215686
0.94509804 0.42352941 0.18431373
0.40000000 0.68235294 0.31372549
0.40784314 0.68235294 0.31372549
0.43137255 0.68235294 0.30980392
0.46666667 0.67843137 0.30980392
0.51372549 0.67843137 0.30588235
0.56862745 0.67450980 0.30196078
0.63137255 0.67058824 0.29411765
0.68627451 0.66274510 0.29019608
0.74901961 0.65490196 0.28235294
0.81176471 0.63921569 0.27450980
0.87450980 0.61960784 0.26274510
0.93333333 0.59215686 0.25098039
0.97254902 0.56078431 0.23921569
0.46666667 0.76470588 0.36470588
0.47450980 0.76470588 0.36470588
0.49411765 0.76470588 0.36470588
0.52549020 0.76470588 0.36078431
0.56862745 0.76078431 0.35686275
0.61568627 0.76078431 0.35294118
0.67058824 0.75686275 0.34901961
0.72156863 0.75294118 0.34509804
0.77647059 0.74509804 0.33725490
0.83529412 0.73725490 0.32941176
0.89803922 0.72549020 0.32156863
0.95686275 0.70196078 0.30980392
0.99215686 0.68235294 0.30196078
0.54509804 0.84313725 0.41176471
0.55294118 0.84313725 0.41176471
0.56862745 0.84313725 0.41176471
0.59215686 0.84313725 0.41176471
0.62745098 0.84313725 0.40784314
0.66666667 0.84313725 0.40392157
0.71372549 0.83921569 0.40000000
0.75686275 0.83921569 0.39607843
0.80784314 0.83529412 0.39215686
0.86666667 0.82745098 0.38431373
0.92156863 0.81960784 0.37647059
0.97647059 0.80392157 0.36862745
1.00000000 0.78823529 0.36078431
0.62745098 0.91764706 0.46666667
0.63137255 0.91764706 0.46274510
0.64313725 0.91764706 0.46274510
0.66274510 0.91764706 0.46274510
0.69019608 0.91764706 0.45882353
0.72156863 0.91764706 0.45882353
0.76078431 0.91764706 0.45490196
0.80000000 0.91372549 0.45098039
0.84705882 0.91372549 0.44705882
0.89411765 0.90980392 0.44313725
0.94509804 0.90588235 0.43529412
0.99607843 0.89803922 0.42745098
1.00000000 0.88627451 0.41960784
0.71764706 0.98039216 0.52941176
0.72156863 0.98039216 0.52941176
0.73333333 0.98039216 0.52941176
0.74509804 0.98039216 0.52549020
0.76470588 0.98039216 0.52549020
0.79215686 0.98039216 0.52549020
0.82352941 0.98039216 0.52156863
0.85490196 0.98039216 0.52156863
0.89411765 0.98039216 0.51764706
0.93333333 0.98039216 0.51372549
0.97254902 0.98039216 0.50980392
1.00000000 0.97647059 0.50196078
1.00000000 0.97647059 0.49411765
0.00000000 0.00000000 0.08235294
0.01568627 0.00000000 0.07450980
0.06666667 0.00000000 0.07058824
0.13333333 0.00000000 0.06274510
0.20784314 0.00000000 0.05490196
0.29411765 0.00000000 0.04705882
0.38431373 0.00000000 0.03921569
0.46274510 0.00000000 0.03137255
0.54901961 0.00000000 0.01960784
0.63137255 0.00392157 0.01176471
0.70980392 0.00392157 0.00784314
0.78823529 0.00392157 0.00392157
0.83921569 0.00392157 0.00000000
0.01960784 0.06666667 0.12156863
0.05098039 0.06274510 0.11764706
0.10588235 0.05490196 0.11372549
0.17254902 0.04705882 0.10588235
0.24313725 0.03529412 0.09803922
0.32156863 0.02745098 0.09019608
0.40000000 0.01176471 0.07843137
0.47058824 0.00392157 0.06666667
0.55294118 0.00000000 0.05490196
0.63137255 0.00000000 0.04313725
0.70980392 0.00392157 0.03137255
0.78431373 0.00392157 0.01960784
0.83529412 0.00392157 0.01176471
0.07058824 0.14509804 0.14901961
0.09411765 0.13725490 0.14509804
0.13333333 0.13333333 0.14117647
0.20000000 0.12156863 0.13333333
0.27058824 0.10980392 0.12941176
0.34509804 0.09411765 0.11764706
0.42352941 0.07450980 0.10588235
0.49411765 0.05098039 0.09803922
0.56862745 0.02352941 0.08235294
0.63529412 0.00392157 0.06666667
0.70980392 0.00392157 0.05490196
0.78431373 0.00392157 0.04313725
0.83529412 0.00392157 0.03137255
0.10980392 0.22745098 0.18039216
0.13333333 0.22352941 0.17647059
0.17254902 0.21960784 0.17254902
0.22745098 0.21176471 0.16862745
0.30196078 0.20000000 0.16078431
0.37647059 0.18431373 0.15294118
0.45098039 0.16470588 0.14117647
0.52156863 0.13725490 0.12941176
0.59215686 0.10196078 0.11764706
0.65882353 0.06274510 0.10196078
0.72156863 0.01960784 0.08627451
0.78823529 0.00392157 0.07058824
0.83529412 0.00392157 0.06274510
0.12156863 0.32156863 0.20784314
0.15294118 0.31764706 0.20784314
0.20392157 0.31372549 0.20392157
0.26274510 0.30588235 0.20000000
0.33725490 0.29803922 0.19215686
0.41176471 0.28235294 0.18431373
0.48235294 0.26274510 0.17647059
0.55294118 0.24313725 0.16862745
0.62352941 0.20784314 0.15686275
0.68627451 0.16470588 0.14117647
0.74901961 0.10588235 0.12549020
0.80392157 0.03921569 0.10588235
0.83921569 0.00392157 0.09411765
0.18431373 0.41176471 0.24313725
0.20392157 0.41176471 0.23921569
0.24705882 0.40784314 0.23921569
0.30980392 0.40392157 0.23529412
0.37647059 0.40000000 0.22745098
0.44313725 0.39215686 0.22352941
0.51764706 0.37647059 0.21568627
0.58431373 0.35686275 0.20392157
0.65490196 0.32941176 0.19607843
0.72156863 0.29411765 0.18431373
0.78039216 0.23921569 0.17254902
0.83529412 0.16470588 0.15294118
0.86666667 0.09803922 0.13725490
0.25098039 0.50980392 0.27843137
0.27058824 0.50980392 0.27843137
0.30980392 0.50588235 0.27450980
0.35686275 0.50588235 0.27450980
0.41568627 0.49803922 0.26666667
0.48235294 0.49411765 0.26274510
0.55294118 0.48235294 0.25490196
0.61960784 0.47058824 0.24705882
0.68627451 0.45490196 0.23921569
0.75294118 0.42745098 0.23137255
0.81568627 0.39215686 0.21960784
0.87450980 0.32941176 0.20392157
0.90980392 0.26666667 0.18823529
0.32156863 0.59607843 0.31764706
0.33725490 0.59607843 0.31764706
0.36470588 0.59607843 0.31372549
0.40392157 0.59215686 0.31372549
0.45490196 0.58823529 0.30980392
0.51764706 0.58431373 0.30196078
0.58431373 0.57647059 0.29803922
0.64705882 0.56862745 0.29019608
0.71372549 0.55294118 0.28235294
0.77647059 0.53725490 0.27450980
0.84313725 0.50980392 0.26274510
0.90588235 0.46666667 0.25098039
0.94117647 0.42352941 0.23921569
0.38823529 0.68235294 0.36078431
0.40000000 0.68235294 0.36078431
0.42352941 0.68235294 0.36078431
0.45882353 0.68235294 0.35686275
0.50588235 0.67843137 0.35294118
0.56078431 0.67450980 0.34901961
0.62352941 0.67058824 0.34509804
0.67843137 0.66666667 0.33725490
0.74117647 0.65490196 0.33333333
0.80392157 0.64313725 0.32549020
0.86666667 0.62352941 0.31372549
0.92941176 0.59215686 0.30196078
0.96862745 0.56078431 0.29411765
0.45882353 0.76470588 0.40392157
0.47058824 0.76470588 0.40392157
0.49019608 0.76470588 0.40392157
0.52156863 0.76470588 0.40000000
0.56078431 0.76078431 0.40000000
0.61176471 0.76078431 0.39607843
0.66274510 0.75686275 0.38823529
0.71372549 0.75294118 0.38431373
0.77254902 0.74901961 0.38039216
0.83137255 0.73725490 0.37254902
0.89411765 0.72549020 0.36470588
0.95294118 0.70196078 0.35294118
0.99215686 0.68235294 0.34509804
0.53725490 0.84313725 0.44705882
0.54509804 0.84313725 0.44705882
0.56078431 0.84313725 0.44705882
0.58823529 0.84313725 0.44705882
0.62352941 0.84313725 0.44313725
0.66274510 0.84313725 0.43921569
0.70588235 0.83921569 0.43529412
0.75294118 0.83921569 0.43137255
0.80392157 0.83529412 0.42745098
0.86274510 0.82745098 0.42352941
0.91764706 0.81960784 0.41568627
0.97254902 0.80392157 0.40784314
1.00000000 0.78823529 0.40000000
0.61960784 0.91764706 0.49803922
0.62745098 0.91764706 0.49803922
0.63921569 0.91764706 0.49803922
0.65882353 0.91764706 0.49411765
0.68627451 0.91764706 0.49411765
0.71764706 0.91764706 0.49411765
0.75686275 0.91764706 0.49019608
0.79607843 0.91764706 0.48627451
0.84313725 0.91372549 0.48235294
0.89019608 0.91372549 0.47843137
0.94509804 0.90588235 0.47058824
0.99215686 0.89803922 0.46274510
1.00000000 0.88627451 0.45882353
0.71372549 0.98039216 0.55686275
0.71764706 0.98039216 0.55686275
0.72941176 0.98039216 0.55686275
0.74117647 0.98039216 0.55686275
0.76078431 0.98039216 0.55686275
0.78823529 0.98039216 0.55294118
0.81960784 0.98039216 0.55294118
0.85098039 0.98039216 0.54901961
0.89019608 0.98431373 0.54901961
0.92941176 0.98039216 0.54509804
0.97254902 0.98039216 0.54117647
1.00000000 0.98039216 0.53333333
1.00000000 0.97647059 0.52941176
0.00000000 0.00000000 0.14509804
0.01176471 0.00000000 0.13725490
0.05490196 0.00000000 0.13333333
0.12549020 0.00000000 0.12941176
0.20000000 0.00000000 0.12156863
0.28235294 0.00000000 0.11372549
0.37647059 0.00000000 0.10588235
0.45490196 0.00000000 0.09411765
0.54117647 0.00000000 0.08627451
0.62352941 0.00000000 0.07450980
0.70196078 0.00000000 0.06274510
0.78039216 0.00392157 0.04705882
0.83137255 0.00392157 0.03921569
0.01568627 0.07450980 0.18431373
0.04313725 0.06666667 0.18039216
0.09411765 0.05882353 0.17647059
0.16470588 0.05098039 0.16862745
0.23529412 0.03921569 0.16078431
0.31372549 0.02745098 0.15294118
0.39607843 0.01568627 0.14117647
0.46666667 0.00392157 0.13333333
0.54509804 0.00000000 0.11764706
0.62745098 0.00000000 0.10980392
0.70196078 0.00000000 0.09803922
0.78039216 0.00392157 0.08627451
0.82745098 0.00392157 0.07450980
0.06666667 0.14901961 0.21176471
0.09019608 0.14509804 0.20784314
0.12549020 0.13725490 0.20392157
0.19215686 0.12549020 0.20000000
0.25882353 0.11372549 0.19215686
0.34117647 0.09803922 0.18039216
0.41568627 0.07843137 0.17254902
0.48627451 0.05490196 0.16078431
0.56470588 0.02745098 0.14901961
0.63137255 0.00392157 0.13333333
0.70196078 0.00000000 0.12156863
0.78039216 0.00392157 0.10980392
0.82745098 0.00392157 0.10196078
0.09803922 0.23137255 0.23921569
0.12156863 0.22745098 0.23921569
0.16470588 0.22352941 0.23529412
0.21960784 0.21568627 0.23137255
0.29019608 0.20392157 0.22352941
0.36862745 0.19215686 0.21568627
0.44705882 0.16862745 0.20392157
0.51372549 0.14117647 0.19607843
0.58823529 0.10588235 0.18039216
0.65490196 0.06666667 0.16862745
0.71764706 0.01960784 0.15294118
0.78039216 0.00392157 0.13725490
0.83137255 0.00392157 0.12941176
0.10196078 0.32549020 0.27058824
0.13725490 0.32156863 0.27058824
0.18823529 0.32156863 0.26666667
0.25098039 0.31372549 0.26274510
0.32549020 0.30196078 0.25882353
0.40000000 0.29019608 0.25098039
0.47450980 0.27058824 0.24313725
0.54509804 0.24705882 0.23137255
0.61568627 0.21568627 0.21960784
0.68235294 0.17254902 0.20784314
0.74117647 0.10980392 0.19215686
0.80000000 0.04313725 0.17647059
0.83137255 0.00392157 0.16078431
0.16470588 0.41568627 0.30588235
0.18823529 0.41568627 0.30588235
0.23137255 0.41176471 0.30588235
0.29411765 0.40784314 0.30196078
0.36470588 0.40392157 0.29411765
0.43529412 0.39607843 0.29019608
0.50980392 0.38039216 0.28235294
0.57647059 0.36470588 0.27450980
0.65098039 0.33725490 0.26274510
0.71372549 0.29803922 0.25098039
0.77647059 0.24705882 0.23921569
0.83137255 0.16862745 0.21960784
0.86274510 0.10196078 0.20784314
0.23137255 0.51372549 0.34509804
0.25490196 0.51372549 0.34509804
0.29411765 0.50980392 0.34117647
0.34509804 0.50588235 0.33725490
0.40392157 0.50196078 0.33333333
0.47058824 0.49803922 0.32941176
0.54509804 0.48627451 0.32156863
0.61176471 0.47450980 0.31764706
0.67843137 0.45882353 0.30588235
0.74509804 0.43137255 0.29803922
0.81176471 0.39607843 0.28627451
0.87058824 0.33725490 0.27058824
0.90588235 0.27450980 0.25882353
0.30588235 0.60000000 0.38039216
0.32156863 0.60000000 0.38039216
0.34901961 0.59607843 0.37647059
0.39215686 0.59607843 0.37647059
0.44313725 0.59215686 0.37254902
0.50980392 0.58823529 0.36470588
0.57647059 0.58039216 0.36078431
0.63921569 0.57254902 0.35294118
0.70588235 0.55686275 0.34901961
0.77254902 0.54117647 0.33725490
0.83529412 0.50980392 0.32941176
0.89803922 0.47058824 0.31764706
0.93725490 0.42745098 0.30588235
0.37647059 0.68627451 0.41568627
0.38823529 0.68627451 0.41568627
0.41176471 0.68235294 0.41568627
0.44705882 0.68235294 0.41176471
0.49803922 0.68235294 0.41176471
0.55294118 0.67843137 0.40392157
0.61568627 0.67450980 0.40000000
0.67450980 0.66666667 0.39607843
0.73725490 0.65882353 0.38823529
0.80000000 0.64313725 0.38039216
0.86274510 0.62745098 0.37254902
0.92549020 0.59607843 0.36078431
0.96470588 0.56470588 0.35294118
0.45098039 0.76862745 0.45490196
0.45882353 0.76862745 0.45490196
0.47843137 0.76470588 0.45490196
0.50980392 0.76470588 0.45490196
0.55294118 0.76470588 0.45098039
0.60392157 0.76078431 0.44705882
0.65882353 0.76078431 0.44313725
0.70980392 0.75686275 0.43921569
0.76470588 0.74901961 0.43137255
0.82745098 0.74117647 0.42745098
0.88627451 0.72549020 0.41960784
0.94901961 0.70588235 0.40784314
0.98431373 0.68235294 0.40392157
0.52941176 0.84705882 0.49803922
0.53725490 0.84705882 0.49803922
0.55294118 0.84705882 0.49803922
0.58039216 0.84705882 0.49411765
0.61568627 0.84313725 0.49411765
0.65490196 0.84313725 0.49019608
0.70196078 0.84313725 0.48627451
0.74509804 0.83921569 0.48627451
0.80000000 0.83529412 0.47843137
0.85490196 0.83137255 0.47450980
0.91372549 0.81960784 0.46666667
0.96862745 0.80784314 0.45882353
1.00000000 0.79215686 0.45098039
0.61176471 0.91764706 0.54509804
0.61960784 0.91764706 0.54509804
0.63137255 0.91764706 0.54509804
0.65098039 0.91764706 0.54509804
0.67843137 0.91764706 0.54117647
0.70980392 0.91764706 0.54117647
0.74901961 0.91764706 0.53725490
0.78823529 0.91764706 0.53333333
0.83529412 0.91372549 0.52941176
0.88627451 0.91372549 0.52549020
0.93725490 0.90980392 0.52156863
0.98823529 0.89803922 0.51372549
1.00000000 0.89019608 0.50588235
0.70980392 0.98039216 0.60000000
0.71372549 0.98039216 0.60000000
0.72156863 0.98039216 0.60000000
0.73725490 0.98039216 0.60000000
0.75686275 0.98039216 0.59607843
0.78431373 0.98039216 0.59607843
0.81568627 0.98431373 0.59607843
0.84705882 0.98431373 0.59215686
0.88627451 0.98431373 0.58823529
0.92549020 0.98431373 0.58431373
0.96470588 0.98039216 0.58039216
1.00000000 0.98039216 0.57647059
1.00000000 0.97647059 0.56862745
0.00000000 0.00000000 0.20784314
0.00784314 0.00000000 0.20392157
0.04705882 0.00000000 0.19607843
0.11372549 0.00000000 0.19215686
0.18823529 0.00000000 0.18823529
0.27450980 0.00000000 0.18039216
0.36862745 0.00000000 0.17254902
0.44705882 0.00000000 0.16078431
0.53333333 0.00000000 0.15294118
0.61960784 0.00000000 0.14117647
0.69803922 0.00000000 0.13333333
0.77647059 0.00392157 0.12156863
0.82745098 0.00392157 0.10980392
0.01176471 0.07843137 0.25098039
0.03529412 0.07058824 0.24705882
0.08235294 0.06274510 0.24313725
0.15294118 0.05490196 0.23529412
0.22352941 0.04313725 0.23137255
0.30588235 0.03137255 0.21960784
0.38823529 0.01960784 0.21176471
0.45882353 0.00784314 0.20000000
0.53725490 0.00000000 0.18823529
0.61960784 0.00000000 0.18039216
0.69411765 0.00000000 0.16862745
0.77254902 0.00392157 0.15686275
0.82352941 0.00392157 0.14901961
0.05490196 0.15686275 0.27843137
0.07843137 0.15294118 0.27843137
0.11764706 0.14509804 0.27450980
0.17647059 0.13333333 0.26666667
0.25098039 0.12156863 0.25882353
0.32941176 0.10588235 0.25098039
0.40784314 0.08235294 0.24313725
0.48235294 0.05882353 0.23137255
0.55686275 0.03137255 0.21960784
0.62352941 0.00784314 0.20784314
0.69803922 0.00000000 0.19607843
0.77254902 0.00000000 0.18431373
0.81960784 0.00392157 0.17647059
0.08627451 0.23921569 0.30980392
0.10588235 0.23529412 0.30980392
0.14901961 0.23137255 0.30588235
0.20392157 0.22352941 0.30196078
0.27843137 0.21176471 0.29411765
