core/profiles/src/main/assets/luts/kodak_portra_800_hc.cube
# Source: RawTherapee Film Simulation Collection (HaldCLUT.zip)
# Converted from: HaldCLUT/Color/Kodak/Kodak Portra 800 HC.png
TITLE "kodak_portra_800_hc"
LUT_3D_SIZE 5
DOMAIN_MIN 0.0 0.0 0.0
DOMAIN_MAX 1.0 1.0 1.0
0.00392157 0.00784314 0.00784314
0.17254902 0.00000000 0.00392157
0.67450980 0.00000000 0.00000000
0.98039216 0.00000000 0.00000000
1.00000000 0.10588235 0.00000000
0.00000000 0.14509804 0.01568627
0.11764706 0.18431373 0.00000000
0.67058824 0.20784314 0.00000000
0.95294118 0.27843137 0.00000000
1.00000000 0.36862745 0.00000000
0.00000000 0.49411765 0.00000000
0.00000000 0.48627451 0.00000000
0.50980392 0.58039216 0.00000000
0.87843137 0.63529412 0.00000000
1.00000000 0.63137255 0.00000000
0.00000000 0.74509804 0.00000000
0.00000000 0.74117647 0.00000000
0.41176471 0.75686275 0.00000000
0.76078431 0.80392157 0.00000000
1.00000000 0.83529412 0.00000000
0.40784314 0.96862745 0.52941176
0.45098039 0.96470588 0.52941176
0.56862745 0.96862745 0.53725490
0.74117647 0.98431373 0.48235294
0.96078431 0.99215686 0.25882353
0.00000000 0.01176471 0.20000000
0.19215686 0.00000000 0.20784314
0.68235294 0.00000000 0.19215686
0.97254902 0.00000000 0.18039216
1.00000000 0.13725490 0.12941176
0.00000000 0.18039216 0.18823529
0.19215686 0.20392157 0.20000000
0.68627451 0.20000000 0.19607843
0.94901961 0.27450980 0.15686275
1.00000000 0.38039216 0.09803922
0.00000000 0.54901961 0.23529412
0.00000000 0.53333333 0.20000000
0.54509804 0.58823529 0.12156863
0.87843137 0.63137255 0.07843137
1.00000000 0.63137255 0.06666667
0.00000000 0.75686275 0.26666667
0.00000000 0.75686275 0.25882353
0.43529412 0.75294118 0.22352941
0.76470588 0.80392157 0.12156863
1.00000000 0.83529412 0.00000000
0.42745098 0.96862745 0.58431373
0.47058824 0.96862745 0.58431373
0.57647059 0.96862745 0.58823529
0.74117647 0.98039216 0.55294118
0.95686275 0.99215686 0.40784314
0.00000000 0.00000000 0.62745098
0.18823529 0.00000000 0.64313725
0.71372549 0.00000000 0.67058824
0.95294118 0.00000000 0.62352941
1.00000000 0.00000000 0.57647059
0.00000000 0.20000000 0.61960784
0.23137255 0.21568627 0.63529412
0.70196078 0.19215686 0.65882353
0.93725490 0.20000000 0.61960784
1.00000000 0.36862745 0.58431373
0.00000000 0.59215686 0.58823529
0.26666667 0.60000000 0.59215686
0.60392157 0.61176471 0.60392157
0.86274510 0.63921569 0.61176471
1.00000000 0.65882353 0.61568627
0.36470588 0.78431373 0.62352941
0.44313725 0.78823529 0.62745098
0.52549020 0.77254902 0.57254902
0.77254902 0.81176471 0.56862745
1.00000000 0.83137255 0.59215686
0.50588235 0.96862745 0.70980392
0.51764706 0.96862745 0.70196078
0.60392157 0.96862745 0.69803922
0.74901961 0.97647059 0.69019608
0.95294118 0.99215686 0.63137255
0.03921569 0.00000000 0.87058824
0.38823529 0.00000000 0.87450980
0.71372549 0.00000000 0.87843137
0.94117647 0.00000000 0.88627451
1.00000000 0.00000000 0.85098039
0.16862745 0.22352941 0.86274510
0.40784314 0.21960784 0.86274510
0.70196078 0.25490196 0.87450980
0.92156863 0.34117647 0.87843137
1.00000000 0.38823529 0.84705882
0.00000000 0.57647059 0.82352941
0.27058824 0.58039216 0.83137255
0.62745098 0.61568627 0.84313725
0.86274510 0.65098039 0.85882353
1.00000000 0.65882353 0.84313725
0.38823529 0.80392157 0.80784314
0.47058824 0.80784314 0.81568627
0.62745098 0.81176471 0.81568627
0.81176471 0.82745098 0.83137255
1.00000000 0.84705882 0.84705882
0.63921569 0.97254902 0.86274510
0.65882353 0.97254902 0.86274510
0.72941176 0.97647059 0.86274510
0.78823529 0.97647059 0.83529412
0.96470588 0.99215686 0.82745098
0.50980392 0.06666667 1.00000000
0.58431373 0.07843137 1.00000000
0.74117647 0.16470588 1.00000000
0.90588235 0.30588235 1.00000000
1.00000000 0.40392157 1.00000000
0.51372549 0.35294118 1.00000000
0.58039216 0.36470588 1.00000000
0.72549020 0.40000000 1.00000000
0.89019608 0.47843137 1.00000000
1.00000000 0.52941176 1.00000000
0.46666667 0.63137255 1.00000000
0.54117647 0.63921569 1.00000000
0.69019608 0.65490196 1.00000000
0.86666667 0.68235294 1.00000000
1.00000000 0.70588235 1.00000000
0.43921569 0.81176471 0.98823529
0.49019608 0.81176471 0.99215686
0.61960784 0.81176471 0.99607843
0.83921569 0.83529412 0.99215686
1.00000000 0.86274510 0.99215686
0.66666667 0.98039216 0.98431373
0.69019608 0.98431373 0.98431373
0.76078431 0.98431373 0.98431373
0.86666667 0.98431373 0.98431373
0.99215686 0.99215686 0.99215686
