core/profiles/src/main/assets/luts/kodak_ektar_100.cube
# Source: RawTherapee Film Simulation Collection (HaldCLUT.zip)
# Converted from: HaldCLUT/Color/Kodak/Kodak Ektar 100.png
TITLE "kodak_ektar_100"
LUT_3D_SIZE 13
DOMAIN_MIN 0.0 0.0 0.0
DOMAIN_MAX 1.0 1.0 1.0
0.00000000 0.00000000 0.00000000
0.09803922 0.00000000 0.00000000
0.18039216 0.00000000 0.00000000
0.26274510 0.00392157 0.00000000
0.33725490 0.01176471 0.00000000
0.42352941 0.01568627 0.00000000
0.54117647 0.03137255 0.00000000
0.65882353 0.04705882 0.00000000
0.74509804 0.05882353 0.00000000
0.83137255 0.07058824 0.00000000
0.91372549 0.08235294 0.00000000
0.99607843 0.09803922 0.00000000
1.00000000 0.10588235 0.00000000
0.01568627 0.06666667 0.00784314
0.07450980 0.07450980 0.00392157
0.15686275 0.07843137 0.00392157
0.23529412 0.08627451 0.00392157
0.31372549 0.09019608 0.00392157
0.40392157 0.09411765 0.00392157
0.52941176 0.10196078 0.00000000
0.64705882 0.10980392 0.00000000
0.73725490 0.10588235 0.00000000
0.82745098 0.10196078 0.00000000
0.92156863 0.09019608 0.00000000
1.00000000 0.09803922 0.00000000
1.00000000 0.10588235 0.00000000
0.05098039 0.13725490 0.03921569
0.09411765 0.13725490 0.03921569
0.14509804 0.14117647 0.03529412
0.22352941 0.14901961 0.03529412
0.30196078 0.15294118 0.03137255
0.39215686 0.15686275 0.02745098
0.51764706 0.16470588 0.02352941
0.63137255 0.16862745 0.01960784
0.72156863 0.16862745 0.01176471
0.81176471 0.16470588 0.01176471
0.90196078 0.15686275 0.00392157
0.99215686 0.14117647 0.00392157
1.00000000 0.11372549 0.00000000
0.09019608 0.20000000 0.07450980
0.10980392 0.20392157 0.07450980
0.15294118 0.20784314 0.07450980
0.20784314 0.21176471 0.07058824
0.29019608 0.21568627 0.06666667
0.38431373 0.22352941 0.06274510
0.50980392 0.23137255 0.05882353
0.61568627 0.23529412 0.05098039
0.70196078 0.23529412 0.04313725
0.79215686 0.23137255 0.03921569
0.88235294 0.22352941 0.02745098
0.97254902 0.21176471 0.01960784
1.00000000 0.18823529 0.01176471
0.09019608 0.26666667 0.10588235
0.10588235 0.27058824 0.10588235
0.12941176 0.27058824 0.10588235
0.19607843 0.27450980 0.10196078
0.27843137 0.28235294 0.10196078
0.38039216 0.28627451 0.09803922
0.50588235 0.29411765 0.09019608
0.60392157 0.29803922 0.08235294
0.68627451 0.30196078 0.07450980
0.77647059 0.29803922 0.07058824
0.86666667 0.29411765 0.05882353
0.95294118 0.28627451 0.05098039
1.00000000 0.26274510 0.03921569
0.03921569 0.34901961 0.13333333
0.04705882 0.34901961 0.13333333
0.05882353 0.35294118 0.12941176
0.15686275 0.35686275 0.12941176
0.25490196 0.36078431 0.12549020
0.37254902 0.36862745 0.12156863
0.49019608 0.37254902 0.11372549
0.58039216 0.37647059 0.10980392
0.66666667 0.37647059 0.10588235
0.75294118 0.37647059 0.09803922
0.84313725 0.36862745 0.09019608
0.92941176 0.36078431 0.07843137
1.00000000 0.34509804 0.07058824
0.00000000 0.44705882 0.15294118
0.00000000 0.44705882 0.15294118
0.03137255 0.45098039 0.14901961
0.10588235 0.45490196 0.14901961
0.21568627 0.45882353 0.14509804
0.34901961 0.46666667 0.14117647
0.45882353 0.47450980 0.13333333
0.54117647 0.47843137 0.12941176
0.62352941 0.48235294 0.12549020
0.71372549 0.48235294 0.11764706
0.80000000 0.47843137 0.10980392
0.88627451 0.46666667 0.10196078
0.96470588 0.44705882 0.09411765
0.00000000 0.51764706 0.16862745
0.00000000 0.51764706 0.16862745
0.00000000 0.52156863 0.16470588
0.07450980 0.52549020 0.16078431
0.23137255 0.53333333 0.15686275
0.34901961 0.53725490 0.15294118
0.43921569 0.54509804 0.14901961
0.52156863 0.54901961 0.14509804
0.60392157 0.55294118 0.14117647
0.69019608 0.55686275 0.13333333
0.77254902 0.56078431 0.12549020
0.84705882 0.55686275 0.11764706
0.92156863 0.55294118 0.10980392
0.00000000 0.58823529 0.18823529
0.00392157 0.58823529 0.18823529
0.03529412 0.59215686 0.18431373
0.11764706 0.59607843 0.18039216
0.24705882 0.60000000 0.17647059
0.34117647 0.60784314 0.17254902
0.42745098 0.61176471 0.16862745
0.50588235 0.61568627 0.16078431
0.58823529 0.61960784 0.15294118
0.67058824 0.62352941 0.14509804
0.74901961 0.62745098 0.14117647
0.82352941 0.62745098 0.13333333
0.89803922 0.62352941 0.12549020
0.00000000 0.65882353 0.20784314
0.01176471 0.65882353 0.20784314
0.07843137 0.66274510 0.20392157
0.14901961 0.66666667 0.20392157
0.24313725 0.67058824 0.20000000
0.32549020 0.67450980 0.19607843
0.40784314 0.67843137 0.19215686
0.49019608 0.68235294 0.18823529
0.57254902 0.69019608 0.18039216
0.65098039 0.69411765 0.17254902
0.72156863 0.69411765 0.16078431
0.79607843 0.69803922 0.14901961
0.87450980 0.69411765 0.13333333
0.00784314 0.72156863 0.23529412
0.02745098 0.72156863 0.23529412
0.10196078 0.72549020 0.23137255
0.17254902 0.72549020 0.23137255
0.24705882 0.72941176 0.22745098
0.32549020 0.73333333 0.22352941
0.41176471 0.73725490 0.21960784
0.49019608 0.74509804 0.21568627
0.56470588 0.74901961 0.20784314
0.63921569 0.75294118 0.20392157
0.70196078 0.75686275 0.19215686
0.77254902 0.76078431 0.18039216
0.85882353 0.76470588 0.16078431
0.07450980 0.78039216 0.26666667
0.10196078 0.78431373 0.26666667
0.14901961 0.78431373 0.26666667
0.21176471 0.78431373 0.26274510
0.27843137 0.78823529 0.26274510
0.34901961 0.79215686 0.25882353
0.42745098 0.79607843 0.25490196
0.49803922 0.80392157 0.25098039
0.56470588 0.80784314 0.24705882
0.62745098 0.81176471 0.23921569
0.69019608 0.81568627 0.23137255
0.76078431 0.81960784 0.21960784
0.86274510 0.82745098 0.19607843
0.07058824 0.87058824 0.29019608
0.09019608 0.87058824 0.29019608
0.12156863 0.87058824 0.29019608
0.18039216 0.87450980 0.28627451
0.25490196 0.87843137 0.28627451
0.32549020 0.88235294 0.28235294
0.40000000 0.88627451 0.28235294
0.46274510 0.89019608 0.27843137
0.52549020 0.89411765 0.27450980
0.58431373 0.89803922 0.26666667
0.64705882 0.90196078 0.25882353
0.72941176 0.90588235 0.24313725
0.85490196 0.91372549 0.21568627
0.00000000 0.00000000 0.05882353
0.10980392 0.00000000 0.05098039
0.19607843 0.00000000 0.05098039
0.27450980 0.00392157 0.04705882
0.35294118 0.01176471 0.04313725
0.43921569 0.01568627 0.03921569
0.55686275 0.03137255 0.03529412
0.67450980 0.04705882 0.02745098
0.76078431 0.05882353 0.02352941
0.84313725 0.07058824 0.01568627
0.92941176 0.08235294 0.01176471
1.00000000 0.09411765 0.00784314
1.00000000 0.10588235 0.00000000
0.02352941 0.07450980 0.08235294
0.08235294 0.08235294 0.08235294
0.16078431 0.08627451 0.07843137
0.24313725 0.09411765 0.07450980
0.32156863 0.09803922 0.07450980
0.41176471 0.10196078 0.07058824
0.53725490 0.10980392 0.06274510
0.65490196 0.11372549 0.05490196
0.74509804 0.11372549 0.04705882
0.83529412 0.10980392 0.04313725
0.92941176 0.09803922 0.03137255
1.00000000 0.09411765 0.02352941
1.00000000 0.10588235 0.01568627
0.05882353 0.14117647 0.10196078
0.09803922 0.14509804 0.10196078
0.14901961 0.14901961 0.09803922
0.22745098 0.15294118 0.09803922
0.30588235 0.15686275 0.09411765
0.40000000 0.16078431 0.09019608
0.52549020 0.16862745 0.08235294
0.63921569 0.17647059 0.07843137
0.72941176 0.17254902 0.07058824
0.81960784 0.16862745 0.06274510
0.90980392 0.16078431 0.05490196
0.99607843 0.14509804 0.04313725
1.00000000 0.11764706 0.03137255
0.09019608 0.20392157 0.12549020
0.11372549 0.20784314 0.12549020
0.15294118 0.21176471 0.12156863
0.21568627 0.21568627 0.12156863
0.29411765 0.21960784 0.11764706
0.38823529 0.22745098 0.11372549
0.51764706 0.23529412 0.10588235
0.62352941 0.23921569 0.09803922
0.70980392 0.23921569 0.09411765
0.80000000 0.23529412 0.08627451
0.89019608 0.23137255 0.07843137
0.98039216 0.21568627 0.06666667
1.00000000 0.19215686 0.05490196
0.09411765 0.27058824 0.14509804
0.10980392 0.27058824 0.14509804
0.13333333 0.27450980 0.14509804
0.20000000 0.27843137 0.14117647
0.28235294 0.28235294 0.13725490
0.38431373 0.29019608 0.13333333
0.50980392 0.29803922 0.12549020
0.60784314 0.30196078 0.12156863
0.69411765 0.30196078 0.11372549
0.78039216 0.30196078 0.10980392
0.87058824 0.29803922 0.09803922
0.95686275 0.28627451 0.09019608
1.00000000 0.26666667 0.07843137
0.03529412 0.35294118 0.16470588
0.04313725 0.35294118 0.16078431
0.05882353 0.35686275 0.16078431
0.16078431 0.36078431 0.16078431
0.25882353 0.36470588 0.15686275
0.37254902 0.37254902 0.14901961
0.49411765 0.37647059 0.14509804
0.58431373 0.38039216 0.13725490
0.67058824 0.38039216 0.13333333
0.75686275 0.37647059 0.12941176
0.84705882 0.37254902 0.12156863
0.93333333 0.36470588 0.10980392
1.00000000 0.34509804 0.10196078
0.00000000 0.44705882 0.17647059
0.00000000 0.45098039 0.17647059
0.03529412 0.45098039 0.17647059
0.10588235 0.45490196 0.17254902
0.22352941 0.46274510 0.16862745
0.35294118 0.47058824 0.16470588
0.45882353 0.47843137 0.15686275
0.54509804 0.48235294 0.15294118
0.62745098 0.48235294 0.14901961
0.71764706 0.48235294 0.14117647
0.80392157 0.48235294 0.13725490
0.88627451 0.47058824 0.12941176
0.96862745 0.45098039 0.12156863
0.00000000 0.51764706 0.19215686
0.00000000 0.51764706 0.19215686
0.00000000 0.52156863 0.19215686
0.08235294 0.52549020 0.18823529
0.23921569 0.53333333 0.18431373
0.35294118 0.54117647 0.17647059
0.44313725 0.54509804 0.17254902
0.52549020 0.54901961 0.16470588
0.60784314 0.55686275 0.16078431
0.69411765 0.56078431 0.15294118
0.77254902 0.56078431 0.14901961
0.85098039 0.56078431 0.14117647
0.92549020 0.55294118 0.13333333
0.00000000 0.58823529 0.21176471
0.00784314 0.58823529 0.21176471
0.03921569 0.59215686 0.20784314
0.12549020 0.59607843 0.20784314
0.25098039 0.60392157 0.20392157
0.34509804 0.60784314 0.20000000
0.42745098 0.61176471 0.19215686
0.50980392 0.61568627 0.18823529
0.59215686 0.62352941 0.18039216
0.67450980 0.62745098 0.17254902
0.75294118 0.62745098 0.16470588
0.82352941 0.62745098 0.15294118
0.90196078 0.62352941 0.14117647
0.00392157 0.65882353 0.23529412
0.01960784 0.66274510 0.23137255
0.08235294 0.66274510 0.23137255
0.15294118 0.66666667 0.23137255
0.24705882 0.67058824 0.22745098
0.32941176 0.67450980 0.22352941
0.41176471 0.67843137 0.21960784
0.49411765 0.68235294 0.21568627
0.57647059 0.69019608 0.20784314
0.65490196 0.69411765 0.20000000
0.72549020 0.69803922 0.19215686
0.79607843 0.69803922 0.18039216
0.87843137 0.69803922 0.16470588
0.01568627 0.72156863 0.25882353
0.04705882 0.72156863 0.25882353
0.11372549 0.72549020 0.25882353
0.17647059 0.72549020 0.25490196
0.25490196 0.72941176 0.25490196
0.33333333 0.73333333 0.25098039
0.41568627 0.73725490 0.24705882
0.49411765 0.74509804 0.24313725
0.56862745 0.74901961 0.23921569
0.63921569 0.75294118 0.23137255
0.70588235 0.75686275 0.22352941
0.77647059 0.76078431 0.21176471
0.86274510 0.76470588 0.19607843
0.09019608 0.78431373 0.29019608
0.11372549 0.78431373 0.29019608
0.16078431 0.78431373 0.29019608
0.21568627 0.78823529 0.29019608
0.28627451 0.78823529 0.28627451
0.35686275 0.79215686 0.28627451
0.43137255 0.79607843 0.28235294
0.50196078 0.80392157 0.27843137
0.56862745 0.80784314 0.27450980
0.63137255 0.81176471 0.26666667
0.69411765 0.81568627 0.25882353
0.76470588 0.81960784 0.24705882
0.86666667 0.82745098 0.22745098
0.08235294 0.87058824 0.31764706
0.09803922 0.87058824 0.31764706
0.12941176 0.87450980 0.31764706
0.19215686 0.87450980 0.31764706
0.26274510 0.87843137 0.31764706
0.33333333 0.88235294 0.31372549
0.40392157 0.88627451 0.31372549
0.46666667 0.89019608 0.30980392
0.52941176 0.89411765 0.30588235
0.58823529 0.89803922 0.29803922
0.65098039 0.90196078 0.29019608
0.73333333 0.90980392 0.27843137
0.85882353 0.91764706 0.25098039
0.00000000 0.00000000 0.11764706
0.11764706 0.00000000 0.11372549
0.20000000 0.00392157 0.10980392
0.28235294 0.00784314 0.10980392
0.36078431 0.01176471 0.10588235
0.44705882 0.01568627 0.10196078
0.56862745 0.03137255 0.09411765
0.68235294 0.04705882 0.08627451
0.76862745 0.05882353 0.07843137
0.85490196 0.07058824 0.07058824
0.94117647 0.08235294 0.06274510
1.00000000 0.09411765 0.05098039
1.00000000 0.10588235 0.03921569
0.02745098 0.08235294 0.14117647
0.08627451 0.08627451 0.14117647
0.16862745 0.09019608 0.13725490
0.24705882 0.09803922 0.13333333
0.32941176 0.10196078 0.12941176
0.41960784 0.10588235 0.12549020
0.54509804 0.11764706 0.11764706
0.66274510 0.12156863 0.10980392
0.75294118 0.11764706 0.10588235
0.84313725 0.11372549 0.09803922
0.93725490 0.10588235 0.09019608
1.00000000 0.09411765 0.07843137
1.00000000 0.10588235 0.06666667
0.06274510 0.14509804 0.15686275
0.10196078 0.14901961 0.15294118
0.15294118 0.15294118 0.15294118
0.23137255 0.15686275 0.14901961
0.31372549 0.16078431 0.14901961
0.40392157 0.16862745 0.14509804
0.53333333 0.17647059 0.13725490
0.64705882 0.18039216 0.12941176
0.73333333 0.17647059 0.12156863
0.82352941 0.17254902 0.11764706
0.91764706 0.16470588 0.10588235
1.00000000 0.14901961 0.09803922
1.00000000 0.12156863 0.08627451
0.09019608 0.20784314 0.17254902
0.11372549 0.21176471 0.17254902
0.15686275 0.21568627 0.17254902
0.21960784 0.21960784 0.16862745
0.29803922 0.22352941 0.16470588
0.39215686 0.23137255 0.16078431
0.52156863 0.23921569 0.15294118
0.62745098 0.24313725 0.14509804
0.71372549 0.24313725 0.14117647
0.80392157 0.23921569 0.13333333
0.89411765 0.23529412 0.12549020
0.98431373 0.21960784 0.11764706
1.00000000 0.19607843 0.10588235
0.09803922 0.27450980 0.18823529
0.10980392 0.27450980 0.18823529
0.13725490 0.27843137 0.18823529
0.20392157 0.28235294 0.18431373
0.28627451 0.28627451 0.18039216
0.38823529 0.29411765 0.17647059
0.51372549 0.30196078 0.16862745
0.61176471 0.30588235 0.16470588
0.69803922 0.30588235 0.15686275
0.78431373 0.30588235 0.15294118
0.87450980 0.30196078 0.14509804
0.96078431 0.29019608 0.13725490
1.00000000 0.27058824 0.12549020
0.03137255 0.35686275 0.20392157
0.03921569 0.35686275 0.20392157
0.05882353 0.36078431 0.20000000
0.16470588 0.36470588 0.20000000
0.26274510 0.36862745 0.19607843
0.37647059 0.37647059 0.19215686
0.49803922 0.38039216 0.18431373
0.58823529 0.38431373 0.18039216
0.67450980 0.38431373 0.17254902
0.76470588 0.38039216 0.16862745
0.85098039 0.37647059 0.16078431
0.93725490 0.36862745 0.15294118
1.00000000 0.34901961 0.14509804
0.00000000 0.45098039 0.21960784
0.00000000 0.45098039 0.21960784
0.03921569 0.45490196 0.21960784
0.10980392 0.45882353 0.21568627
0.22745098 0.46666667 0.21176471
0.35686275 0.47450980 0.20784314
0.46666667 0.47843137 0.20000000
0.54901961 0.48235294 0.19607843
0.63529412 0.48627451 0.18823529
0.72156863 0.48627451 0.18039216
0.80784314 0.48627451 0.17647059
0.89019608 0.47450980 0.16862745
0.97254902 0.45490196 0.16078431
0.00000000 0.52156863 0.23921569
0.00000000 0.52156863 0.23921569
0.00000000 0.52549020 0.23529412
0.09803922 0.52941176 0.23137255
0.24705882 0.53725490 0.22745098
0.35686275 0.54117647 0.22352941
0.45098039 0.54901961 0.21960784
0.52941176 0.55294118 0.21568627
0.61568627 0.55686275 0.20784314
0.69803922 0.56078431 0.20000000
0.78039216 0.56470588 0.19215686
0.85490196 0.56078431 0.18431373
0.93333333 0.55686275 0.17254902
0.00000000 0.59215686 0.25490196
0.01176471 0.59215686 0.25490196
0.04313725 0.59607843 0.25490196
0.13725490 0.60000000 0.25098039
0.25882353 0.60392157 0.24705882
0.34901961 0.60784314 0.24313725
0.43529412 0.61568627 0.23921569
0.51372549 0.61960784 0.23529412
0.60000000 0.62352941 0.23137255
0.68235294 0.62745098 0.22352941
0.75686275 0.63137255 0.21568627
0.83137255 0.63137255 0.20784314
0.90588235 0.62745098 0.19215686
0.00784314 0.66274510 0.27843137
0.03529412 0.66274510 0.27843137
0.09411765 0.66666667 0.27450980
0.16470588 0.66666667 0.27450980
0.25882353 0.67058824 0.27058824
0.33725490 0.67450980 0.27058824
0.41960784 0.68235294 0.26666667
0.50196078 0.68627451 0.26274510
0.58431373 0.69019608 0.25490196
0.66274510 0.69411765 0.25098039
0.73333333 0.69803922 0.24313725
0.80392157 0.69803922 0.23137255
0.88235294 0.69803922 0.21960784
0.03529412 0.72156863 0.30588235
0.07843137 0.72549020 0.30588235
0.12941176 0.72549020 0.30588235
0.19215686 0.72941176 0.30196078
0.26666667 0.72941176 0.30196078
0.34117647 0.73333333 0.29803922
0.42352941 0.74117647 0.29803922
0.50196078 0.74509804 0.29411765
0.57647059 0.74901961 0.29019608
0.64705882 0.75686275 0.28235294
0.71372549 0.76078431 0.27450980
0.78431373 0.76078431 0.26666667
0.87058824 0.76470588 0.25098039
0.11764706 0.78431373 0.34117647
0.14117647 0.78431373 0.34117647
0.18039216 0.78431373 0.34117647
0.23529412 0.78823529 0.34117647
0.29803922 0.79215686 0.34117647
0.36862745 0.79607843 0.33725490
0.43921569 0.80000000 0.33333333
0.50980392 0.80392157 0.33333333
0.57647059 0.80784314 0.32941176
0.63921569 0.81176471 0.32549020
0.70196078 0.81568627 0.31764706
0.77254902 0.81960784 0.30588235
0.87450980 0.82745098 0.28627451
0.10196078 0.87450980 0.37254902
0.11764706 0.87450980 0.37254902
0.14509804 0.87450980 0.36862745
0.20784314 0.87843137 0.36862745
0.27843137 0.87843137 0.36862745
0.34509804 0.88235294 0.36470588
0.41568627 0.88627451 0.36470588
0.47843137 0.89019608 0.36078431
0.53725490 0.89411765 0.35686275
0.59607843 0.90196078 0.35294118
0.65882353 0.90588235 0.34901961
0.74117647 0.90980392 0.33725490
0.86666667 0.91764706 0.31372549
0.00000000 0.00000000 0.18039216
0.12156863 0.00392157 0.17647059
0.20392157 0.00392157 0.17254902
0.28627451 0.00784314 0.17254902
0.36862745 0.01176471 0.16862745
0.45490196 0.01568627 0.16470588
0.57647059 0.03137255 0.15686275
0.69411765 0.04705882 0.14901961
0.78039216 0.05882353 0.14117647
0.86274510 0.07058824 0.13333333
0.94901961 0.08235294 0.12549020
1.00000000 0.09411765 0.11372549
1.00000000 0.10588235 0.10196078
0.03137255 0.08627451 0.20000000
0.09019608 0.09411765 0.19607843
0.17254902 0.09803922 0.19607843
0.25490196 0.10196078 0.19215686
0.33333333 0.10980392 0.18823529
0.42352941 0.11372549 0.18431373
0.55294118 0.12156863 0.17647059
0.67058824 0.12549020 0.17254902
0.76078431 0.12549020 0.16470588
0.85098039 0.12156863 0.15686275
0.94509804 0.10980392 0.14901961
1.00000000 0.09803922 0.14117647
1.00000000 0.10588235 0.12941176
0.06666667 0.14901961 0.21176471
0.10588235 0.15294118 0.21176471
0.15686275 0.15686275 0.20784314
0.23921569 0.16078431 0.20784314
0.31764706 0.16862745 0.20392157
0.41176471 0.17254902 0.20000000
0.53725490 0.18039216 0.19215686
0.65098039 0.18431373 0.18431373
0.74117647 0.18431373 0.18039216
0.83137255 0.18039216 0.17254902
0.92549020 0.17254902 0.16470588
1.00000000 0.15686275 0.15686275
1.00000000 0.12549020 0.14509804
0.09411765 0.21176471 0.22745098
0.11764706 0.21568627 0.22745098
0.16078431 0.21960784 0.22352941
0.22352941 0.22352941 0.22352941
0.30588235 0.22745098 0.21960784
0.40000000 0.23529412 0.21568627
0.52941176 0.24313725 0.20784314
0.63529412 0.24705882 0.20392157
0.72156863 0.24705882 0.19607843
0.81176471 0.24705882 0.19215686
0.90196078 0.23921569 0.18431373
0.99215686 0.22352941 0.17647059
1.00000000 0.20000000 0.16862745
0.10196078 0.27843137 0.24313725
0.11764706 0.28235294 0.24313725
0.13725490 0.28235294 0.24313725
0.20784314 0.28627451 0.23921569
0.29411765 0.29019608 0.23529412
0.39607843 0.29803922 0.23137255
0.52156863 0.30588235 0.22745098
0.61960784 0.30980392 0.21960784
0.70588235 0.31372549 0.21568627
0.79215686 0.30980392 0.20784314
0.88235294 0.30588235 0.20000000
0.96862745 0.29411765 0.19215686
1.00000000 0.27450980 0.18431373
0.02745098 0.36470588 0.25882353
0.03529412 0.36470588 0.25882353
0.06666667 0.36862745 0.25882353
0.16862745 0.36862745 0.25490196
0.26666667 0.37254902 0.25490196
0.38431373 0.38039216 0.24705882
0.50588235 0.38823529 0.24313725
0.59607843 0.38823529 0.23921569
0.67843137 0.38823529 0.23137255
0.76862745 0.38823529 0.22745098
0.85882353 0.38431373 0.21960784
0.94509804 0.37254902 0.21176471
1.00000000 0.35294118 0.20392157
0.00000000 0.45490196 0.27843137
0.00784314 0.45490196 0.27843137
0.04705882 0.45882353 0.27450980
0.11372549 0.46274510 0.27450980
0.23529412 0.47058824 0.27058824
0.36470588 0.47843137 0.26666667
0.47058824 0.48235294 0.25882353
0.55686275 0.48627451 0.25490196
0.63921569 0.49019608 0.25098039
0.72941176 0.49411765 0.24705882
0.81568627 0.49019608 0.23921569
0.89803922 0.48235294 0.23137255
0.98039216 0.46274510 0.22352941
0.00000000 0.52156863 0.29803922
0.00000000 0.52549020 0.29803922
0.00000000 0.52549020 0.29411765
0.11764706 0.53333333 0.29411765
0.25490196 0.53725490 0.29019608
0.36862745 0.54509804 0.28627451
0.45882353 0.54901961 0.28235294
0.53725490 0.55686275 0.27843137
0.62352941 0.56078431 0.27450980
0.70588235 0.56470588 0.26666667
0.78823529 0.56470588 0.25882353
0.86274510 0.56470588 0.25098039
0.94117647 0.55686275 0.24313725
0.00784314 0.59215686 0.32156863
0.01960784 0.59607843 0.31764706
0.05098039 0.59607843 0.31764706
0.15686275 0.60392157 0.31764706
0.27058824 0.60784314 0.31372549
0.36078431 0.61176471 0.30980392
0.44313725 0.61568627 0.30588235
0.52549020 0.62352941 0.30196078
0.60784314 0.62745098 0.29803922
0.69019608 0.63137255 0.29411765
0.76470588 0.63137255 0.28627451
0.83921569 0.63137255 0.27843137
0.91764706 0.62745098 0.26666667
0.02745098 0.66274510 0.34509804
0.05490196 0.66666667 0.34509804
0.10980392 0.66666667 0.34509804
0.18431373 0.67058824 0.34509804
0.27058824 0.67450980 0.34117647
0.35294118 0.67843137 0.34117647
0.43137255 0.68235294 0.33725490
0.51372549 0.68627451 0.33725490
0.59215686 0.69411765 0.32941176
0.67058824 0.69803922 0.32549020
0.74117647 0.70196078 0.32156863
0.81176471 0.70196078 0.31372549
0.89411765 0.70196078 0.30196078
0.08627451 0.72549020 0.38039216
0.11372549 0.72549020 0.38039216
0.15686275 0.72549020 0.38039216
0.21568627 0.72941176 0.38039216
0.28627451 0.73333333 0.38039216
0.35686275 0.73725490 0.37647059
0.43921569 0.74117647 0.37647059
0.51372549 0.74509804 0.37254902
0.58823529 0.75294118 0.36862745
0.65882353 0.75686275 0.36470588
0.72549020 0.76078431 0.36078431
0.79607843 0.76470588 0.35294118
0.88235294 0.76862745 0.33725490
0.15294118 0.78431373 0.41568627
0.16862745 0.78431373 0.41568627
0.20392157 0.78823529 0.41568627
0.25490196 0.78823529 0.41568627
0.31764706 0.79215686 0.41176471
0.38431373 0.79607843 0.41176471
0.45490196 0.80000000 0.40784314
0.52549020 0.80392157 0.40784314
0.58823529 0.81176471 0.40392157
0.65098039 0.81568627 0.40000000
0.71372549 0.81960784 0.39607843
0.78431373 0.82352941 0.38823529
0.89019608 0.82745098 0.37254902
0.12549020 0.87450980 0.43529412
0.13725490 0.87843137 0.43529412
0.16862745 0.87843137 0.43529412
0.23137255 0.87843137 0.43137255
0.29411765 0.88235294 0.43137255
0.35686275 0.88627451 0.43137255
0.42352941 0.89019608 0.42745098
0.48627451 0.89411765 0.42745098
0.54509804 0.89803922 0.42352941
0.60392157 0.90196078 0.41960784
0.66666667 0.90588235 0.41568627
0.75294118 0.91372549 0.40392157
0.87843137 0.92156863 0.38823529
0.00000000 0.00392157 0.23529412
0.12549020 0.00784314 0.22745098
0.21176471 0.00784314 0.22745098
0.29019608 0.01176471 0.22352941
0.37254902 0.01960784 0.22352941
0.46274510 0.01568627 0.21568627
0.58823529 0.03137255 0.21176471
0.70196078 0.04705882 0.20392157
0.78823529 0.05882353 0.20000000
0.87450980 0.07058824 0.19215686
0.95686275 0.08235294 0.18431373
1.00000000 0.09803922 0.17254902
1.00000000 0.10588235 0.16470588
0.03529412 0.09411765 0.25490196
0.09411765 0.09803922 0.25098039
0.17647059 0.10196078 0.25098039
0.25882353 0.10980392 0.24705882
0.33725490 0.11372549 0.24313725
0.43137255 0.11764706 0.23921569
0.55686275 0.12941176 0.23529412
0.67450980 0.13333333 0.22745098
0.76470588 0.13333333 0.22352941
0.85490196 0.12549020 0.21568627
0.94901961 0.11764706 0.20784314
1.00000000 0.09803922 0.20000000
1.00000000 0.10588235 0.19215686
0.07058824 0.15686275 0.26666667
0.10980392 0.15686275 0.26666667
0.16078431 0.16470588 0.26274510
0.24313725 0.16862745 0.26274510
0.32156863 0.17254902 0.25882353
0.41568627 0.18039216 0.25490196
0.54509804 0.18823529 0.25098039
0.65882353 0.19215686 0.24313725
0.74901961 0.18823529 0.23921569
0.83921569 0.18431373 0.23137255
0.93333333 0.17647059 0.22745098
1.00000000 0.16078431 0.21960784
1.00000000 0.13333333 0.20784314
0.09411765 0.21960784 0.28627451
0.11764706 0.21960784 0.28627451
0.16078431 0.22352941 0.28235294
0.22745098 0.22745098 0.28235294
0.30980392 0.23137255 0.27843137
