core/profiles/src/main/assets/luts/kodak_elite_100_xpro.cube
# Source: RawTherapee Film Simulation Collection (HaldCLUT.zip)
# Converted from: HaldCLUT/Color/Kodak/Kodak Elite 100 XPRO.png
TITLE "kodak_elite_100_xpro"
LUT_3D_SIZE 7
DOMAIN_MIN 0.0 0.0 0.0
DOMAIN_MAX 1.0 1.0 1.0
0.00000000 0.00000000 0.00000000
0.09019608 0.00000000 0.00000000
0.20392157 0.00000000 0.00000000
0.38039216 0.00784314 0.00784314
0.63921569 0.02352941 0.02352941
0.84313725 0.05098039 0.03921569
0.97254902 0.09019608 0.05490196
0.05098039 0.05490196 0.00000000
0.10980392 0.06274510 0.00000000
0.22745098 0.07843137 0.00392157
0.40392157 0.09803922 0.00784314
0.65882353 0.12941176 0.01960784
0.85882353 0.18039216 0.03137255
0.99215686 0.25490196 0.03921569
0.10588235 0.23137255 0.00392157
0.13725490 0.23921569 0.00392157
0.26274510 0.25490196 0.00784314
0.44313725 0.27843137 0.01176471
0.69803922 0.31372549 0.02352941
0.88627451 0.36470588 0.01960784
1.00000000 0.42745098 0.02352941
0.07058824 0.47058824 0.00784314
0.11764706 0.47450980 0.00784314
0.28627451 0.48235294 0.00784314
0.50588235 0.50196078 0.01568627
0.74509804 0.52549020 0.01960784
0.91372549 0.55294118 0.01568627
1.00000000 0.58823529 0.01176471
0.12549020 0.65490196 0.00784314
0.19215686 0.65490196 0.00784314
0.36078431 0.66274510 0.00784314
0.60392157 0.67450980 0.01568627
0.79607843 0.69019608 0.01568627
0.94117647 0.70588235 0.01176471
1.00000000 0.72156863 0.00392157
0.35294118 0.79215686 0.00784314
0.41960784 0.79215686 0.00784314
0.56078431 0.80000000 0.00784314
0.72156863 0.80784314 0.00784314
0.85490196 0.81568627 0.00784314
0.97254902 0.82352941 0.00392157
1.00000000 0.83137255 0.00000000
0.66666667 0.88235294 0.00000000
0.69019608 0.88235294 0.00000000
0.75686275 0.88627451 0.00000000
0.83921569 0.89019608 0.00000000
0.92549020 0.89019608 0.00000000
1.00000000 0.89411765 0.00000000
1.00000000 0.89411765 0.00000000
0.00000000 0.00000000 0.01176471
0.07843137 0.00000000 0.01568627
0.18823529 0.00392157 0.01960784
0.37647059 0.01176471 0.03137255
0.63529412 0.03137255 0.04705882
0.84313725 0.05882353 0.05098039
0.98039216 0.10196078 0.05098039
0.04313725 0.06666667 0.01960784
0.09803922 0.07450980 0.01960784
0.21568627 0.08627451 0.02745098
0.39607843 0.10980392 0.03529412
0.65882353 0.14509804 0.05098039
0.86274510 0.19607843 0.05098039
0.99607843 0.26666667 0.03921569
0.09019608 0.24313725 0.02352941
0.12156863 0.25098039 0.02352941
0.25098039 0.26666667 0.03137255
0.43529412 0.29019608 0.03921569
0.69803922 0.32941176 0.05098039
0.88627451 0.38039216 0.04705882
1.00000000 0.43529412 0.02745098
0.04313725 0.47843137 0.02352941
0.08627451 0.48235294 0.02352941
0.27450980 0.49411765 0.02745098
0.49803922 0.50980392 0.03529412
0.74117647 0.53333333 0.04313725
0.91372549 0.56078431 0.03529412
1.00000000 0.59607843 0.01960784
0.09411765 0.65882353 0.02352941
0.16078431 0.66274510 0.02745098
0.34509804 0.67058824 0.02745098
0.59607843 0.68235294 0.03137255
0.79215686 0.69411765 0.03137255
0.93725490 0.70980392 0.02352941
1.00000000 0.72941176 0.01176471
0.33333333 0.79607843 0.01960784
0.40000000 0.80000000 0.02352941
0.54901961 0.80392157 0.01960784
0.71372549 0.81176471 0.01960784
0.85098039 0.81960784 0.01568627
0.96862745 0.82745098 0.01176471
1.00000000 0.83529412 0.00392157
0.65490196 0.88627451 0.00000000
0.68235294 0.89019608 0.00000000
0.74901961 0.89019608 0.00000000
0.83529412 0.89411765 0.00000000
0.92156863 0.89411765 0.00000000
1.00000000 0.89411765 0.00000000
1.00000000 0.89411765 0.00000000
0.00000000 0.00000000 0.05882353
0.06666667 0.00392157 0.06274510
0.17647059 0.01176471 0.07058824
0.36862745 0.01960784 0.07843137
0.63529412 0.04313725 0.09411765
0.84313725 0.07058824 0.09411765
0.98039216 0.11372549 0.07450980
0.03137255 0.08235294 0.07843137
0.08235294 0.09019608 0.08235294
0.19607843 0.10196078 0.08627451
0.38823529 0.12549020 0.09411765
0.65490196 0.16470588 0.10588235
0.86274510 0.21568627 0.09803922
0.99607843 0.28235294 0.07450980
0.08235294 0.26274510 0.09803922
0.10588235 0.27058824 0.09803922
0.22352941 0.28627451 0.10196078
0.42352941 0.30980392 0.10588235
0.69019608 0.35294118 0.10980392
0.88235294 0.40000000 0.09803922
1.00000000 0.45098039 0.07058824
0.00000000 0.49803922 0.11764706
0.01176471 0.50196078 0.11764706
0.23137255 0.51372549 0.11764706
0.47450980 0.52941176 0.11764706
0.73333333 0.55294118 0.10980392
0.90588235 0.57647059 0.09411765
1.00000000 0.61176471 0.05882353
0.01960784 0.67843137 0.12156863
0.07843137 0.68235294 0.12156863
0.29411765 0.68627451 0.12156863
0.56862745 0.69803922 0.12156863
0.77647059 0.71372549 0.10980392
0.92549020 0.72549020 0.08235294
1.00000000 0.74117647 0.04313725
0.25098039 0.81568627 0.15686275
0.33725490 0.81960784 0.15686275
0.50588235 0.82352941 0.16078431
0.68627451 0.83137255 0.15686275
0.83137255 0.83529412 0.13725490
0.95294118 0.84313725 0.06274510
1.00000000 0.84705882 0.01960784
0.61960784 0.90588235 0.18823529
0.64705882 0.90588235 0.18431373
0.71764706 0.90588235 0.18039216
0.80784314 0.90980392 0.16470588
0.90196078 0.90980392 0.13333333
0.99215686 0.90980392 0.01176471
1.00000000 0.90196078 0.00000000
0.00000000 0.00784314 0.18431373
0.04313725 0.01568627 0.18431373
0.15686275 0.02352941 0.19215686
0.35294118 0.03529412 0.19607843
0.62352941 0.05882353 0.19607843
0.83921569 0.08627451 0.17647059
0.98039216 0.13333333 0.13725490
0.01568627 0.10980392 0.22745098
0.06274510 0.11764706 0.23137255
0.16078431 0.12941176 0.23529412
0.36470588 0.15686275 0.24313725
0.63529412 0.19607843 0.24313725
0.85098039 0.24705882 0.22352941
0.99607843 0.30980392 0.15686275
0.03137255 0.29803922 0.27450980
0.05098039 0.30588235 0.27450980
0.15294118 0.32156863 0.27843137
0.38431373 0.34901961 0.28235294
0.66666667 0.38823529 0.28235294
0.86666667 0.43137255 0.26274510
1.00000000 0.47843137 0.18823529
0.00000000 0.53333333 0.34117647
0.00000000 0.53725490 0.34117647
0.11764706 0.54901961 0.34509804
0.41568627 0.56470588 0.34509804
0.69803922 0.58823529 0.34117647
0.88235294 0.61176471 0.30588235
1.00000000 0.63921569 0.22745098
0.00000000 0.71372549 0.43137255
0.00000000 0.71372549 0.43137255
0.14509804 0.72156863 0.43137255
0.50196078 0.73333333 0.43529412
0.73333333 0.74509804 0.42745098
0.89411765 0.75686275 0.37254902
1.00000000 0.76862745 0.26666667
0.00000000 0.85098039 0.50980392
0.12941176 0.85098039 0.50980392
0.40784314 0.85882353 0.51372549
0.61960784 0.86666667 0.51764706
0.78039216 0.87058824 0.50588235
0.91372549 0.87843137 0.45882353
1.00000000 0.87450980 0.30980392
0.53725490 0.93725490 0.56470588
0.57254902 0.93725490 0.56470588
0.65098039 0.94117647 0.56470588
0.75294118 0.94117647 0.55294118
0.85490196 0.94509804 0.53333333
0.94901961 0.94117647 0.48627451
1.00000000 0.92941176 0.27058824
0.00000000 0.02745098 0.39215686
0.01176471 0.03921569 0.39607843
0.11372549 0.05098039 0.40392157
0.31764706 0.07058824 0.41176471
0.59607843 0.09411765 0.40784314
0.82352941 0.12156863 0.38431373
0.96862745 0.16862745 0.31764706
0.00000000 0.15294118 0.49803922
0.02745098 0.16078431 0.50588235
0.11372549 0.17647059 0.51372549
0.31372549 0.20392157 0.52156863
0.60000000 0.24705882 0.51764706
0.82745098 0.29803922 0.49411765
0.97647059 0.35686275 0.40000000
0.00000000 0.34901961 0.56862745
0.00000000 0.35686275 0.57254902
0.01568627 0.37647059 0.58039216
0.30588235 0.40392157 0.58431373
0.61568627 0.44313725 0.58823529
0.83137255 0.48235294 0.57647059
0.97647059 0.52549020 0.50196078
0.00000000 0.57647059 0.62745098
0.00000000 0.58039216 0.63137255
0.00000000 0.59215686 0.63921569
0.30980392 0.60784314 0.65098039
0.63921569 0.63529412 0.66274510
0.83921569 0.65882353 0.65490196
0.97254902 0.68627451 0.58431373
0.00000000 0.74509804 0.67843137
0.00000000 0.74901961 0.68235294
0.00000000 0.75686275 0.68627451
0.40392157 0.76862745 0.69803922
0.67843137 0.78431373 0.70588235
0.85098039 0.79607843 0.69803922
0.96862745 0.81176471 0.65882353
0.00000000 0.87843137 0.73725490
0.00000000 0.87843137 0.74117647
0.25882353 0.88627451 0.74901961
0.54901961 0.89411765 0.75686275
0.72941176 0.90196078 0.76078431
0.87058824 0.90980392 0.74901961
0.96862745 0.91764706 0.70196078
0.44705882 0.96078431 0.78823529
0.49019608 0.96078431 0.78823529
0.58431373 0.96470588 0.79215686
0.70196078 0.96862745 0.79607843
0.80784314 0.97254902 0.79607843
0.90588235 0.97254902 0.78431373
1.00000000 0.96862745 0.70980392
0.00000000 0.07058824 0.66666667
0.00000000 0.08235294 0.67450980
0.05098039 0.09411765 0.68627451
0.26274510 0.11372549 0.70196078
0.54901961 0.14117647 0.71764706
0.78823529 0.17647059 0.71764706
0.94117647 0.23137255 0.67058824
0.00000000 0.19607843 0.72549020
0.00000000 0.20784314 0.73333333
0.04705882 0.22745098 0.74117647
0.24313725 0.25882353 0.75686275
0.54509804 0.30196078 0.77254902
0.79215686 0.35294118 0.77647059
0.94509804 0.42352941 0.74509804
0.00000000 0.40000000 0.77254902
0.00000000 0.40784314 0.77647059
0.00000000 0.42745098 0.78431373
0.19607843 0.45490196 0.80000000
0.55294118 0.49019608 0.81960784
0.79607843 0.52941176 0.82352941
0.94117647 0.57647059 0.80000000
0.00000000 0.61176471 0.79607843
0.00000000 0.61568627 0.80000000
0.00000000 0.62352941 0.80784314
0.15294118 0.64313725 0.82352941
0.57647059 0.66666667 0.84313725
0.80392157 0.69411765 0.85490196
0.94117647 0.72941176 0.84705882
0.00000000 0.76862745 0.82352941
0.00000000 0.77254902 0.82745098
0.00000000 0.78039216 0.83529412
0.25490196 0.79215686 0.85098039
0.61960784 0.80784314 0.87058824
0.81568627 0.82745098 0.87843137
0.93725490 0.84313725 0.87058824
0.00000000 0.89411765 0.85490196
0.00000000 0.89411765 0.85882353
0.00000000 0.90196078 0.87058824
0.45882353 0.91372549 0.88235294
0.68235294 0.92156863 0.89803922
0.83921569 0.93333333 0.90196078
0.94117647 0.94117647 0.89803922
0.30588235 0.97254902 0.89803922
0.37254902 0.97254902 0.89803922
0.50588235 0.97647059 0.90588235
0.65098039 0.98039216 0.91372549
0.77647059 0.98431373 0.92156863
0.88235294 0.98823529 0.92549020
0.99215686 0.99215686 0.91372549
0.00000000 0.10588235 0.83137255
0.00000000 0.11372549 0.83529412
0.01176471 0.12549020 0.84705882
0.19607843 0.14901961 0.86274510
0.49411765 0.17647059 0.88627451
0.76078431 0.21960784 0.90196078
0.92156863 0.29411765 0.89803922
0.00000000 0.24313725 0.85882353
0.00000000 0.25490196 0.85882353
0.01176471 0.27450980 0.87058824
0.13725490 0.30588235 0.88627451
0.48235294 0.34901961 0.90980392
0.76470588 0.40000000 0.92549020
0.92156863 0.48235294 0.92549020
0.00000000 0.44705882 0.87058824
0.00000000 0.45490196 0.87450980
0.00000000 0.47058824 0.88627451
0.01960784 0.49411765 0.90196078
0.47450980 0.52549020 0.92549020
0.76470588 0.56862745 0.94509804
0.92156863 0.61568627 0.94509804
0.00000000 0.63921569 0.88627451
0.00000000 0.64313725 0.89019608
0.00000000 0.65490196 0.89803922
0.00000000 0.67058824 0.91372549
0.48627451 0.69803922 0.93725490
0.76862745 0.72549020 0.95686275
0.92156863 0.75686275 0.96078431
0.00000000 0.78823529 0.89803922
0.00000000 0.78823529 0.90196078
0.00000000 0.79607843 0.91372549
0.00000000 0.81176471 0.92941176
0.53333333 0.82745098 0.95294118
0.78039216 0.84705882 0.96862745
0.92156863 0.86666667 0.97647059
0.00000000 0.90588235 0.91764706
0.00000000 0.90588235 0.92156863
0.00000000 0.91372549 0.92941176
0.21176471 0.92156863 0.94509804
0.60784314 0.93333333 0.96470588
0.80392157 0.94509804 0.97647059
0.92549020 0.95686275 0.98431373
0.00000000 0.97254902 0.94509804
0.00000000 0.97647059 0.94509804
0.21960784 0.98039216 0.95686275
0.52941176 0.98431373 0.96862745
0.70980392 0.99215686 0.98039216
0.85098039 0.99607843 0.98823529
1.00000000 1.00000000 1.00000000
