core/profiles/src/main/assets/luts/kodak_portra_400.cube
# Source: RawTherapee Film Simulation Collection (HaldCLUT.zip)
# Converted from: HaldCLUT/Color/Kodak/Kodak Portra 400 2.png
TITLE "kodak_portra_400"
LUT_3D_SIZE 13
DOMAIN_MIN 0.0 0.0 0.0
DOMAIN_MAX 1.0 1.0 1.0
0.01568627 0.01568627 0.01568627
0.04313725 0.01568627 0.01568627
0.11372549 0.01960784 0.01176471
0.21568627 0.00784314 0.00784314
0.34509804 0.00000000 0.00000000
0.49411765 0.00000000 0.00000000
0.63529412 0.00000000 0.00000000
0.74901961 0.00000000 0.00000000
0.85490196 0.00000000 0.00000000
0.92941176 0.00000000 0.00000000
1.00000000 0.07843137 0.00000000
1.00000000 0.16078431 0.00000000
1.00000000 0.22352941 0.00000000
0.01568627 0.03921569 0.01960784
0.03921569 0.04313725 0.01960784
0.11764706 0.05882353 0.01176471
0.22352941 0.06274510 0.00392157
0.34901961 0.04705882 0.00000000
0.49019608 0.00392157 0.00000000
0.63529412 0.00000000 0.00000000
0.74901961 0.00000000 0.00000000
0.85098039 0.00000000 0.00000000
0.92941176 0.08235294 0.00000000
0.99607843 0.14901961 0.00000000
1.00000000 0.20784314 0.00000000
1.00000000 0.25882353 0.00000000
0.00000000 0.09803922 0.02745098
0.01960784 0.09411765 0.02745098
0.09411765 0.11372549 0.01568627
0.21568627 0.13725490 0.00000000
0.34901961 0.14509804 0.00000000
0.49019608 0.14509804 0.00000000
0.63137255 0.14117647 0.00000000
0.74509804 0.15294118 0.00000000
0.84313725 0.17254902 0.00000000
0.92156863 0.20392157 0.00000000
0.98823529 0.23921569 0.00000000
1.00000000 0.27450980 0.00000000
1.00000000 0.30980392 0.00000000
0.00000000 0.18039216 0.03137255
0.00000000 0.17254902 0.04313725
0.05098039 0.18039216 0.03137255
0.17254902 0.20784314 0.00000000
0.32941176 0.23921569 0.00000000
0.48235294 0.25882353 0.00000000
0.62352941 0.26666667 0.00000000
0.72941176 0.27843137 0.00000000
0.83137255 0.29411765 0.00000000
0.90980392 0.31372549 0.00000000
0.98039216 0.33333333 0.00000000
1.00000000 0.35686275 0.00000000
1.00000000 0.38039216 0.00000000
0.00000000 0.28627451 0.05098039
0.00000000 0.27450980 0.05882353
0.00000000 0.27058824 0.07058824
0.12941176 0.29411765 0.03921569
0.27843137 0.32549020 0.00000000
0.45882353 0.36470588 0.00000000
0.60000000 0.38039216 0.00000000
0.70980392 0.38823529 0.00000000
0.81176471 0.40000000 0.00000000
0.89019608 0.41176471 0.00000000
0.96470588 0.42745098 0.00000000
1.00000000 0.43921569 0.00000000
1.00000000 0.45490196 0.00000000
0.00000000 0.39215686 0.07843137
0.00000000 0.38431373 0.09019608
0.00000000 0.36470588 0.10196078
0.06274510 0.37647059 0.09411765
0.22352941 0.40392157 0.04313725
0.38823529 0.43921569 0.00000000
0.56862745 0.47843137 0.00000000
0.67843137 0.49019608 0.00000000
0.78039216 0.49803922 0.00000000
0.87058824 0.50196078 0.00000000
0.94509804 0.50980392 0.00000000
1.00000000 0.51764706 0.00000000
1.00000000 0.52549020 0.00000000
0.00000000 0.48627451 0.11764706
0.00000000 0.47843137 0.12156863
0.00000000 0.47058824 0.13725490
0.00000000 0.45490196 0.14901961
0.18039216 0.47843137 0.12156863
0.33333333 0.50588235 0.06666667
0.49019608 0.53333333 0.00000000
0.64313725 0.56470588 0.00000000
0.75686275 0.58039216 0.00000000
0.84705882 0.58823529 0.00000000
0.92941176 0.59215686 0.00000000
0.99607843 0.58823529 0.00000000
1.00000000 0.59607843 0.00000000
0.00000000 0.56078431 0.15686275
0.00000000 0.56078431 0.16862745
0.00000000 0.54901961 0.17254902
0.00000000 0.53333333 0.18823529
0.14901961 0.53725490 0.18039216
0.29803922 0.56078431 0.15294118
0.44313725 0.58431373 0.09803922
0.57647059 0.60784314 0.00000000
0.72549020 0.64313725 0.00000000
0.81960784 0.65098039 0.00000000
0.90196078 0.65490196 0.00000000
0.98039216 0.65882353 0.00000000
1.00000000 0.65490196 0.00000000
0.00000000 0.63921569 0.21176471
0.00000000 0.64313725 0.22352941
0.00000000 0.63529412 0.22745098
0.00000000 0.61960784 0.23529412
0.15686275 0.60392157 0.24705882
0.29019608 0.62352941 0.22745098
0.41960784 0.64313725 0.20000000
0.54117647 0.66274510 0.16078431
0.66666667 0.68627451 0.09411765
0.79215686 0.70980392 0.00000000
0.88627451 0.72156863 0.00000000
0.96078431 0.72549020 0.00000000
1.00000000 0.72156863 0.00000000
0.00000000 0.71764706 0.28627451
0.00000000 0.71764706 0.29019608
0.00000000 0.70980392 0.29411765
0.06666667 0.70196078 0.30196078
0.21960784 0.68627451 0.30980392
0.31764706 0.68627451 0.30588235
0.42745098 0.70588235 0.29411765
0.52941176 0.72156863 0.27058824
0.63529412 0.73725490 0.23921569
0.74117647 0.75294118 0.18823529
0.85098039 0.77254902 0.10196078
0.94509804 0.78431373 0.00000000
1.00000000 0.78823529 0.00000000
0.00000000 0.78823529 0.37647059
0.07843137 0.78823529 0.38039216
0.16078431 0.78039216 0.38039216
0.24313725 0.77647059 0.38823529
0.31372549 0.76862745 0.39607843
0.38039216 0.75686275 0.40392157
0.46274510 0.76862745 0.39215686
0.54117647 0.78039216 0.38431373
0.62745098 0.79215686 0.36470588
0.72156863 0.80784314 0.33725490
0.81568627 0.82745098 0.30196078
0.91372549 0.83921569 0.24313725
1.00000000 0.85882353 0.22745098
0.31764706 0.86666667 0.49411765
0.33333333 0.86666667 0.49803922
0.36078431 0.86274510 0.50196078
0.39607843 0.85882353 0.50980392
0.43921569 0.85098039 0.51372549
0.48627451 0.84313725 0.52549020
0.54117647 0.84705882 0.52941176
0.59215686 0.85490196 0.52156863
0.65882353 0.86666667 0.51372549
0.72941176 0.88235294 0.49803922
0.80392157 0.89019608 0.47843137
0.88627451 0.90196078 0.44313725
0.97254902 0.90980392 0.39607843
0.53725490 0.94901961 0.65098039
0.54509804 0.94509804 0.65098039
0.55686275 0.94509804 0.65490196
0.57647059 0.94117647 0.65882353
0.60784314 0.94117647 0.67058824
0.63921569 0.93725490 0.68235294
0.67450980 0.93333333 0.69411765
0.70196078 0.94117647 0.69019608
0.74509804 0.95294118 0.69019608
0.78823529 0.96078431 0.68235294
0.83529412 0.96470588 0.67058824
0.89411765 0.97647059 0.65882353
0.96078431 0.98431373 0.64313725
0.01960784 0.01960784 0.04313725
0.05490196 0.01568627 0.05098039
0.11764706 0.00784314 0.05490196
0.22352941 0.00000000 0.04705882
0.35294118 0.00000000 0.04313725
0.49803922 0.00000000 0.03137255
0.63921569 0.00000000 0.01176471
0.75686275 0.00000000 0.00000000
0.85490196 0.00000000 0.00000000
0.93333333 0.00000000 0.00000000
0.99607843 0.02745098 0.00000000
1.00000000 0.14117647 0.00000000
1.00000000 0.21176471 0.00000000
0.00784314 0.05098039 0.05098039
0.04705882 0.05098039 0.05098039
0.12156863 0.05098039 0.04705882
0.22745098 0.04705882 0.04705882
0.35686275 0.01568627 0.03921569
0.49803922 0.00000000 0.02352941
0.63921569 0.00000000 0.00000000
0.75294118 0.00000000 0.00000000
0.85098039 0.00000000 0.00000000
0.92941176 0.03921569 0.00000000
0.99215686 0.12549020 0.00000000
1.00000000 0.19215686 0.00000000
1.00000000 0.24705882 0.00000000
0.00000000 0.12156863 0.06274510
0.03529412 0.11372549 0.06274510
0.10588235 0.12156863 0.05490196
0.22745098 0.13725490 0.03529412
0.35686275 0.13725490 0.01568627
0.49411765 0.12941176 0.00000000
0.63921569 0.12941176 0.00000000
0.74901961 0.13333333 0.00000000
0.84313725 0.15686275 0.00000000
0.92156863 0.18823529 0.00000000
0.99215686 0.23137255 0.00000000
1.00000000 0.26274510 0.00000000
1.00000000 0.30196078 0.00000000
0.00000000 0.20784314 0.07058824
0.00000000 0.20000000 0.07843137
0.07450980 0.19215686 0.08235294
0.18431373 0.21568627 0.05098039
0.34117647 0.24705882 0.00392157
0.49019608 0.25490196 0.00000000
0.63137255 0.26274510 0.00000000
0.73725490 0.27058824 0.00000000
0.83137255 0.28627451 0.00000000
0.90980392 0.30588235 0.00000000
0.97647059 0.32549020 0.00000000
1.00000000 0.34901961 0.00000000
1.00000000 0.37647059 0.00000000
0.00000000 0.30588235 0.09019608
0.00000000 0.29803922 0.09803922
0.01568627 0.28235294 0.11372549
0.14509804 0.30588235 0.09411765
0.29019608 0.33333333 0.03921569
0.46274510 0.36470588 0.00000000
0.60784314 0.38431373 0.00000000
0.71764706 0.38823529 0.00000000
0.81176471 0.39215686 0.00000000
0.89411765 0.40784314 0.00000000
0.96470588 0.42352941 0.00000000
1.00000000 0.43529412 0.00000000
1.00000000 0.45098039 0.00000000
0.00000000 0.40784314 0.11764706
0.00000000 0.40392157 0.12549020
0.00000000 0.38431373 0.13725490
0.09411765 0.38431373 0.13725490
0.23529412 0.41176471 0.10196078
0.40000000 0.44705882 0.02352941
0.57254902 0.47843137 0.00000000
0.68627451 0.49019608 0.00000000
0.78431373 0.49803922 0.00000000
0.87058824 0.49803922 0.00000000
0.94901961 0.50980392 0.00000000
1.00000000 0.51372549 0.00000000
1.00000000 0.52549020 0.00000000
0.00000000 0.50196078 0.14901961
0.00000000 0.49411765 0.15294118
0.00000000 0.47843137 0.16470588
0.01960784 0.46274510 0.18039216
0.19607843 0.48235294 0.16078431
0.34117647 0.50980392 0.12156863
0.49803922 0.54117647 0.03529412
0.64705882 0.56862745 0.00000000
0.75686275 0.58039216 0.00000000
0.84705882 0.58431373 0.00000000
0.92941176 0.58823529 0.00000000
1.00000000 0.58823529 0.00000000
1.00000000 0.59215686 0.00000000
0.00000000 0.56862745 0.18431373
0.00000000 0.57254902 0.19215686
0.00000000 0.56078431 0.20000000
0.00000000 0.54117647 0.21176471
0.17254902 0.54117647 0.21176471
0.30980392 0.56470588 0.18823529
0.45098039 0.58823529 0.14509804
0.58431373 0.61176471 0.07843137
0.72549020 0.63921569 0.00000000
0.82745098 0.65490196 0.00000000
0.90588235 0.65490196 0.00000000
0.98431373 0.65490196 0.00000000
1.00000000 0.65490196 0.00000000
0.00000000 0.64705882 0.23529412
0.00000000 0.65098039 0.24705882
0.00000000 0.63921569 0.25098039
0.00000000 0.62745098 0.25882353
0.17647059 0.60392157 0.26666667
0.30196078 0.62745098 0.25490196
0.42745098 0.64705882 0.22745098
0.54509804 0.66666667 0.20000000
0.67058824 0.68627451 0.14509804
0.79607843 0.71372549 0.01960784
0.88627451 0.72156863 0.00000000
0.96078431 0.72156863 0.00000000
1.00000000 0.72156863 0.00000000
0.00000000 0.72156863 0.30196078
0.00000000 0.72156863 0.30980392
0.00000000 0.71372549 0.30980392
0.10588235 0.70588235 0.31764706
0.23137255 0.69019608 0.32549020
0.32941176 0.69019608 0.32549020
0.43137255 0.70588235 0.30980392
0.52941176 0.72156863 0.29411765
0.63529412 0.73725490 0.26274510
0.74509804 0.75686275 0.22352941
0.85490196 0.77647059 0.15294118
0.94509804 0.78431373 0.08627451
1.00000000 0.79215686 0.00000000
0.02352941 0.78823529 0.38823529
0.10980392 0.79215686 0.39215686
0.18039216 0.78823529 0.39607843
0.25098039 0.77647059 0.40000000
0.32156863 0.76862745 0.40784314
0.38823529 0.75294118 0.41568627
0.46666667 0.76862745 0.40784314
0.54509804 0.78431373 0.40000000
0.63137255 0.79607843 0.38039216
0.72156863 0.81176471 0.35686275
0.81568627 0.82352941 0.32156863
0.91372549 0.83921569 0.27058824
1.00000000 0.85490196 0.25490196
0.32156863 0.86666667 0.50196078
0.33725490 0.86274510 0.50588235
0.36078431 0.86274510 0.50980392
0.40000000 0.85882353 0.51372549
0.44313725 0.85490196 0.52156863
0.49019608 0.84705882 0.53333333
0.54117647 0.84313725 0.53333333
0.59215686 0.85490196 0.52549020
0.65882353 0.86666667 0.52156863
0.72941176 0.88235294 0.50980392
0.80392157 0.89411765 0.48627451
0.88627451 0.90588235 0.45882353
0.97647059 0.91372549 0.41176471
0.53725490 0.94509804 0.65098039
0.54509804 0.94509804 0.65490196
0.56078431 0.94901961 0.65882353
0.58039216 0.94509804 0.66666667
0.60784314 0.94117647 0.67450980
0.63921569 0.93725490 0.68235294
0.67450980 0.93333333 0.69411765
0.70588235 0.94117647 0.69411765
0.74509804 0.94901961 0.69019608
0.78823529 0.96078431 0.68627451
0.83921569 0.96862745 0.67450980
0.89803922 0.97647059 0.66666667
0.96078431 0.98431373 0.65098039
0.01568627 0.01960784 0.11764706
0.06666667 0.01176471 0.12549020
0.14509804 0.00000000 0.14117647
0.23921569 0.00000000 0.14509804
0.37254902 0.00000000 0.14901961
0.51764706 0.00000000 0.13725490
0.65098039 0.00000000 0.11764706
0.76470588 0.00000000 0.12156863
0.86274510 0.00000000 0.10980392
0.93333333 0.00000000 0.09019608
1.00000000 0.00000000 0.06274510
1.00000000 0.12156863 0.02352941
1.00000000 0.20000000 0.00000000
0.00000000 0.06274510 0.12156863
0.04705882 0.05882353 0.12941176
0.14509804 0.05098039 0.14117647
0.24313725 0.03137255 0.14901961
0.37647059 0.00000000 0.14117647
0.51764706 0.00000000 0.12549020
0.65490196 0.00000000 0.12941176
0.76470588 0.00000000 0.11764706
0.85882353 0.00000000 0.10196078
0.93333333 0.00000000 0.07843137
1.00000000 0.10588235 0.05098039
1.00000000 0.17647059 0.00784314
1.00000000 0.23921569 0.00000000
0.00000000 0.13725490 0.13725490
0.01176471 0.13725490 0.13725490
0.12941176 0.14117647 0.13725490
0.24313725 0.14117647 0.13725490
0.37254902 0.13333333 0.12941176
0.51372549 0.11764706 0.12156863
0.65098039 0.10588235 0.10980392
0.75686275 0.10980392 0.09803922
0.85098039 0.13333333 0.07843137
0.92549020 0.17254902 0.05490196
0.99215686 0.21568627 0.01568627
1.00000000 0.25490196 0.00000000
1.00000000 0.29411765 0.00000000
0.00000000 0.24705882 0.15294118
0.00000000 0.23921569 0.15686275
0.10980392 0.22352941 0.15294118
0.20784314 0.23529412 0.14117647
0.36470588 0.25098039 0.11764706
0.50980392 0.25490196 0.09411765
0.64313725 0.25882353 0.07843137
0.74509804 0.26666667 0.05882353
0.83529412 0.27843137 0.02352941
0.91372549 0.29803922 0.00000000
0.98039216 0.31764706 0.00000000
1.00000000 0.34509804 0.00000000
1.00000000 0.37254902 0.00000000
0.00000000 0.34901961 0.18039216
0.00000000 0.34117647 0.17254902
0.05098039 0.32156863 0.17254902
0.17254902 0.31764706 0.17254902
0.30980392 0.34901961 0.14509804
0.48235294 0.37647059 0.10196078
0.61960784 0.38431373 0.03529412
0.72549020 0.38431373 0.00000000
0.81960784 0.39215686 0.00000000
0.89803922 0.40392157 0.00000000
0.96862745 0.41960784 0.00000000
1.00000000 0.43137255 0.00000000
1.00000000 0.44705882 0.00000000
0.00000000 0.44313725 0.18431373
0.00000000 0.43529412 0.18431373
0.00000000 0.41960784 0.19215686
0.14509804 0.39607843 0.20784314
0.25882353 0.42352941 0.18431373
0.41568627 0.45882353 0.14901961
0.58039216 0.48235294 0.08235294
0.69411765 0.49411765 0.00000000
0.79215686 0.49411765 0.00000000
0.87843137 0.49803922 0.00000000
0.94901961 0.50588235 0.00000000
1.00000000 0.51372549 0.00000000
1.00000000 0.52156863 0.00000000
0.00000000 0.52941176 0.21176471
0.00000000 0.52549020 0.21568627
0.00000000 0.50980392 0.22352941
0.09019608 0.48627451 0.23137255
0.22745098 0.49411765 0.22745098
0.36078431 0.52156863 0.20000000
0.51372549 0.54901961 0.16078431
0.65490196 0.57254902 0.09803922
0.76078431 0.58431373 0.00000000
0.85098039 0.58823529 0.00000000
0.93333333 0.58823529 0.00000000
1.00000000 0.58823529 0.00000000
1.00000000 0.58823529 0.00000000
0.00000000 0.59215686 0.23921569
0.00000000 0.59215686 0.24705882
0.00000000 0.58039216 0.25098039
0.03921569 0.56470588 0.25882353
0.20784314 0.54901961 0.26274510
0.32941176 0.57254902 0.24705882
0.46274510 0.59215686 0.21568627
0.59215686 0.61960784 0.18039216
0.72941176 0.64313725 0.11764706
0.82352941 0.65098039 0.00000000
0.90980392 0.65882353 0.00000000
0.98039216 0.65490196 0.00000000
1.00000000 0.64705882 0.00000000
0.00000000 0.65882353 0.27843137
0.00000000 0.66274510 0.28627451
0.00000000 0.65098039 0.29019608
0.05490196 0.63921569 0.29803922
0.21568627 0.62352941 0.30980392
0.32156863 0.62745098 0.29803922
0.43529412 0.64705882 0.27843137
0.54901961 0.66666667 0.25490196
0.67450980 0.69019608 0.22352941
0.80000000 0.71372549 0.16470588
0.88627451 0.72156863 0.09803922
0.96470588 0.72156863 0.00000000
1.00000000 0.72156863 0.00000000
0.00000000 0.72941176 0.33725490
0.00000000 0.72941176 0.34117647
0.00000000 0.72156863 0.34509804
0.15686275 0.71372549 0.35294118
0.25882353 0.70196078 0.35686275
0.34509804 0.69019608 0.36078431
0.44313725 0.70588235 0.34901961
0.53333333 0.72156863 0.33333333
0.63921569 0.74117647 0.30980392
0.74509804 0.75686275 0.27843137
0.85490196 0.77647059 0.23137255
0.94509804 0.78431373 0.18823529
1.00000000 0.78823529 0.10980392
0.09803922 0.79607843 0.41568627
0.14509804 0.79607843 0.41568627
0.20392157 0.79215686 0.41960784
0.27058824 0.78431373 0.42352941
0.33725490 0.77647059 0.43137255
0.40000000 0.76078431 0.43921569
0.47450980 0.76862745 0.43529412
0.54901961 0.78431373 0.42745098
0.63137255 0.79607843 0.40784314
0.72156863 0.80784314 0.38823529
0.81568627 0.82745098 0.36078431
0.91372549 0.83921569 0.31764706
1.00000000 0.85490196 0.30588235
0.32941176 0.86666667 0.51764706
0.34509804 0.86666667 0.51764706
0.36862745 0.86666667 0.52156863
0.40392157 0.86274510 0.52549020
0.45098039 0.85490196 0.53725490
0.49803922 0.85098039 0.54509804
0.54509804 0.84313725 0.54901961
0.59607843 0.85490196 0.54509804
0.65882353 0.87058824 0.53725490
0.72941176 0.88235294 0.52549020
0.80392157 0.89019608 0.50588235
0.88627451 0.90588235 0.48235294
0.97254902 0.91372549 0.43921569
0.54117647 0.94901961 0.65882353
0.54901961 0.94901961 0.66274510
0.55686275 0.94509804 0.66274510
0.58039216 0.94509804 0.67058824
0.60784314 0.94509804 0.67843137
0.64313725 0.94117647 0.69019608
0.67843137 0.93725490 0.70196078
0.70980392 0.94117647 0.70196078
0.74509804 0.94901961 0.69803922
0.78823529 0.95686275 0.69411765
0.83921569 0.96862745 0.68627451
0.89411765 0.97254902 0.67058824
0.96470588 0.98431373 0.65882353
0.00000000 0.01960784 0.23137255
0.04705882 0.01176471 0.23921569
0.16470588 0.00000000 0.25882353
0.28627451 0.00000000 0.27843137
0.38431373 0.00000000 0.27058824
0.53725490 0.00000000 0.29019608
0.67450980 0.00000000 0.28235294
0.78039216 0.00000000 0.26274510
0.87058824 0.00000000 0.23137255
0.94117647 0.00000000 0.24705882
1.00000000 0.00000000 0.23921569
1.00000000 0.12156863 0.22745098
1.00000000 0.20392157 0.21960784
0.00000000 0.06274510 0.22745098
0.02352941 0.06274510 0.23921569
0.15294118 0.05098039 0.25490196
0.28627451 0.01960784 0.27843137
0.38823529 0.00000000 0.27450980
0.53725490 0.00000000 0.28235294
0.67450980 0.00000000 0.27058824
0.78431373 0.00000000 0.25490196
0.87058824 0.00000000 0.23529412
0.93725490 0.00000000 0.24705882
1.00000000 0.10196078 0.23529412
1.00000000 0.18039216 0.22352941
1.00000000 0.23921569 0.21568627
0.00000000 0.14509804 0.22352941
0.00000000 0.14509804 0.22745098
0.12941176 0.14509804 0.25098039
0.27450980 0.14509804 0.27058824
0.39607843 0.12941176 0.27450980
0.53725490 0.09019608 0.26666667
0.67058824 0.02745098 0.25490196
0.76862745 0.07843137 0.25098039
0.85490196 0.12549020 0.24705882
0.92941176 0.16862745 0.23921569
0.99607843 0.21568627 0.22745098
1.00000000 0.25490196 0.21568627
1.00000000 0.29803922 0.20784314
0.00000000 0.25098039 0.25490196
0.00000000 0.25490196 0.25882353
0.08627451 0.25490196 0.25882353
0.24313725 0.26274510 0.26274510
0.38823529 0.26274510 0.25882353
0.52941176 0.25882353 0.25490196
0.65882353 0.26274510 0.25098039
0.75686275 0.26666667 0.23921569
0.84313725 0.27450980 0.22745098
0.91764706 0.29411765 0.21960784
0.98431373 0.31764706 0.20784314
1.00000000 0.34117647 0.19607843
1.00000000 0.36862745 0.18823529
0.00000000 0.40392157 0.28627451
0.00000000 0.40000000 0.28627451
0.06274510 0.38431373 0.28235294
0.22745098 0.35686275 0.27450980
0.34509804 0.37647059 0.26666667
0.50588235 0.38431373 0.23921569
0.63921569 0.38431373 0.21568627
0.73725490 0.38823529 0.20784314
0.82352941 0.39215686 0.19607843
0.90196078 0.40392157 0.18823529
0.96862745 0.41568627 0.17647059
1.00000000 0.43137255 0.16862745
1.00000000 0.44705882 0.16470588
0.00000000 0.49411765 0.30980392
0.00000000 0.48627451 0.30980392
0.02352941 0.47450980 0.29803922
0.19607843 0.45098039 0.29019608
0.29803922 0.44313725 0.29019608
0.44313725 0.47450980 0.27058824
0.60000000 0.49411765 0.23529412
0.70588235 0.49803922 0.20392157
0.80000000 0.49411765 0.15686275
0.88235294 0.49803922 0.14509804
0.95294118 0.50588235 0.13725490
1.00000000 0.51372549 0.12549020
1.00000000 0.52156863 0.11764706
0.00000000 0.57254902 0.32549020
0.00000000 0.56470588 0.31372549
0.00000000 0.55294118 0.30196078
0.16078431 0.52941176 0.30588235
0.27450980 0.50588235 0.31372549
0.38431373 0.53333333 0.29803922
0.52941176 0.56078431 0.27450980
0.67058824 0.58431373 0.24705882
0.76470588 0.58823529 0.20000000
0.85882353 0.58823529 0.14901961
0.93333333 0.58039216 0.05882353
1.00000000 0.58431373 0.02745098
1.00000000 0.58823529 0.00784314
0.00000000 0.62352941 0.32549020
0.00000000 0.62352941 0.32549020
0.00000000 0.61176471 0.32549020
0.14901961 0.59607843 0.32941176
0.26666667 0.57254902 0.33725490
0.36078431 0.58039216 0.32941176
0.47843137 0.60392157 0.30980392
0.60392157 0.62745098 0.28627451
0.73725490 0.65098039 0.25490196
0.82745098 0.65490196 0.21176471
0.90980392 0.65490196 0.14901961
0.98431373 0.65098039 0.02352941
1.00000000 0.64705882 0.00000000
0.00000000 0.68627451 0.35294118
0.00000000 0.68235294 0.35294118
0.00000000 0.67450980 0.35686275
0.16078431 0.66274510 0.36078431
0.27058824 0.64313725 0.36470588
0.35294118 0.63529412 0.36862745
0.45490196 0.65490196 0.35294118
0.56078431 0.67450980 0.33725490
0.67843137 0.69411765 0.31372549
0.80000000 0.71764706 0.28235294
0.89019608 0.72549020 0.24313725
0.96862745 0.72549020 0.18431373
1.00000000 0.72156863 0.07058824
0.00000000 0.74509804 0.39215686
0.00000000 0.74117647 0.39607843
0.09803922 0.73725490 0.40000000
0.21568627 0.72941176 0.40392157
0.29803922 0.71372549 0.40392157
0.36862745 0.69411765 0.40784314
0.45490196 0.70588235 0.40392157
0.54117647 0.72156863 0.39215686
0.64313725 0.74117647 0.37647059
0.74901961 0.76078431 0.35294118
0.85882353 0.78039216 0.31764706
0.94509804 0.78823529 0.29019608
1.00000000 0.79215686 0.24313725
0.16078431 0.80784314 0.45490196
0.19215686 0.80392157 0.45490196
0.24313725 0.80392157 0.46274510
0.29803922 0.79607843 0.46274510
0.36078431 0.78431373 0.46666667
0.41960784 0.77254902 0.47058824
0.48235294 0.76862745 0.47450980
0.55294118 0.78039216 0.46274510
0.63529412 0.79607843 0.45098039
0.72156863 0.81176471 0.43529412
0.81960784 0.83137255 0.41568627
0.91372549 0.84313725 0.38039216
1.00000000 0.85882353 0.37254902
0.34509804 0.87450980 0.54117647
0.36078431 0.87450980 0.54509804
0.38431373 0.87450980 0.54901961
0.41960784 0.87058824 0.55294118
0.46274510 0.86274510 0.55686275
0.50588235 0.85098039 0.56470588
0.55294118 0.84313725 0.57254902
0.60000000 0.85490196 0.56862745
0.66274510 0.86666667 0.56470588
0.72941176 0.88235294 0.55294118
0.80392157 0.89019608 0.53725490
0.88627451 0.90196078 0.51372549
0.97254902 0.91372549 0.47843137
0.54117647 0.95294118 0.66666667
0.54901961 0.95294118 0.67058824
0.56078431 0.94901961 0.67450980
0.58039216 0.94509804 0.67843137
0.60784314 0.94509804 0.68627451
0.64313725 0.94117647 0.69803922
0.67843137 0.93725490 0.70980392
0.71372549 0.94117647 0.71372549
0.74509804 0.94901961 0.70980392
0.78823529 0.95686275 0.70196078
0.83921569 0.96470588 0.69411765
0.89803922 0.97647059 0.68627451
0.96470588 0.98431373 0.67450980
0.00000000 0.01568627 0.35686275
0.00000000 0.00784314 0.36862745
0.15686275 0.00000000 0.38431373
0.31764706 0.00000000 0.41960784
0.46274510 0.00000000 0.43921569
0.54509804 0.00000000 0.41960784
0.69019608 0.00000000 0.44313725
0.79215686 0.00000000 0.43529412
0.88235294 0.00000000 0.41568627
0.94901961 0.00000000 0.38823529
1.00000000 0.00000000 0.36862745
1.00000000 0.00000000 0.35686275
1.00000000 0.24705882 0.38431373
0.00000000 0.07058824 0.35686275
0.00000000 0.06666667 0.36470588
0.14901961 0.05490196 0.38431373
0.31372549 0.01176471 0.41568627
0.45882353 0.00000000 0.43529412
0.54901961 0.00000000 0.41960784
0.69411765 0.00000000 0.44313725
0.79215686 0.00000000 0.43529412
0.87843137 0.00000000 0.41176471
0.94901961 0.00000000 0.38823529
1.00000000 0.00000000 0.36470588
1.00000000 0.18431373 0.37647059
1.00000000 0.27843137 0.38431373
0.00000000 0.15686275 0.34509804
0.00000000 0.15294118 0.35686275
0.12156863 0.15294118 0.37647059
0.29019608 0.14901961 0.40392157
0.45098039 0.13725490 0.43137255
0.55686275 0.10980392 0.42745098
0.69019608 0.04705882 0.43529412
0.78431373 0.00392157 0.41960784
0.87058824 0.02745098 0.40000000
0.94117647 0.09411765 0.38039216
0.99607843 0.20392157 0.37647059
1.00000000 0.28627451 0.38431373
1.00000000 0.32549020 0.37647059
0.00000000 0.25098039 0.34509804
0.00000000 0.25098039 0.34901961
0.07450980 0.25490196 0.34901961
0.25098039 0.27058824 0.39215686
0.43137255 0.27843137 0.42745098
