core/profiles/src/main/assets/luts/lomography_x-pro_slide_200.cube
# Source: RawTherapee Film Simulation Collection (HaldCLUT.zip)
# Converted from: HaldCLUT/Color/Lomography/Lomography X-Pro Slide 200.png
TITLE "lomography_x-pro_slide_200"
LUT_3D_SIZE 13
DOMAIN_MIN 0.0 0.0 0.0
DOMAIN_MAX 1.0 1.0 1.0
0.00000000 0.00000000 0.00000000
0.04705882 0.00000000 0.00000000
0.10196078 0.00000000 0.00000000
0.15686275 0.00000000 0.00000000
0.23137255 0.00392157 0.00000000
0.32156863 0.00784314 0.00000000
0.42352941 0.01176471 0.00000000
0.53333333 0.01568627 0.00392157
0.65882353 0.02745098 0.00392157
0.78431373 0.04705882 0.00392157
0.88235294 0.07450980 0.00784314
0.95294118 0.11372549 0.00784314
1.00000000 0.16862745 0.00784314
0.01960784 0.05882353 0.00392157
0.05882353 0.06274510 0.00784314
0.10980392 0.06666667 0.00784314
0.17254902 0.07450980 0.01176471
0.24705882 0.07843137 0.01176471
0.33725490 0.08627451 0.01568627
0.43529412 0.09803922 0.01960784
0.54509804 0.10980392 0.01960784
0.66666667 0.12549020 0.02352941
0.78823529 0.14901961 0.02745098
0.88235294 0.18039216 0.02352941
0.95294118 0.22352941 0.01960784
1.00000000 0.27450980 0.01176471
0.05882353 0.12156863 0.03137255
0.08627451 0.12156863 0.03137255
0.12156863 0.12549020 0.03529412
0.18039216 0.13333333 0.03921569
0.25882353 0.14117647 0.04313725
0.34901961 0.14901961 0.04705882
0.44705882 0.16078431 0.05098039
0.55686275 0.17254902 0.05490196
0.67450980 0.19215686 0.05490196
0.79607843 0.21568627 0.05882353
0.88627451 0.24705882 0.05490196
0.94901961 0.28627451 0.04705882
1.00000000 0.33333333 0.03529412
0.10196078 0.19607843 0.05882353
0.11764706 0.20000000 0.06274510
0.14509804 0.20392157 0.06274510
0.19215686 0.20784314 0.06666667
0.27450980 0.21568627 0.06666667
0.36078431 0.22745098 0.07058824
0.46274510 0.23921569 0.07450980
0.56862745 0.25098039 0.07843137
0.68627451 0.26666667 0.08235294
0.80000000 0.29019608 0.08235294
0.88627451 0.31764706 0.07843137
0.94901961 0.35294118 0.07058824
0.99607843 0.40000000 0.05882353
0.09803922 0.29019608 0.08627451
0.10980392 0.29019608 0.08627451
0.13333333 0.29411765 0.09019608
0.20392157 0.29803922 0.09019608
0.28627451 0.30588235 0.09411765
0.37647059 0.31372549 0.09803922
0.47843137 0.32549020 0.10196078
0.58431373 0.33725490 0.10196078
0.70196078 0.35294118 0.10588235
0.80784314 0.37254902 0.10196078
0.88627451 0.40000000 0.09803922
0.94509804 0.43137255 0.09019608
0.99215686 0.47450980 0.07843137
0.03921569 0.39607843 0.11372549
0.08235294 0.39607843 0.11372549
0.14117647 0.40000000 0.11372549
0.21568627 0.40392157 0.11764706
0.29803922 0.40784314 0.11764706
0.39215686 0.41568627 0.12156863
0.49803922 0.42745098 0.12156863
0.60000000 0.43529412 0.12549020
0.71764706 0.45098039 0.12549020
0.81568627 0.47058824 0.12156863
0.88627451 0.49411765 0.11764706
0.94117647 0.52156863 0.10588235
0.98823529 0.56078431 0.09019608
0.00784314 0.51764706 0.13333333
0.03921569 0.51764706 0.13333333
0.12156863 0.52156863 0.13725490
0.21568627 0.52549020 0.13725490
0.30980392 0.52941176 0.13725490
0.41176471 0.53333333 0.14117647
0.51764706 0.54509804 0.14117647
0.61960784 0.55294118 0.14117647
0.72941176 0.56470588 0.14117647
0.81568627 0.58039216 0.13725490
0.88235294 0.60000000 0.12941176
0.93333333 0.62745098 0.11764706
0.97647059 0.65882353 0.10196078
0.00392157 0.63529412 0.15294118
0.04313725 0.63529412 0.15294118
0.12156863 0.63921569 0.15686275
0.21568627 0.64313725 0.15686275
0.32156863 0.64313725 0.16078431
0.42745098 0.65098039 0.16078431
0.53725490 0.65490196 0.16470588
0.63921569 0.66274510 0.16470588
0.73725490 0.67058824 0.16470588
0.81568627 0.68235294 0.16078431
0.87450980 0.69411765 0.14901961
0.92549020 0.70980392 0.12941176
0.96862745 0.72941176 0.10980392
0.09803922 0.74117647 0.20392157
0.12156863 0.74509804 0.20392157
0.18039216 0.74509804 0.20392157
0.27058824 0.74509804 0.20784314
0.36862745 0.74509804 0.20784314
0.47058824 0.74901961 0.21176471
0.57647059 0.74901961 0.21568627
0.67058824 0.75294118 0.21568627
0.75294118 0.75686275 0.21568627
0.81960784 0.76078431 0.21176471
0.87450980 0.76862745 0.20784314
0.91764706 0.77647059 0.19215686
0.96078431 0.78823529 0.16862745
0.25490196 0.81176471 0.26274510
0.27843137 0.81176471 0.26274510
0.32156863 0.81176471 0.26666667
0.38431373 0.81176471 0.26666667
0.46274510 0.81568627 0.27058824
0.54901961 0.81568627 0.27450980
0.63921569 0.81568627 0.27450980
0.70980392 0.81568627 0.27843137
0.77254902 0.81960784 0.27450980
0.82745098 0.81960784 0.27450980
0.87450980 0.82352941 0.26666667
0.91764706 0.83137255 0.25490196
0.96078431 0.83529412 0.23921569
0.42352941 0.86666667 0.34117647
0.43921569 0.86666667 0.34117647
0.47058824 0.86666667 0.34117647
0.51764706 0.86666667 0.34509804
0.57254902 0.86666667 0.34509804
0.63529412 0.86666667 0.34901961
0.69803922 0.86666667 0.34901961
0.74509804 0.86666667 0.34901961
0.79607843 0.86666667 0.34901961
0.84313725 0.86666667 0.34509804
0.88235294 0.87058824 0.34117647
0.92156863 0.87450980 0.32941176
0.96470588 0.87843137 0.31372549
0.58039216 0.90980392 0.42745098
0.58823529 0.90980392 0.43137255
0.60784314 0.90980392 0.43137255
0.63529412 0.90980392 0.43137255
0.67058824 0.90980392 0.43137255
0.70588235 0.90980392 0.43529412
0.74509804 0.90980392 0.43529412
0.78039216 0.90980392 0.43529412
0.81960784 0.90980392 0.43529412
0.85882353 0.90980392 0.43137255
0.89411765 0.91372549 0.42745098
0.92941176 0.91372549 0.41960784
0.96862745 0.91764706 0.40000000
0.69803922 0.95686275 0.53333333
0.70196078 0.95686275 0.53333333
0.70980392 0.95686275 0.53725490
0.72549020 0.95686275 0.53725490
0.74509804 0.95686275 0.53725490
0.76470588 0.95686275 0.53725490
0.79215686 0.95686275 0.53725490
0.81568627 0.95686275 0.53725490
0.84313725 0.95686275 0.53725490
0.87450980 0.96078431 0.53725490
0.90196078 0.96078431 0.53333333
0.93333333 0.96470588 0.52549020
0.97647059 0.96470588 0.50588235
0.00000000 0.00000000 0.02745098
0.04313725 0.00000000 0.03137255
0.10196078 0.00000000 0.03529412
0.15686275 0.00000000 0.03921569
0.23137255 0.00000000 0.04313725
0.32549020 0.00392157 0.04705882
0.42745098 0.00784314 0.05098039
0.53725490 0.01176471 0.05490196
0.66274510 0.02352941 0.05882353
0.78823529 0.04313725 0.06274510
0.88627451 0.06666667 0.05882353
0.95686275 0.10588235 0.05490196
1.00000000 0.16470588 0.03921569
0.01960784 0.05098039 0.05490196
0.05882353 0.05882353 0.05882353
0.10980392 0.06274510 0.05882353
0.17254902 0.06666667 0.06274510
0.24705882 0.07450980 0.06666667
0.33725490 0.08235294 0.07058824
0.43921569 0.09019608 0.07450980
0.54901961 0.10196078 0.07843137
0.67058824 0.12156863 0.08235294
0.79215686 0.14117647 0.08627451
0.88627451 0.17647059 0.08235294
0.95294118 0.21960784 0.07450980
1.00000000 0.27058824 0.06274510
0.05882353 0.11764706 0.07450980
0.08627451 0.11764706 0.07450980
0.12156863 0.12156863 0.07843137
0.18039216 0.12941176 0.08235294
0.26274510 0.13333333 0.08627451
0.34901961 0.14509804 0.09019608
0.45098039 0.15294118 0.09411765
0.55686275 0.16862745 0.09803922
0.67843137 0.18823529 0.09803922
0.79607843 0.21176471 0.09803922
0.88627451 0.24313725 0.09411765
0.95294118 0.28235294 0.09019608
1.00000000 0.33333333 0.07450980
0.10196078 0.19215686 0.09803922
0.11764706 0.19607843 0.09803922
0.14901961 0.20000000 0.10196078
0.19607843 0.20392157 0.10196078
0.27450980 0.21176471 0.10588235
0.36078431 0.22352941 0.10980392
0.46666667 0.23529412 0.10980392
0.57254902 0.24705882 0.11372549
0.69019608 0.26666667 0.11764706
0.80392157 0.28627451 0.11764706
0.89019608 0.31372549 0.10980392
0.94901961 0.35294118 0.10196078
0.99607843 0.40000000 0.09019608
0.09803922 0.28627451 0.11764706
0.11372549 0.29019608 0.11764706
0.13333333 0.29411765 0.12156863
0.20784314 0.29803922 0.12156863
0.29019608 0.30588235 0.12549020
0.37647059 0.31372549 0.12549020
0.48235294 0.32156863 0.12941176
0.58823529 0.33333333 0.13333333
0.70196078 0.35294118 0.13333333
0.81176471 0.37254902 0.13333333
0.89019608 0.40000000 0.12941176
0.94901961 0.43137255 0.11764706
0.99215686 0.47450980 0.10196078
0.03921569 0.39215686 0.13725490
0.08235294 0.39607843 0.14117647
0.14509804 0.39607843 0.14117647
0.21568627 0.40000000 0.14509804
0.30196078 0.40784314 0.14509804
0.39215686 0.41568627 0.14901961
0.50196078 0.42352941 0.14901961
0.60392157 0.43529412 0.14901961
0.71764706 0.45098039 0.14901961
0.81568627 0.47058824 0.14901961
0.88627451 0.49019608 0.14117647
0.94117647 0.52156863 0.12941176
0.98823529 0.56078431 0.11372549
0.00784314 0.51764706 0.16078431
0.04313725 0.51764706 0.16078431
0.12156863 0.52156863 0.16078431
0.21568627 0.52549020 0.16078431
0.30980392 0.52941176 0.16470588
0.41176471 0.53333333 0.16470588
0.51764706 0.54509804 0.16862745
0.62352941 0.55294118 0.16862745
0.72941176 0.56470588 0.16862745
0.81960784 0.58039216 0.16470588
0.88235294 0.60000000 0.15294118
0.93333333 0.62745098 0.14117647
0.97647059 0.65882353 0.12156863
0.00784314 0.63529412 0.18431373
0.04313725 0.63921569 0.18431373
0.12156863 0.63921569 0.18823529
0.21568627 0.64313725 0.18823529
0.32156863 0.64313725 0.19215686
0.42745098 0.65098039 0.19607843
0.53725490 0.65490196 0.19607843
0.63921569 0.66274510 0.20000000
0.74117647 0.67058824 0.20000000
0.81568627 0.68235294 0.19607843
0.87450980 0.69411765 0.18431373
0.92549020 0.71372549 0.16862745
0.96862745 0.72941176 0.14509804
0.09803922 0.74509804 0.23137255
0.12549020 0.74509804 0.23137255
0.18039216 0.74509804 0.23137255
0.27058824 0.74509804 0.23529412
0.36862745 0.74509804 0.23529412
0.47058824 0.74901961 0.23921569
0.58039216 0.75294118 0.24313725
0.67058824 0.75294118 0.24313725
0.75294118 0.75686275 0.24313725
0.81960784 0.76470588 0.24313725
0.87450980 0.76862745 0.23529412
0.91764706 0.78039216 0.22352941
0.96078431 0.79215686 0.20392157
0.25490196 0.81568627 0.29019608
0.27843137 0.81568627 0.29019608
0.32156863 0.81568627 0.29411765
0.38431373 0.81568627 0.29411765
0.46274510 0.81568627 0.29803922
0.55294118 0.81568627 0.30196078
0.63921569 0.81568627 0.30196078
0.70980392 0.81568627 0.30196078
0.77254902 0.81960784 0.30196078
0.82745098 0.82352941 0.30196078
0.87450980 0.82745098 0.29411765
0.91764706 0.83137255 0.28627451
0.96078431 0.83921569 0.26666667
0.42352941 0.86666667 0.36470588
0.43921569 0.86666667 0.36470588
0.47058824 0.86666667 0.36470588
0.51764706 0.86666667 0.36862745
0.57254902 0.86666667 0.36862745
0.63529412 0.86666667 0.37254902
0.69803922 0.86666667 0.37254902
0.74509804 0.86666667 0.37254902
0.79607843 0.86666667 0.37254902
0.84313725 0.87058824 0.37254902
0.88235294 0.87058824 0.36470588
0.92156863 0.87450980 0.35686275
0.96470588 0.87843137 0.34117647
0.58039216 0.90980392 0.44705882
0.58823529 0.90980392 0.44705882
0.60784314 0.90980392 0.45098039
0.63529412 0.90980392 0.45098039
0.67058824 0.90980392 0.45098039
0.70588235 0.90980392 0.45490196
0.74509804 0.90980392 0.45490196
0.78039216 0.90980392 0.45490196
0.81960784 0.90980392 0.45490196
0.85490196 0.90980392 0.45098039
0.89411765 0.91372549 0.44705882
0.92941176 0.91372549 0.43921569
0.96862745 0.91764706 0.42352941
0.69803922 0.95686275 0.55294118
0.70196078 0.95686275 0.55294118
0.70980392 0.95686275 0.55294118
0.72549020 0.95686275 0.55294118
0.74509804 0.95686275 0.55686275
0.76470588 0.95686275 0.55686275
0.79215686 0.95686275 0.55686275
0.81568627 0.95686275 0.55686275
0.84313725 0.96078431 0.55686275
0.87450980 0.96078431 0.55686275
0.90196078 0.96078431 0.55294118
0.93333333 0.96470588 0.54509804
0.97647059 0.96862745 0.52941176
0.00000000 0.00000000 0.07058824
0.04313725 0.00000000 0.07450980
0.09803922 0.00000000 0.07843137
0.15686275 0.00000000 0.08235294
0.23137255 0.00000000 0.08627451
0.32549020 0.00392157 0.09019608
0.42745098 0.00392157 0.09411765
0.54117647 0.01176471 0.09803922
0.66274510 0.01960784 0.10196078
0.78823529 0.03921569 0.10588235
0.88627451 0.06666667 0.10196078
0.95686275 0.10588235 0.09411765
1.00000000 0.16078431 0.08235294
0.01960784 0.05098039 0.09803922
0.05882353 0.05490196 0.10196078
0.10980392 0.05882353 0.10196078
0.17254902 0.06274510 0.10588235
0.25098039 0.07058824 0.10980392
0.34117647 0.07843137 0.11372549
0.44313725 0.08627451 0.11764706
0.55294118 0.09803922 0.12156863
0.67450980 0.11764706 0.12156863
0.79607843 0.13725490 0.12549020
0.89019608 0.17254902 0.12156863
0.95294118 0.21568627 0.11372549
1.00000000 0.27058824 0.10196078
0.05882353 0.11372549 0.11764706
0.08627451 0.11372549 0.11764706
0.12156863 0.11764706 0.11764706
0.18431373 0.12549020 0.12156863
0.26274510 0.12941176 0.12549020
0.35294118 0.14117647 0.12941176
0.45490196 0.14901961 0.13333333
0.56078431 0.16470588 0.13725490
0.68235294 0.18431373 0.13725490
0.80000000 0.20784314 0.14117647
0.89019608 0.23921569 0.13333333
0.95294118 0.27843137 0.12941176
1.00000000 0.32941176 0.11372549
0.10196078 0.18823529 0.13725490
0.11764706 0.19215686 0.13725490
0.14901961 0.19607843 0.14117647
0.19607843 0.20000000 0.14117647
0.27843137 0.20784314 0.14509804
0.36470588 0.21960784 0.14901961
0.46666667 0.23137255 0.15294118
0.57254902 0.24705882 0.15294118
0.69411765 0.26274510 0.15294118
0.80784314 0.28627451 0.15686275
0.89019608 0.31372549 0.14901961
0.95294118 0.34901961 0.14117647
0.99607843 0.39607843 0.12549020
0.10196078 0.28627451 0.15686275
0.11372549 0.28627451 0.16078431
0.13725490 0.29019608 0.16078431
0.20784314 0.29411765 0.16470588
0.29019608 0.30196078 0.16470588
0.38039216 0.30980392 0.16862745
0.48627451 0.32156863 0.17254902
0.58823529 0.33333333 0.17254902
0.70588235 0.34901961 0.17254902
0.81176471 0.36862745 0.17254902
0.89019608 0.39607843 0.16470588
0.94901961 0.43137255 0.15294118
0.99607843 0.47450980 0.13725490
0.04313725 0.39215686 0.18039216
0.08627451 0.39215686 0.18039216
0.14509804 0.39607843 0.18431373
0.21960784 0.40000000 0.18431373
0.30196078 0.40784314 0.18823529
0.39607843 0.41176471 0.19215686
0.50196078 0.42352941 0.19215686
0.60392157 0.43529412 0.19607843
0.72156863 0.45098039 0.19607843
0.81960784 0.46666667 0.19215686
0.89019608 0.49019608 0.18431373
0.94509804 0.52156863 0.17254902
0.98823529 0.56078431 0.15294118
0.00784314 0.51764706 0.20784314
0.04313725 0.51764706 0.21176471
0.12549020 0.52156863 0.21176471
0.21568627 0.52549020 0.21568627
0.30980392 0.52941176 0.21568627
0.41176471 0.53333333 0.21960784
0.52156863 0.54117647 0.22352941
0.62352941 0.55294118 0.22352941
0.73333333 0.56470588 0.22352941
0.81960784 0.58039216 0.21960784
0.88235294 0.60000000 0.21176471
0.93333333 0.62745098 0.20000000
0.97647059 0.65882353 0.17647059
0.00784314 0.63529412 0.23921569
0.04313725 0.63921569 0.23921569
0.12549020 0.63921569 0.23921569
0.21960784 0.64313725 0.24313725
0.32549020 0.64705882 0.24313725
0.43137255 0.65098039 0.24705882
0.54117647 0.65490196 0.25098039
0.64313725 0.66274510 0.25098039
0.74117647 0.67058824 0.25490196
0.81568627 0.68235294 0.25098039
0.87450980 0.69803922 0.24313725
0.92549020 0.71372549 0.23137255
0.96862745 0.73333333 0.21176471
0.09803922 0.74509804 0.27843137
0.12156863 0.74509804 0.27843137
0.18039216 0.74509804 0.28235294
0.27450980 0.74509804 0.28235294
0.37254902 0.74901961 0.28627451
0.47450980 0.74901961 0.29019608
0.58039216 0.75294118 0.29019608
0.67058824 0.75294118 0.29411765
0.75294118 0.76078431 0.29411765
0.81960784 0.76470588 0.29411765
0.87450980 0.77254902 0.28627451
0.92156863 0.78039216 0.27843137
0.96078431 0.79215686 0.25882353
0.25098039 0.81568627 0.33725490
0.27450980 0.81568627 0.33725490
0.32156863 0.81568627 0.33725490
0.38431373 0.81568627 0.34117647
0.46274510 0.81568627 0.34117647
0.55294118 0.81568627 0.34509804
0.63921569 0.81568627 0.34901961
0.70980392 0.81960784 0.34901961
0.77254902 0.81960784 0.34901961
0.82745098 0.82352941 0.34901961
0.87450980 0.82745098 0.34509804
0.91764706 0.83137255 0.33333333
0.96078431 0.83921569 0.31764706
0.42352941 0.86666667 0.40392157
0.43921569 0.86666667 0.40784314
0.47058824 0.86666667 0.40784314
0.51764706 0.86666667 0.40784314
0.57647059 0.86666667 0.41176471
0.63529412 0.86666667 0.41176471
0.69803922 0.86666667 0.41568627
0.74509804 0.86666667 0.41568627
0.79607843 0.87058824 0.41568627
0.83921569 0.87058824 0.41568627
0.88235294 0.87450980 0.41176471
0.92156863 0.87450980 0.40392157
0.96078431 0.88235294 0.38823529
0.58039216 0.90980392 0.48627451
0.59215686 0.90980392 0.48627451
0.60784314 0.90980392 0.48627451
0.63529412 0.90980392 0.48627451
0.67058824 0.90980392 0.49019608
0.70588235 0.90980392 0.49019608
0.74509804 0.90980392 0.49411765
0.78039216 0.90980392 0.49411765
0.81960784 0.91372549 0.49411765
0.85490196 0.91372549 0.49019608
0.89411765 0.91372549 0.48627451
0.92941176 0.91764706 0.48235294
0.96862745 0.91764706 0.46666667
0.69803922 0.96078431 0.58823529
0.70196078 0.96078431 0.58823529
0.70980392 0.96078431 0.58823529
0.72549020 0.96078431 0.58823529
0.74509804 0.96078431 0.59215686
0.76470588 0.96078431 0.59215686
0.79215686 0.96078431 0.59215686
0.81568627 0.96078431 0.59215686
0.84313725 0.96078431 0.59215686
0.87058824 0.96078431 0.59215686
0.90196078 0.96470588 0.58823529
0.93333333 0.96470588 0.58039216
0.97647059 0.96862745 0.56470588
0.00000000 0.00000000 0.11764706
0.04313725 0.00000000 0.12156863
0.09803922 0.00000000 0.12549020
0.15686275 0.00000000 0.12941176
0.23529412 0.00000000 0.13333333
0.32549020 0.00000000 0.13725490
0.43137255 0.00392157 0.14117647
0.54117647 0.00784314 0.14509804
0.66666667 0.01960784 0.14901961
0.79215686 0.03529412 0.14901961
0.89019608 0.06274510 0.14901961
0.95686275 0.10196078 0.14117647
1.00000000 0.16078431 0.12549020
0.01960784 0.04705882 0.14509804
0.05882353 0.05098039 0.14901961
0.10980392 0.05490196 0.15294118
0.17254902 0.05882353 0.15294118
0.25098039 0.06666667 0.15686275
0.34117647 0.07450980 0.16470588
0.44313725 0.08235294 0.16862745
0.55294118 0.09803922 0.16862745
0.67843137 0.11372549 0.17254902
0.80000000 0.13725490 0.17254902
0.89019608 0.16862745 0.16862745
0.95686275 0.21176471 0.16078431
1.00000000 0.26666667 0.14509804
0.05882353 0.10980392 0.16862745
0.08627451 0.10980392 0.16862745
0.12156863 0.11372549 0.17254902
0.18431373 0.12156863 0.17254902
0.26274510 0.12549020 0.17647059
0.35294118 0.13725490 0.18039216
0.45490196 0.14509804 0.18431373
0.56470588 0.16078431 0.18823529
0.68627451 0.18039216 0.18823529
0.80392157 0.20392157 0.18823529
0.89019608 0.23529412 0.18431373
0.95686275 0.27450980 0.17647059
1.00000000 0.32941176 0.16078431
0.10196078 0.18431373 0.19215686
0.11764706 0.18823529 0.19215686
0.14901961 0.19215686 0.19215686
0.19607843 0.19607843 0.19607843
0.27843137 0.20392157 0.20000000
0.36470588 0.21568627 0.20392157
0.47058824 0.22745098 0.20784314
0.57647059 0.24313725 0.21176471
0.69411765 0.25882353 0.21176471
0.80784314 0.28235294 0.21176471
0.89019608 0.30980392 0.20392157
0.95294118 0.34509804 0.19607843
0.99607843 0.39607843 0.17647059
0.10588235 0.28235294 0.21568627
0.11764706 0.28235294 0.21568627
0.13725490 0.28627451 0.21960784
0.20784314 0.29019608 0.22352941
0.29019608 0.29803922 0.22352941
0.38039216 0.30588235 0.22745098
0.48627451 0.31764706 0.23137255
0.59215686 0.32941176 0.23529412
0.70980392 0.34509804 0.23529412
0.81568627 0.36862745 0.23529412
0.89411765 0.39607843 0.22745098
0.94901961 0.42745098 0.21568627
0.99607843 0.47450980 0.19607843
0.04313725 0.38823529 0.24313725
0.08627451 0.39215686 0.24313725
0.14901961 0.39215686 0.24705882
0.21960784 0.39607843 0.25098039
0.30588235 0.40392157 0.25098039
0.39607843 0.41176471 0.25490196
0.50588235 0.41960784 0.25882353
0.60784314 0.43137255 0.26274510
0.72156863 0.44705882 0.26274510
0.81960784 0.46666667 0.26274510
0.89019608 0.49019608 0.25490196
0.94509804 0.52156863 0.24313725
0.98823529 0.56078431 0.22352941
0.00784314 0.51764706 0.27058824
0.04313725 0.51764706 0.27450980
0.12549020 0.51764706 0.27450980
0.21960784 0.52156863 0.27843137
0.31372549 0.52941176 0.27843137
0.41568627 0.53333333 0.28235294
0.52549020 0.54117647 0.28627451
0.62745098 0.55294118 0.28627451
0.73333333 0.56470588 0.29019608
0.81960784 0.58039216 0.28627451
0.88235294 0.60000000 0.28235294
0.93333333 0.62745098 0.27058824
0.97647059 0.65882353 0.25098039
0.00784314 0.63529412 0.30196078
0.04313725 0.63529412 0.30196078
0.12549020 0.63921569 0.30196078
0.21960784 0.64313725 0.30588235
0.32549020 0.64313725 0.30588235
0.43137255 0.65098039 0.30980392
0.54117647 0.65490196 0.31372549
0.64313725 0.66274510 0.31764706
0.74117647 0.67058824 0.31764706
0.81568627 0.68235294 0.31764706
0.87450980 0.69803922 0.30980392
0.92549020 0.71372549 0.30196078
0.96862745 0.73333333 0.28627451
0.09411765 0.74509804 0.34117647
0.12156863 0.74509804 0.34117647
0.18039216 0.74509804 0.34117647
0.27450980 0.74901961 0.34509804
0.37254902 0.74901961 0.34901961
0.47450980 0.74901961 0.35294118
0.58039216 0.75294118 0.35686275
0.67450980 0.75686275 0.35686275
0.75686275 0.76078431 0.36078431
0.81960784 0.76470588 0.35686275
0.87450980 0.77254902 0.35294118
0.92156863 0.78039216 0.34509804
0.96078431 0.79215686 0.32941176
0.25098039 0.81568627 0.39607843
0.27450980 0.81568627 0.39607843
0.32156863 0.81568627 0.40000000
0.38431373 0.81568627 0.40000000
0.46274510 0.81568627 0.40392157
0.55294118 0.81960784 0.40784314
0.63921569 0.81960784 0.40784314
0.70980392 0.81960784 0.41176471
0.77254902 0.82352941 0.41176471
0.82745098 0.82352941 0.41176471
0.87450980 0.82745098 0.40784314
0.91764706 0.83529412 0.40000000
0.96078431 0.84313725 0.38823529
0.42352941 0.87058824 0.46274510
0.43921569 0.87058824 0.46274510
0.47058824 0.87058824 0.46666667
0.51764706 0.87058824 0.46666667
0.57647059 0.87058824 0.47058824
0.63529412 0.87058824 0.47058824
0.69803922 0.87058824 0.47450980
0.74509804 0.87058824 0.47450980
0.79607843 0.87058824 0.47450980
0.83921569 0.87450980 0.47450980
0.88235294 0.87450980 0.47450980
0.92156863 0.87843137 0.46666667
0.96078431 0.88235294 0.45490196
0.58039216 0.91372549 0.54117647
0.59215686 0.91372549 0.54117647
0.60784314 0.91372549 0.54117647
0.63529412 0.91372549 0.54117647
0.67058824 0.91372549 0.54509804
0.70588235 0.91372549 0.54509804
0.74509804 0.91372549 0.54901961
0.78039216 0.91372549 0.54901961
0.81960784 0.91372549 0.54901961
0.85490196 0.91372549 0.54901961
0.89019608 0.91764706 0.54509804
0.92549020 0.91764706 0.54117647
0.96862745 0.92156863 0.52549020
0.69803922 0.96078431 0.63529412
0.70196078 0.96078431 0.63529412
0.70980392 0.96078431 0.63529412
0.72549020 0.96078431 0.63529412
0.74509804 0.96078431 0.63921569
0.76470588 0.96078431 0.63921569
0.79215686 0.96078431 0.63921569
0.81568627 0.96470588 0.64313725
0.84313725 0.96470588 0.64313725
0.87058824 0.96470588 0.63921569
0.90196078 0.96862745 0.63921569
0.93333333 0.96862745 0.63137255
0.97647059 0.97254902 0.61960784
0.00000000 0.00000000 0.16862745
0.04313725 0.00000000 0.17254902
0.09803922 0.00000000 0.17647059
0.15686275 0.00000000 0.18039216
0.23529412 0.00000000 0.18823529
0.32549020 0.00000000 0.18823529
0.43137255 0.00392157 0.19607843
0.54509804 0.00784314 0.20000000
0.67058824 0.01568627 0.20000000
0.79607843 0.03529412 0.20392157
0.89019608 0.05882353 0.20000000
0.96078431 0.09803922 0.19215686
1.00000000 0.15686275 0.17647059
0.01960784 0.04313725 0.20392157
0.05882353 0.04705882 0.20784314
0.10980392 0.05098039 0.21176471
0.17254902 0.05882353 0.21568627
0.25098039 0.06274510 0.21960784
0.34117647 0.07058824 0.22352941
0.44705882 0.07843137 0.22745098
0.55686275 0.09019608 0.23137255
0.67843137 0.10980392 0.23529412
0.80000000 0.12941176 0.23529412
0.89411765 0.16078431 0.23137255
0.95686275 0.20784314 0.22352941
1.00000000 0.26274510 0.20392157
0.05882353 0.10588235 0.23137255
0.08235294 0.10588235 0.23137255
0.12156863 0.10980392 0.23529412
0.18431373 0.11764706 0.23921569
0.26274510 0.12156863 0.24313725
0.35294118 0.12941176 0.24705882
0.45882353 0.14117647 0.25098039
0.56470588 0.15294118 0.25490196
0.68627451 0.17647059 0.25882353
0.80392157 0.20000000 0.25882353
0.89411765 0.23137255 0.25490196
0.95686275 0.27058824 0.24313725
1.00000000 0.32549020 0.22745098
0.10196078 0.18039216 0.25882353
0.11764706 0.18039216 0.25882353
0.14901961 0.18431373 0.26274510
0.19607843 0.19215686 0.26274510
0.27843137 0.20000000 0.26666667
