core/profiles/src/main/assets/luts/lomography_x-pro_slide_200.cube
# Source: RawTherapee Film Simulation Collection (HaldCLUT.zip)
# Converted from: HaldCLUT/Color/Lomography/Lomography X-Pro Slide 200.png
TITLE "lomography_x-pro_slide_200"
LUT_3D_SIZE 7
DOMAIN_MIN 0.0 0.0 0.0
DOMAIN_MAX 1.0 1.0 1.0
0.00000000 0.00000000 0.00000000
0.10196078 0.00000000 0.00000000
0.23137255 0.00392157 0.00000000
0.42352941 0.01176471 0.00000000
0.65882353 0.02745098 0.00392157
0.88235294 0.07450980 0.00784314
1.00000000 0.16862745 0.00784314
0.05882353 0.12156863 0.03137255
0.12156863 0.12549020 0.03529412
0.25882353 0.14117647 0.04313725
0.44705882 0.16078431 0.05098039
0.67450980 0.19215686 0.05490196
0.88627451 0.24705882 0.05490196
1.00000000 0.33333333 0.03529412
0.09803922 0.29019608 0.08627451
0.13333333 0.29411765 0.09019608
0.28627451 0.30588235 0.09411765
0.47843137 0.32549020 0.10196078
0.70196078 0.35294118 0.10588235
0.88627451 0.40000000 0.09803922
0.99215686 0.47450980 0.07843137
0.00784314 0.51764706 0.13333333
0.12156863 0.52156863 0.13725490
0.30980392 0.52941176 0.13725490
0.51764706 0.54509804 0.14117647
0.72941176 0.56470588 0.14117647
0.88235294 0.60000000 0.12941176
0.97647059 0.65882353 0.10196078
0.09803922 0.74117647 0.20392157
0.18039216 0.74509804 0.20392157
0.36862745 0.74509804 0.20784314
0.57647059 0.74901961 0.21568627
0.75294118 0.75686275 0.21568627
0.87450980 0.76862745 0.20784314
0.96078431 0.78823529 0.16862745
0.42352941 0.86666667 0.34117647
0.47058824 0.86666667 0.34117647
0.57254902 0.86666667 0.34509804
0.69803922 0.86666667 0.34901961
0.79607843 0.86666667 0.34901961
0.88235294 0.87058824 0.34117647
0.96470588 0.87843137 0.31372549
0.69803922 0.95686275 0.53333333
0.70980392 0.95686275 0.53725490
0.74509804 0.95686275 0.53725490
0.79215686 0.95686275 0.53725490
0.84313725 0.95686275 0.53725490
0.90196078 0.96078431 0.53333333
0.97647059 0.96470588 0.50588235
0.00000000 0.00000000 0.07058824
0.09803922 0.00000000 0.07843137
0.23137255 0.00000000 0.08627451
0.42745098 0.00392157 0.09411765
0.66274510 0.01960784 0.10196078
0.88627451 0.06666667 0.10196078
1.00000000 0.16078431 0.08235294
0.05882353 0.11372549 0.11764706
0.12156863 0.11764706 0.11764706
0.26274510 0.12941176 0.12549020
0.45490196 0.14901961 0.13333333
0.68235294 0.18431373 0.13725490
0.89019608 0.23921569 0.13333333
1.00000000 0.32941176 0.11372549
0.10196078 0.28627451 0.15686275
0.13725490 0.29019608 0.16078431
0.29019608 0.30196078 0.16470588
0.48627451 0.32156863 0.17254902
0.70588235 0.34901961 0.17254902
0.89019608 0.39607843 0.16470588
0.99607843 0.47450980 0.13725490
0.00784314 0.51764706 0.20784314
0.12549020 0.52156863 0.21176471
0.30980392 0.52941176 0.21568627
0.52156863 0.54117647 0.22352941
0.73333333 0.56470588 0.22352941
0.88235294 0.60000000 0.21176471
0.97647059 0.65882353 0.17647059
0.09803922 0.74509804 0.27843137
0.18039216 0.74509804 0.28235294
0.37254902 0.74901961 0.28627451
0.58039216 0.75294118 0.29019608
0.75294118 0.76078431 0.29411765
0.87450980 0.77254902 0.28627451
0.96078431 0.79215686 0.25882353
0.42352941 0.86666667 0.40392157
0.47058824 0.86666667 0.40784314
0.57647059 0.86666667 0.41176471
0.69803922 0.86666667 0.41568627
0.79607843 0.87058824 0.41568627
0.88235294 0.87450980 0.41176471
0.96078431 0.88235294 0.38823529
0.69803922 0.96078431 0.58823529
0.70980392 0.96078431 0.58823529
0.74509804 0.96078431 0.59215686
0.79215686 0.96078431 0.59215686
0.84313725 0.96078431 0.59215686
0.90196078 0.96470588 0.58823529
0.97647059 0.96862745 0.56470588
0.00000000 0.00000000 0.16862745
0.09803922 0.00000000 0.17647059
0.23529412 0.00000000 0.18823529
0.43137255 0.00392157 0.19607843
0.67058824 0.01568627 0.20000000
0.89019608 0.05882353 0.20000000
1.00000000 0.15686275 0.17647059
0.05882353 0.10588235 0.23137255
0.12156863 0.10980392 0.23529412
0.26274510 0.12156863 0.24313725
0.45882353 0.14117647 0.25098039
0.68627451 0.17647059 0.25882353
0.89411765 0.23137255 0.25490196
1.00000000 0.32549020 0.22745098
0.10588235 0.27843137 0.28235294
0.14117647 0.28235294 0.28627451
0.29411765 0.29411765 0.29411765
0.49019608 0.31372549 0.30196078
0.70980392 0.34117647 0.30588235
0.89411765 0.39215686 0.30196078
0.99607843 0.47058824 0.27843137
0.00784314 0.51372549 0.34117647
0.12549020 0.51764706 0.34509804
0.31372549 0.52549020 0.34901961
0.52549020 0.54117647 0.35686275
0.73725490 0.56078431 0.36078431
0.88627451 0.60000000 0.35686275
0.97647059 0.65882353 0.33333333
0.09411765 0.74509804 0.41568627
0.17647059 0.74509804 0.41960784
0.37254902 0.74901961 0.42352941
0.58431373 0.75294118 0.43137255
0.75686275 0.76078431 0.43529412
0.87450980 0.77254902 0.43529412
0.96078431 0.79607843 0.41568627
0.42352941 0.87058824 0.53333333
0.47058824 0.87058824 0.53333333
0.57254902 0.87058824 0.54117647
0.69411765 0.87058824 0.54509804
0.79607843 0.87450980 0.54901961
0.88235294 0.87843137 0.54509804
0.96078431 0.88627451 0.52941176
0.69803922 0.96470588 0.68627451
0.70980392 0.96470588 0.68627451
0.74117647 0.96470588 0.69019608
0.78823529 0.96470588 0.69019608
0.84313725 0.96862745 0.69411765
0.90196078 0.96862745 0.69411765
0.97647059 0.97647059 0.67843137
0.00000000 0.00000000 0.30588235
0.09803922 0.00000000 0.31764706
0.23137255 0.00000000 0.32941176
0.43529412 0.00000000 0.33725490
0.67450980 0.01176471 0.34901961
0.89411765 0.05098039 0.34901961
1.00000000 0.14509804 0.32941176
0.05490196 0.09019608 0.37254902
0.12156863 0.09803922 0.38039216
0.26274510 0.10980392 0.39215686
0.45882353 0.12549020 0.40000000
0.69019608 0.15686275 0.41176471
0.89411765 0.21568627 0.41176471
1.00000000 0.31372549 0.39607843
0.10196078 0.25882353 0.43921569
0.14509804 0.26666667 0.44313725
0.29803922 0.27843137 0.45490196
0.49411765 0.29803922 0.46274510
0.71764706 0.32549020 0.47450980
0.89803922 0.37647059 0.47450980
0.99607843 0.46274510 0.45882353
0.01960784 0.50196078 0.50980392
0.13333333 0.50588235 0.51372549
0.31764706 0.51372549 0.52156863
0.52941176 0.52941176 0.52941176
0.74117647 0.55294118 0.53725490
0.88627451 0.59215686 0.54117647
0.98039216 0.65490196 0.52549020
0.08627451 0.74509804 0.58431373
0.16862745 0.74509804 0.58823529
0.36862745 0.74901961 0.59215686
0.58431373 0.75294118 0.60392157
0.75686275 0.76078431 0.61176471
0.87450980 0.77647059 0.61176471
0.96078431 0.80000000 0.60000000
0.41960784 0.87450980 0.68235294
0.46666667 0.87450980 0.68235294
0.57254902 0.87450980 0.69019608
0.69411765 0.87450980 0.69411765
0.79215686 0.87843137 0.69803922
0.87843137 0.88235294 0.70196078
0.96078431 0.89019608 0.69411765
0.69803922 0.96862745 0.77254902
0.70980392 0.96862745 0.77647059
0.74117647 0.96862745 0.77647059
0.78823529 0.97254902 0.78039216
0.84313725 0.97254902 0.78039216
0.89803922 0.97647059 0.78431373
0.97647059 0.98039216 0.77647059
0.00000000 0.00000000 0.46666667
0.09019608 0.00000000 0.48235294
0.22745098 0.00000000 0.49411765
0.43137255 0.00000000 0.50980392
0.67450980 0.00392157 0.52156863
0.89411765 0.03137255 0.52941176
1.00000000 0.12549020 0.51764706
0.04705882 0.07058824 0.54901961
0.11764706 0.07450980 0.55686275
0.25882353 0.08627451 0.56862745
0.45882353 0.10196078 0.58039216
0.69411765 0.12941176 0.59607843
0.89803922 0.18431373 0.60000000
1.00000000 0.29019608 0.58823529
0.10588235 0.23137255 0.61568627
0.15686275 0.23529412 0.62352941
0.29803922 0.24705882 0.63137255
0.49411765 0.27058824 0.64313725
0.71764706 0.30196078 0.65490196
0.89803922 0.35294118 0.66274510
0.99607843 0.44313725 0.65098039
0.06666667 0.48235294 0.68235294
0.14509804 0.48627451 0.68627451
0.32156863 0.49411765 0.69411765
0.53333333 0.50980392 0.70196078
0.74509804 0.53333333 0.71372549
0.89019608 0.57647059 0.71764706
0.98039216 0.64313725 0.70980392
0.06666667 0.73725490 0.73333333
0.16470588 0.73725490 0.73333333
0.36862745 0.74117647 0.74117647
0.58431373 0.74901961 0.74901961
0.75686275 0.75686275 0.75686275
0.87450980 0.77254902 0.76078431
0.96078431 0.80000000 0.75686275
0.41176471 0.87843137 0.78431373
0.46274510 0.87843137 0.78431373
0.56862745 0.87450980 0.78823529
0.69411765 0.87843137 0.79607843
0.79215686 0.87843137 0.80000000
0.87843137 0.88235294 0.80392157
0.96078431 0.89411765 0.80392157
0.69803922 0.97254902 0.83921569
0.71372549 0.97254902 0.83921569
0.74509804 0.97647059 0.84313725
0.78823529 0.97647059 0.84313725
0.84313725 0.97647059 0.84705882
0.89803922 0.98039216 0.85098039
0.98039216 0.98823529 0.85098039
0.00000000 0.00392157 0.65882353
0.07843137 0.00000000 0.67058824
0.21568627 0.00000000 0.68627451
0.42745098 0.00000000 0.70196078
0.67450980 0.00000000 0.71764706
0.89411765 0.00784314 0.72941176
1.00000000 0.09411765 0.72549020
0.03921569 0.03137255 0.72941176
0.10980392 0.03529412 0.73725490
0.25098039 0.04705882 0.74901961
0.45098039 0.06274510 0.76078431
0.69019608 0.09019608 0.77647059
0.89803922 0.14117647 0.78431373
1.00000000 0.24705882 0.78039216
0.11764706 0.18039216 0.77647059
0.16078431 0.18431373 0.78039216
0.29803922 0.19607843 0.78823529
0.49411765 0.21568627 0.80000000
0.72156863 0.25098039 0.81176471
0.90196078 0.30588235 0.81960784
1.00000000 0.40392157 0.81568627
0.10588235 0.44313725 0.80784314
0.16862745 0.44705882 0.81176471
0.32941176 0.45490196 0.81568627
0.54117647 0.47058824 0.82745098
0.75294118 0.49803922 0.83529412
0.89803922 0.54117647 0.84313725
0.98823529 0.61568627 0.83921569
0.03921569 0.71764706 0.82745098
0.16862745 0.71764706 0.83137255
0.37254902 0.72156863 0.83529412
0.58431373 0.72941176 0.84313725
0.76078431 0.74117647 0.85098039
0.87843137 0.76078431 0.85882353
0.96470588 0.78823529 0.85882353
0.40000000 0.87450980 0.85882353
0.45098039 0.87450980 0.85882353
0.56078431 0.87450980 0.86666667
0.69019608 0.87450980 0.87058824
0.79215686 0.87450980 0.87843137
0.88235294 0.88235294 0.88235294
0.96470588 0.89019608 0.88235294
0.69803922 0.97647059 0.89803922
0.70980392 0.98039216 0.89803922
0.74117647 0.98039216 0.89803922
0.78823529 0.98039216 0.90196078
0.83921569 0.98039216 0.90588235
0.89803922 0.98431373 0.90980392
0.98823529 0.99215686 0.90980392
0.00000000 0.00392157 0.80392157
0.05882353 0.00392157 0.81568627
0.19607843 0.00392157 0.82352941
0.41568627 0.00000000 0.83921569
0.66666667 0.00000000 0.85490196
0.89411765 0.00000000 0.87058824
1.00000000 0.03921569 0.87058824
0.02745098 0.00392157 0.84705882
0.09411765 0.00392157 0.85098039
0.23137255 0.00392157 0.86274510
0.43921569 0.00784314 0.87450980
0.68627451 0.02352941 0.88627451
0.89803922 0.07058824 0.89803922
1.00000000 0.16862745 0.89803922
0.09803922 0.10588235 0.87450980
0.15294118 0.10980392 0.87843137
0.29019608 0.11764706 0.88627451
0.49019608 0.13333333 0.89803922
0.71764706 0.16078431 0.90980392
0.90980392 0.21960784 0.91764706
1.00000000 0.32549020 0.91764706
0.12549020 0.36078431 0.89019608
0.19607843 0.36470588 0.89411765
0.34117647 0.37254902 0.90196078
0.54509804 0.39215686 0.90980392
0.75686275 0.41568627 0.92156863
0.90980392 0.46666667 0.92549020
0.99607843 0.54901961 0.92549020
0.09803922 0.66274510 0.90196078
0.18823529 0.66274510 0.90588235
0.38039216 0.67058824 0.90980392
0.58823529 0.67843137 0.91764706
0.76862745 0.69411765 0.92549020
0.88627451 0.72156863 0.93333333
0.97254902 0.76078431 0.93333333
0.36470588 0.86274510 0.92156863
0.41960784 0.85882353 0.92549020
0.54117647 0.85882353 0.92941176
0.68235294 0.85882353 0.93725490
0.79215686 0.86274510 0.94117647
0.88235294 0.87058824 0.94901961
0.96862745 0.88235294 0.95294118
0.68627451 0.98039216 0.96078431
0.70196078 0.98039216 0.96470588
0.73333333 0.98039216 0.96470588
0.78431373 0.98039216 0.96862745
0.83529412 0.98431373 0.97647059
0.89803922 0.98823529 0.98431373
1.00000000 1.00000000 0.99607843
