core/profiles/src/main/assets/luts/lomography_x-pro_slide_200.cube
# Source: RawTherapee Film Simulation Collection (HaldCLUT.zip)
# Converted from: HaldCLUT/Color/Lomography/Lomography X-Pro Slide 200.png
TITLE "lomography_x-pro_slide_200"
LUT_3D_SIZE 5
DOMAIN_MIN 0.0 0.0 0.0
DOMAIN_MAX 1.0 1.0 1.0
0.00000000 0.00000000 0.00000000
0.15686275 0.00000000 0.00000000
0.42352941 0.01176471 0.00000000
0.78431373 0.04705882 0.00392157
1.00000000 0.16862745 0.00784314
0.10196078 0.19607843 0.05882353
0.19215686 0.20784314 0.06666667
0.46274510 0.23921569 0.07450980
0.80000000 0.29019608 0.08235294
0.99607843 0.40000000 0.05882353
0.00784314 0.51764706 0.13333333
0.21568627 0.52549020 0.13725490
0.51764706 0.54509804 0.14117647
0.81568627 0.58039216 0.13725490
0.97647059 0.65882353 0.10196078
0.25490196 0.81176471 0.26274510
0.38431373 0.81176471 0.26666667
0.63921569 0.81568627 0.27450980
0.82745098 0.81960784 0.27450980
0.96078431 0.83529412 0.23921569
0.69803922 0.95686275 0.53333333
0.72549020 0.95686275 0.53725490
0.79215686 0.95686275 0.53725490
0.87450980 0.96078431 0.53725490
0.97647059 0.96470588 0.50588235
0.00000000 0.00000000 0.11764706
0.15686275 0.00000000 0.12941176
0.43137255 0.00392157 0.14117647
0.79215686 0.03529412 0.14901961
1.00000000 0.16078431 0.12549020
0.10196078 0.18431373 0.19215686
0.19607843 0.19607843 0.19607843
0.47058824 0.22745098 0.20784314
0.80784314 0.28235294 0.21176471
0.99607843 0.39607843 0.17647059
0.00784314 0.51764706 0.27058824
0.21960784 0.52156863 0.27843137
0.52549020 0.54117647 0.28627451
0.81960784 0.58039216 0.28627451
0.97647059 0.65882353 0.25098039
0.25098039 0.81568627 0.39607843
0.38431373 0.81568627 0.40000000
0.63921569 0.81960784 0.40784314
0.82745098 0.82352941 0.41176471
0.96078431 0.84313725 0.38823529
0.69803922 0.96078431 0.63529412
0.72549020 0.96078431 0.63529412
0.79215686 0.96078431 0.63921569
0.87058824 0.96470588 0.63921569
0.97647059 0.97254902 0.61960784
0.00000000 0.00000000 0.30588235
0.15294118 0.00000000 0.32156863
0.43529412 0.00000000 0.33725490
0.80000000 0.02352941 0.34901961
1.00000000 0.14509804 0.32941176
0.09803922 0.16078431 0.40784314
0.20000000 0.17254902 0.41568627
0.47450980 0.20392157 0.43137255
0.81568627 0.26274510 0.44313725
1.00000000 0.38039216 0.42745098
0.01960784 0.50196078 0.50980392
0.22352941 0.50980392 0.51764706
0.52941176 0.52941176 0.52941176
0.82352941 0.56862745 0.54117647
0.98039216 0.65490196 0.52549020
0.23921569 0.81960784 0.63529412
0.38039216 0.81960784 0.63921569
0.63921569 0.82352941 0.65098039
0.82745098 0.83137255 0.65882353
0.96078431 0.84705882 0.64705882
0.69803922 0.96862745 0.77254902
0.72549020 0.96862745 0.77647059
0.78823529 0.97254902 0.78039216
0.87058824 0.97254902 0.78431373
0.97647059 0.98039216 0.77647059
0.00000000 0.00392157 0.56078431
0.14117647 0.00000000 0.58431373
0.42745098 0.00000000 0.60784314
0.80000000 0.00392157 0.62745098
1.00000000 0.10980392 0.61960784
0.08235294 0.12156863 0.67843137
0.19607843 0.12941176 0.68627451
0.47450980 0.15294118 0.70588235
0.81960784 0.21176471 0.72549020
1.00000000 0.34117647 0.72156863
0.09411765 0.46666667 0.75294118
0.23529412 0.47450980 0.76078431
0.53725490 0.49411765 0.77254902
0.83137255 0.53725490 0.78823529
0.98431373 0.63137255 0.78431373
0.21960784 0.81568627 0.80392157
0.36862745 0.81568627 0.80784314
0.63529412 0.81960784 0.81960784
0.82745098 0.82745098 0.82745098
0.96078431 0.84705882 0.83137255
0.69803922 0.97647059 0.87058824
0.72549020 0.97647059 0.87058824
0.78823529 0.97647059 0.87450980
0.87058824 0.98039216 0.87843137
0.98431373 0.98823529 0.88235294
0.00000000 0.00392157 0.80392157
0.11764706 0.00392157 0.81960784
0.41568627 0.00000000 0.83921569
0.79607843 0.00000000 0.86274510
1.00000000 0.03921569 0.87058824
0.06666667 0.03137255 0.86274510
0.17647059 0.03921569 0.87058824
0.46274510 0.05882353 0.88627451
0.81960784 0.10196078 0.90588235
1.00000000 0.23921569 0.90980392
0.12549020 0.36078431 0.89019608
0.26274510 0.36862745 0.89803922
0.54509804 0.39215686 0.90980392
0.84313725 0.43921569 0.92549020
0.99607843 0.54901961 0.92549020
0.18039216 0.78431373 0.90980392
0.34901961 0.78823529 0.91372549
0.62745098 0.78823529 0.92549020
0.83137255 0.80000000 0.93725490
0.96862745 0.83137255 0.94117647
0.68627451 0.98039216 0.96078431
0.71372549 0.98039216 0.96470588
0.78431373 0.98039216 0.96862745
0.86666667 0.98431373 0.98039216
1.00000000 1.00000000 0.99607843
