core/profiles/src/main/assets/luts/polaroid_time_zero_expired.cube
# Source: RawTherapee Film Simulation Collection (HaldCLUT.zip)
# Converted from: HaldCLUT/Color/Polaroid/Polaroid Time Zero (Expired) 4.png
TITLE "polaroid_time_zero_expired"
LUT_3D_SIZE 13
DOMAIN_MIN 0.0 0.0 0.0
DOMAIN_MAX 1.0 1.0 1.0
0.61568627 0.34901961 0.13333333
0.61568627 0.34901961 0.12941176
0.61568627 0.34901961 0.13333333
0.62352941 0.34901961 0.13333333
0.63529412 0.34509804 0.12941176
0.65882353 0.34901961 0.13333333
0.68235294 0.34509804 0.12941176
0.71372549 0.34509804 0.12941176
0.75294118 0.34901961 0.12941176
0.79607843 0.35294118 0.12941176
0.84705882 0.36078431 0.13333333
0.89411765 0.36470588 0.12941176
0.94117647 0.38431373 0.13725490
0.61568627 0.35294118 0.13333333
0.61568627 0.35294118 0.13333333
0.61960784 0.35294118 0.13333333
0.62745098 0.35294118 0.13333333
0.63921569 0.34901961 0.12941176
0.65882353 0.34901961 0.12941176
0.68627451 0.35294118 0.12941176
0.71764706 0.35294118 0.12941176
0.75686275 0.35294118 0.12941176
0.80000000 0.35686275 0.12941176
0.84705882 0.36470588 0.12941176
0.89411765 0.37647059 0.13333333
0.94117647 0.39215686 0.13725490
0.61960784 0.36078431 0.13333333
0.61960784 0.35686275 0.12941176
0.62352941 0.36078431 0.13333333
0.63137255 0.36078431 0.12941176
0.64705882 0.36078431 0.12549020
0.66274510 0.36078431 0.12549020
0.69411765 0.36078431 0.12549020
0.72549020 0.36470588 0.12549020
0.76078431 0.36862745 0.12549020
0.80392157 0.36862745 0.12549020
0.85098039 0.37647059 0.12549020
0.89803922 0.39215686 0.12941176
0.94117647 0.40784314 0.13333333
0.61960784 0.37254902 0.12156863
0.62352941 0.37647059 0.12156863
0.63137255 0.37254902 0.12156863
0.63921569 0.37254902 0.12156863
0.65490196 0.37647059 0.12549020
0.67450980 0.37647059 0.12156863
0.70196078 0.38039216 0.11764706
0.72941176 0.38431373 0.11764706
0.76862745 0.38823529 0.12156863
0.80784314 0.39215686 0.11764706
0.85490196 0.40000000 0.11764706
0.89803922 0.41176471 0.12156863
0.94117647 0.43137255 0.12549020
0.63137255 0.40392157 0.11372549
0.63137255 0.40392157 0.10980392
0.64313725 0.40392157 0.10980392
0.65490196 0.40784314 0.11372549
0.67058824 0.40392157 0.11764706
0.69019608 0.40784314 0.12156863
0.71372549 0.41176471 0.11372549
0.74117647 0.41568627 0.10980392
0.77647059 0.41960784 0.10980392
0.81568627 0.42352941 0.10588235
0.85882353 0.43529412 0.10980392
0.89803922 0.44313725 0.10588235
0.94117647 0.46274510 0.11764706
0.64313725 0.43921569 0.09411765
0.64705882 0.44313725 0.09803922
0.65098039 0.44313725 0.09019608
0.67058824 0.44705882 0.09411765
0.68627451 0.44705882 0.09411765
0.70980392 0.45098039 0.10196078
0.73333333 0.45490196 0.10980392
0.76078431 0.45882353 0.10588235
0.78823529 0.45882353 0.09411765
0.82352941 0.46666667 0.09019608
0.86274510 0.47450980 0.08627451
0.90196078 0.48627451 0.09411765
0.94117647 0.50196078 0.10588235
0.65490196 0.48627451 0.06666667
0.65882353 0.48627451 0.06666667
0.67058824 0.49019608 0.06274510
0.68235294 0.49019608 0.05490196
0.70196078 0.49411765 0.05882353
0.72549020 0.49803922 0.06666667
0.74901961 0.49803922 0.07843137
0.77647059 0.50588235 0.09411765
0.80784314 0.51372549 0.09411765
0.83921569 0.52156863 0.08627451
0.87058824 0.52549020 0.07450980
0.90196078 0.52941176 0.06274510
0.94117647 0.54901961 0.08627451
0.67450980 0.54117647 0.01568627
0.67843137 0.54117647 0.00784314
0.68235294 0.54117647 0.00392157
0.69803922 0.54117647 0.00000000
0.71372549 0.54509804 0.00000000
0.74117647 0.54901961 0.00000000
0.76470588 0.55294118 0.01568627
0.79215686 0.55686275 0.04705882
0.82745098 0.56862745 0.09019608
0.85490196 0.57647059 0.09411765
0.88627451 0.58039216 0.08627451
0.91764706 0.59215686 0.08627451
0.94509804 0.60392157 0.08627451
0.69411765 0.59607843 0.00000000
0.69803922 0.60000000 0.00000000
0.70588235 0.59607843 0.00000000
0.71372549 0.59607843 0.00000000
0.72941176 0.60000000 0.00000000
0.75294118 0.60392157 0.00000000
0.78039216 0.60784314 0.00000000
0.80784314 0.61176471 0.00000000
0.83921569 0.62352941 0.03529412
0.86666667 0.63137255 0.10588235
0.89803922 0.64313725 0.13725490
0.92156863 0.65098039 0.13725490
0.94901961 0.66274510 0.14509804
0.71372549 0.65490196 0.00000000
0.71764706 0.65490196 0.00000000
0.72156863 0.65490196 0.00000000
0.73333333 0.65490196 0.00000000
0.74901961 0.65490196 0.00000000
0.76862745 0.65882353 0.00000000
0.79607843 0.66666667 0.00000000
0.82352941 0.67058824 0.00000000
0.84705882 0.67450980 0.00000000
0.87843137 0.68235294 0.07843137
0.90196078 0.69019608 0.16078431
0.92549020 0.70588235 0.21568627
0.94901961 0.71764706 0.23137255
0.73725490 0.71372549 0.00000000
0.74117647 0.71372549 0.00000000
0.74509804 0.70980392 0.00000000
0.75686275 0.71372549 0.00000000
0.76862745 0.71372549 0.00000000
0.78823529 0.71372549 0.00000000
0.81176471 0.71764706 0.00000000
0.83529412 0.72549020 0.00000000
0.86274510 0.72941176 0.00000000
0.89019608 0.73333333 0.07843137
0.91372549 0.74509804 0.16862745
0.93333333 0.74901961 0.24313725
0.95294118 0.76862745 0.32549020
0.77254902 0.77254902 0.00000000
0.77254902 0.77254902 0.00000000
0.77647059 0.77254902 0.00000000
0.78823529 0.77254902 0.00000000
0.79607843 0.77254902 0.00000000
0.81176471 0.77254902 0.00000000
0.83529412 0.78039216 0.00000000
0.85490196 0.78039216 0.00000000
0.88235294 0.78431373 0.00000000
0.90588235 0.78823529 0.13725490
0.92549020 0.79215686 0.21960784
0.94117647 0.79607843 0.28627451
0.95686275 0.80000000 0.35294118
0.81960784 0.83137255 0.00392157
0.81568627 0.82745098 0.00000000
0.81960784 0.82745098 0.00000000
0.82745098 0.82745098 0.00000000
0.83921569 0.83137255 0.00000000
0.85098039 0.83137255 0.00000000
0.86666667 0.83529412 0.00000000
0.88235294 0.83529412 0.02745098
0.90588235 0.83921569 0.16078431
0.92549020 0.83921569 0.24313725
0.94117647 0.83921569 0.31372549
0.95686275 0.84313725 0.38823529
0.97254902 0.84705882 0.45882353
0.61568627 0.34901961 0.13333333
0.61960784 0.35294118 0.13333333
0.61568627 0.34901961 0.13333333
0.62352941 0.34901961 0.13333333
0.63921569 0.34901961 0.13333333
0.66274510 0.34901961 0.13333333
0.69019608 0.34901961 0.13725490
0.72156863 0.34901961 0.13725490
0.76078431 0.35294118 0.13725490
0.80392157 0.35686275 0.13725490
0.84705882 0.35686275 0.13725490
0.89411765 0.36862745 0.13725490
0.94117647 0.38823529 0.14901961
0.61568627 0.35294118 0.13333333
0.61568627 0.34901961 0.13333333
0.61960784 0.34901961 0.13333333
0.63137255 0.35294118 0.13333333
0.64313725 0.34901961 0.13333333
0.66274510 0.34901961 0.13333333
0.69019608 0.35294118 0.13333333
0.72156863 0.35294118 0.13333333
0.76470588 0.35686275 0.13725490
0.80784314 0.36078431 0.13725490
0.85098039 0.36470588 0.13333333
0.89803922 0.37647059 0.13725490
0.94509804 0.39607843 0.14509804
0.61568627 0.35686275 0.12941176
0.61960784 0.35686275 0.12941176
0.62352941 0.35686275 0.13333333
0.63529412 0.36078431 0.13333333
0.64705882 0.36078431 0.12941176
0.66666667 0.36078431 0.12941176
0.69803922 0.36470588 0.12941176
0.72941176 0.36862745 0.13333333
0.76470588 0.36862745 0.12941176
0.80784314 0.37254902 0.13333333
0.85490196 0.38039216 0.13333333
0.89803922 0.38823529 0.13333333
0.94117647 0.40784314 0.14117647
0.62352941 0.37647059 0.12549020
0.62745098 0.37647059 0.12549020
0.63137255 0.37647059 0.12549020
0.63921569 0.37254902 0.12549020
0.65490196 0.37647059 0.12941176
0.67450980 0.38039216 0.12549020
0.70588235 0.38431373 0.12549020
0.73333333 0.38431373 0.12549020
0.77254902 0.38823529 0.12549020
0.81568627 0.39607843 0.12549020
0.85490196 0.40000000 0.12549020
0.90196078 0.41568627 0.12941176
0.94509804 0.43529412 0.13725490
0.63137255 0.40392157 0.11764706
0.63529412 0.40392157 0.11764706
0.64313725 0.40784314 0.11764706
0.65882353 0.40784314 0.11764706
0.67058824 0.40784314 0.12156863
0.69019608 0.40784314 0.12156863
0.72156863 0.41568627 0.12156863
0.74509804 0.41960784 0.11764706
0.77647059 0.41960784 0.11372549
0.81960784 0.42745098 0.11372549
0.86274510 0.43529412 0.11372549
0.90196078 0.44705882 0.11764706
0.94509804 0.46666667 0.12941176
0.64313725 0.44313725 0.10196078
0.65098039 0.44705882 0.10196078
0.65490196 0.44705882 0.09803922
0.67058824 0.45098039 0.09803922
0.69019608 0.45098039 0.10196078
0.70980392 0.45098039 0.10980392
0.73725490 0.45490196 0.11372549
0.76470588 0.46274510 0.10980392
0.79215686 0.46274510 0.10196078
0.82352941 0.46666667 0.09411765
0.86666667 0.47843137 0.09803922
0.90196078 0.48627451 0.10196078
0.94509804 0.50588235 0.11764706
0.65882353 0.49019608 0.07450980
0.66274510 0.49019608 0.07450980
0.66666667 0.49019608 0.06666667
0.68627451 0.49803922 0.06274510
0.70196078 0.49803922 0.06666667
0.72941176 0.50196078 0.07450980
0.75686275 0.50588235 0.08627451
0.78039216 0.51372549 0.10588235
0.81176471 0.51764706 0.10196078
0.83921569 0.52156863 0.09019608
0.87450980 0.52941176 0.08627451
0.90588235 0.53725490 0.07843137
0.94117647 0.54901961 0.09803922
0.67450980 0.54509804 0.02352941
0.67843137 0.54901961 0.01960784
0.68627451 0.54901961 0.01568627
0.69803922 0.54901961 0.00392157
0.71764706 0.54901961 0.00000000
0.74509804 0.55686275 0.01176471
0.77254902 0.56078431 0.03137255
0.80000000 0.56470588 0.06274510
0.82745098 0.57254902 0.10196078
0.86274510 0.58431373 0.10980392
0.88627451 0.58431373 0.09803922
0.91764706 0.59607843 0.09803922
0.94901961 0.60784314 0.10196078
0.69411765 0.60000000 0.00000000
0.69803922 0.60392157 0.00000000
0.70588235 0.60392157 0.00000000
0.71764706 0.60392157 0.00000000
0.73333333 0.60392157 0.00000000
0.75686275 0.61176471 0.00000000
0.78431373 0.61176471 0.00000000
0.81176471 0.61960784 0.00000000
0.84313725 0.62745098 0.05882353
0.87058824 0.63529412 0.12549020
0.89803922 0.64705882 0.14901961
0.92156863 0.65098039 0.14901961
0.94901961 0.66666667 0.15686275
0.71764706 0.65882353 0.00000000
0.72156863 0.65882353 0.00000000
0.72549020 0.65882353 0.00000000
0.73725490 0.65882353 0.00000000
0.74901961 0.65882353 0.00000000
0.77254902 0.66666667 0.00000000
0.79607843 0.66666667 0.00000000
0.82352941 0.67450980 0.00000000
0.85098039 0.67843137 0.00392157
0.88235294 0.69019608 0.10196078
0.90588235 0.69411765 0.17647059
0.92941176 0.70980392 0.22745098
0.95294118 0.72156863 0.24313725
0.74117647 0.71764706 0.00000000
0.74509804 0.71764706 0.00000000
0.74901961 0.71764706 0.00000000
0.75686275 0.71372549 0.00000000
0.76862745 0.71764706 0.00000000
0.78823529 0.71764706 0.00000000
0.81176471 0.72156863 0.00000000
0.83921569 0.72941176 0.00000000
0.86666667 0.73333333 0.00000000
0.89411765 0.74117647 0.10196078
0.91372549 0.74509804 0.18431373
0.93333333 0.75294118 0.25882353
0.95686275 0.77254902 0.33333333
0.77254902 0.77647059 0.00000000
0.77254902 0.77254902 0.00000000
0.77647059 0.77254902 0.00000000
0.78823529 0.77254902 0.00000000
0.80000000 0.77647059 0.00000000
0.81568627 0.77647059 0.00000000
0.83529412 0.78039216 0.00000000
0.85490196 0.78039216 0.00000000
0.88235294 0.78823529 0.02745098
0.90588235 0.79215686 0.15294118
0.92549020 0.79607843 0.23137255
0.94509804 0.80000000 0.30196078
0.95686275 0.80392157 0.36470588
0.81568627 0.83137255 0.05098039
0.81960784 0.83137255 0.04313725
0.82352941 0.83137255 0.03137255
0.83137255 0.83137255 0.00784314
0.83921569 0.83137255 0.00000000
0.85098039 0.83529412 0.00000000
0.86666667 0.83137255 0.00000000
0.88627451 0.83529412 0.06274510
0.90588235 0.83921569 0.17254902
0.92549020 0.83921569 0.25098039
0.94117647 0.84313725 0.32156863
0.96078431 0.84705882 0.39607843
0.97254902 0.85098039 0.46666667
0.61568627 0.34901961 0.13725490
0.61568627 0.34901961 0.13333333
0.61960784 0.34901961 0.13725490
0.62745098 0.34901961 0.14509804
0.64313725 0.34901961 0.14509804
0.66274510 0.34901961 0.14509804
0.69019608 0.35294118 0.14509804
0.72549020 0.35294118 0.14509804
0.76470588 0.35294118 0.14901961
0.80784314 0.35294118 0.14901961
0.85490196 0.36078431 0.14901961
0.89803922 0.37254902 0.15294118
0.94509804 0.38823529 0.16470588
0.61960784 0.35294118 0.13725490
0.61960784 0.35294118 0.13725490
0.62352941 0.35294118 0.14117647
0.63137255 0.35294118 0.14509804
0.64705882 0.35294118 0.14509804
0.66666667 0.35686275 0.14509804
0.69803922 0.35686275 0.14509804
0.72941176 0.35686275 0.14509804
0.76862745 0.35686275 0.14509804
0.80784314 0.36078431 0.14509804
0.85490196 0.36470588 0.14901961
0.89803922 0.37647059 0.15294118
0.94509804 0.39607843 0.16078431
0.61960784 0.35686275 0.13725490
0.61960784 0.35686275 0.13725490
0.62745098 0.36078431 0.14117647
0.63921569 0.36078431 0.14117647
0.65098039 0.36078431 0.14117647
0.67058824 0.36078431 0.14117647
0.70196078 0.36470588 0.14117647
0.73333333 0.36470588 0.14117647
0.76862745 0.36862745 0.14117647
0.81176471 0.37254902 0.14509804
0.85882353 0.38039216 0.14509804
0.90196078 0.39215686 0.14901961
0.94509804 0.40784314 0.15686275
0.62352941 0.37647059 0.13725490
0.62745098 0.37647059 0.13725490
0.63137255 0.37647059 0.13333333
0.64313725 0.37647059 0.13725490
0.65882353 0.38039216 0.13725490
0.68235294 0.38039216 0.13725490
0.70980392 0.38431373 0.13725490
0.74117647 0.38823529 0.13725490
0.77647059 0.38823529 0.13725490
0.81568627 0.39607843 0.13725490
0.85882353 0.40000000 0.13725490
0.90196078 0.41568627 0.14509804
0.94509804 0.43529412 0.15294118
0.63529412 0.40392157 0.13333333
0.63529412 0.40392157 0.12941176
0.64313725 0.40392157 0.12549020
0.65490196 0.40784314 0.12549020
0.67058824 0.40784314 0.12941176
0.69411765 0.41176471 0.13333333
0.72156863 0.41568627 0.13333333
0.74901961 0.41960784 0.12941176
0.78431373 0.42352941 0.12941176
0.82352941 0.42745098 0.12941176
0.86666667 0.43529412 0.13333333
0.90588235 0.45098039 0.13725490
0.94509804 0.46666667 0.14509804
0.64313725 0.44313725 0.11764706
0.64705882 0.44313725 0.11372549
0.65490196 0.44313725 0.10980392
0.67058824 0.45098039 0.10980392
0.68627451 0.45098039 0.10980392
0.71372549 0.45490196 0.12156863
0.73725490 0.45882353 0.12941176
0.76470588 0.46274510 0.12549020
0.79215686 0.46274510 0.11764706
0.82745098 0.47058824 0.11372549
0.86666667 0.47843137 0.11372549
0.90588235 0.49019608 0.12549020
0.94901961 0.50588235 0.13725490
0.65882353 0.49411765 0.09803922
0.66274510 0.49411765 0.09411765
0.67058824 0.49411765 0.09019608
0.68235294 0.49803922 0.08235294
0.70588235 0.50196078 0.08235294
0.72941176 0.50196078 0.09411765
0.75686275 0.50980392 0.10588235
0.78431373 0.51372549 0.12549020
0.81568627 0.51764706 0.12156863
0.84313725 0.52156863 0.10980392
0.87450980 0.52941176 0.10588235
0.90588235 0.53725490 0.10588235
0.94509804 0.55294118 0.12156863
0.67843137 0.54901961 0.06274510
0.68235294 0.54901961 0.05490196
0.69019608 0.54901961 0.05098039
0.70196078 0.54901961 0.03921569
0.71764706 0.55294118 0.02745098
0.74509804 0.55686275 0.04313725
0.77254902 0.56078431 0.06274510
0.80000000 0.56470588 0.09411765
0.83137255 0.57647059 0.12941176
0.85882353 0.58039216 0.12941176
0.89019608 0.58823529 0.12156863
0.91764706 0.59215686 0.11764706
0.94509804 0.60392157 0.11764706
0.69411765 0.60000000 0.00000000
0.69803922 0.60392157 0.00000000
0.70196078 0.60000000 0.00000000
0.71372549 0.60392157 0.00000000
0.73333333 0.60784314 0.00000000
0.75686275 0.60784314 0.00000000
0.78431373 0.61176471 0.00000000
0.81176471 0.61960784 0.03529412
0.84313725 0.62745098 0.09411765
0.87058824 0.63921569 0.15294118
0.89803922 0.64705882 0.16862745
0.92549020 0.65490196 0.16862745
0.94901961 0.66666667 0.17647059
0.71764706 0.65882353 0.00000000
0.71764706 0.65882353 0.00000000
0.72549020 0.65882353 0.00000000
0.73725490 0.65882353 0.00000000
0.75294118 0.66274510 0.00000000
0.77254902 0.66274510 0.00000000
0.80000000 0.67058824 0.00000000
0.82352941 0.67450980 0.00000000
0.85490196 0.67843137 0.05490196
0.88235294 0.68627451 0.12941176
0.90588235 0.69803922 0.20000000
0.92941176 0.70980392 0.24313725
0.95294118 0.72156863 0.25490196
0.74117647 0.71764706 0.00000000
0.74117647 0.71372549 0.00000000
0.74901961 0.71764706 0.00000000
0.75686275 0.71764706 0.00000000
0.76862745 0.71764706 0.00000000
0.78823529 0.72156863 0.00000000
0.81568627 0.72549020 0.00000000
0.83921569 0.72941176 0.00000000
0.86274510 0.73333333 0.02745098
0.89019608 0.73725490 0.12941176
0.91764706 0.74901961 0.20784314
0.93333333 0.75294118 0.27450980
0.95294118 0.76862745 0.34509804
0.77254902 0.77254902 0.00000000
0.77254902 0.77254902 0.00000000
0.77647059 0.77254902 0.00000000
0.78431373 0.77254902 0.00000000
0.80000000 0.77647059 0.00000000
0.81568627 0.78039216 0.00000000
0.83137255 0.77647059 0.00000000
0.85882353 0.78431373 0.00000000
0.88235294 0.78823529 0.07450980
0.90588235 0.79215686 0.17254902
0.92549020 0.79607843 0.24705882
0.94509804 0.80000000 0.31372549
0.95686275 0.80392157 0.37647059
0.81960784 0.83137255 0.10588235
0.81960784 0.83137255 0.09803922
0.81960784 0.82745098 0.09019608
0.82745098 0.83137255 0.07843137
0.83921569 0.83137255 0.05882353
0.85098039 0.83529412 0.02352941
0.86666667 0.83529412 0.00000000
0.88627451 0.83921569 0.09019608
0.90588235 0.83529412 0.18431373
0.92549020 0.83921569 0.26274510
0.94509804 0.84313725 0.33333333
0.95686275 0.84313725 0.40000000
0.97254902 0.85098039 0.47450980
0.62352941 0.34901961 0.14901961
0.61960784 0.34901961 0.14901961
0.62352941 0.34901961 0.15294118
0.63137255 0.34901961 0.15294118
0.64313725 0.34901961 0.15686275
0.66666667 0.34901961 0.16470588
0.69803922 0.35294118 0.16862745
0.72941176 0.35294118 0.16862745
0.76470588 0.35686275 0.16862745
0.81176471 0.36470588 0.17254902
0.85882353 0.36078431 0.17254902
0.90196078 0.37254902 0.17647059
0.94509804 0.39215686 0.18431373
0.62352941 0.34901961 0.14901961
0.62745098 0.35294118 0.15294118
0.62745098 0.35294118 0.15294118
0.63529412 0.35686275 0.15686275
0.64705882 0.35686275 0.15686275
0.67058824 0.35294118 0.16470588
0.69803922 0.35686275 0.16470588
0.73333333 0.36078431 0.16862745
0.77254902 0.36470588 0.17254902
0.81568627 0.36470588 0.16862745
0.85882353 0.36470588 0.16862745
0.90588235 0.38039216 0.17647059
0.94509804 0.39607843 0.18431373
0.62745098 0.36078431 0.15294118
0.63137255 0.36078431 0.15294118
0.63529412 0.36470588 0.15294118
0.63921569 0.36470588 0.15294118
0.65490196 0.36470588 0.16078431
0.67450980 0.36470588 0.16078431
0.70588235 0.36862745 0.16078431
0.73725490 0.37254902 0.16078431
0.77647059 0.36862745 0.16078431
0.81960784 0.37647059 0.16470588
0.86274510 0.38431373 0.16862745
0.90588235 0.39215686 0.17254902
0.94901961 0.41176471 0.18039216
0.62745098 0.37254902 0.14901961
0.63137255 0.37647059 0.14901961
0.63529412 0.37647059 0.14901961
0.64705882 0.37647059 0.15294118
0.66666667 0.38039216 0.15294118
0.68627451 0.38431373 0.15294118
0.71764706 0.38823529 0.15686275
0.74901961 0.38823529 0.15686275
0.78039216 0.39215686 0.15686275
0.82352941 0.39607843 0.16078431
0.86666667 0.40392157 0.16470588
0.90588235 0.41568627 0.16862745
0.94509804 0.43529412 0.17647059
0.63529412 0.40000000 0.14901961
0.63921569 0.40392157 0.14901961
0.64313725 0.40392157 0.14509804
0.65490196 0.40784314 0.14509804
0.67843137 0.41176471 0.15294118
0.69803922 0.41176471 0.14901961
0.72549020 0.41568627 0.14901961
0.75294118 0.41960784 0.14901961
0.78823529 0.41960784 0.14901961
0.82745098 0.42745098 0.15294118
0.86666667 0.43529412 0.15294118
0.90980392 0.44705882 0.16078431
0.94901961 0.46666667 0.17254902
0.64313725 0.44313725 0.13725490
0.64705882 0.44313725 0.13725490
0.65882353 0.44705882 0.13725490
0.67058824 0.45098039 0.13333333
0.69019608 0.45490196 0.13333333
0.71764706 0.45882353 0.14509804
0.74117647 0.45882353 0.14901961
0.76862745 0.46274510 0.14509804
0.79607843 0.46274510 0.13725490
0.83529412 0.47058824 0.14117647
0.87058824 0.47843137 0.14509804
0.90980392 0.49019608 0.15294118
0.94901961 0.50588235 0.16470588
0.66274510 0.49411765 0.12941176
0.66274510 0.49019608 0.12549020
0.67058824 0.49411765 0.12156863
0.68235294 0.49411765 0.11372549
0.70588235 0.50196078 0.10980392
0.72941176 0.50588235 0.11764706
0.75686275 0.50980392 0.13333333
0.78823529 0.51764706 0.15294118
0.81176471 0.51764706 0.14509804
0.84705882 0.52549020 0.13725490
0.87450980 0.52549020 0.12941176
0.90980392 0.53333333 0.13725490
0.94509804 0.55294118 0.15294118
0.67843137 0.54901961 0.10588235
0.68235294 0.54901961 0.10196078
0.68627451 0.54901961 0.09803922
0.69803922 0.54901961 0.09019608
0.71764706 0.55294118 0.07843137
0.74509804 0.55686275 0.08627451
0.77254902 0.56078431 0.10588235
0.80000000 0.56862745 0.12941176
0.83137255 0.57647059 0.16470588
0.85882353 0.58039216 0.15686275
0.89019608 0.58431373 0.14901961
0.91764706 0.59215686 0.14509804
0.94901961 0.60784314 0.14901961
0.69803922 0.60392157 0.07058824
0.69803922 0.60392157 0.06666667
0.70588235 0.60392157 0.05882353
0.71764706 0.60392157 0.05098039
0.73333333 0.60784314 0.03137255
0.75686275 0.61176471 0.02352941
0.78431373 0.61568627 0.05882353
0.81568627 0.62352941 0.09411765
0.84313725 0.62745098 0.13333333
0.87450980 0.63921569 0.18823529
0.90196078 0.65098039 0.20000000
0.92549020 0.65490196 0.19607843
0.94901961 0.66666667 0.20000000
0.71764706 0.65882353 0.01960784
0.72156863 0.65882353 0.01568627
0.72549020 0.65882353 0.00392157
0.73725490 0.66274510 0.00000000
0.74901961 0.66274510 0.00000000
0.76862745 0.66274510 0.00000000
0.79607843 0.66666667 0.00000000
0.82352941 0.67450980 0.04313725
0.85490196 0.68235294 0.10980392
0.88235294 0.69019608 0.16862745
0.90588235 0.69803922 0.23137255
0.92941176 0.70980392 0.26274510
0.95294118 0.72549020 0.27450980
0.74509804 0.71764706 0.00000000
0.74117647 0.71764706 0.00000000
0.74901961 0.71764706 0.00000000
0.75686275 0.71764706 0.00000000
0.77254902 0.71764706 0.00000000
0.78823529 0.72156863 0.00000000
0.81176471 0.72549020 0.00000000
0.83529412 0.72941176 0.00000000
0.86274510 0.73333333 0.09411765
0.89019608 0.74117647 0.16862745
0.91764706 0.74901961 0.23529412
0.92941176 0.75294118 0.29803922
0.95294118 0.77254902 0.36078431
0.77254902 0.77254902 0.01568627
0.77647059 0.77647059 0.01176471
0.78039216 0.77647059 0.00000000
0.78823529 0.77647059 0.00000000
0.80000000 0.77647059 0.00000000
0.81176471 0.77647059 0.00000000
0.83137255 0.78039216 0.00000000
0.85490196 0.78039216 0.00000000
0.88235294 0.78823529 0.12156863
0.90588235 0.79215686 0.20000000
0.92549020 0.79607843 0.26666667
0.94509804 0.80000000 0.32941176
0.95686275 0.80392157 0.39215686
0.81960784 0.83137255 0.15686275
0.81960784 0.83137255 0.15686275
0.82352941 0.83137255 0.14901961
0.82745098 0.82745098 0.14117647
0.83921569 0.83137255 0.12941176
0.85098039 0.83137255 0.11372549
0.86666667 0.83529412 0.09019608
0.88627451 0.83921569 0.12549020
0.90196078 0.83529412 0.20392157
0.92156863 0.83921569 0.27843137
0.94117647 0.83921569 0.34509804
0.95686275 0.84705882 0.41568627
0.97254902 0.85098039 0.48235294
0.62745098 0.34901961 0.17254902
0.63137255 0.34901961 0.17254902
0.63137255 0.34901961 0.17254902
0.63921569 0.34901961 0.17647059
0.65098039 0.35294118 0.18039216
0.66666667 0.35294118 0.18039216
0.70196078 0.35294118 0.19607843
0.72941176 0.35294118 0.20000000
0.77254902 0.36078431 0.20784314
0.81176471 0.36470588 0.20784314
0.85882353 0.37254902 0.21176471
0.90196078 0.38823529 0.21568627
0.94509804 0.40784314 0.22352941
0.63529412 0.35294118 0.17254902
0.63529412 0.35294118 0.17254902
0.63921569 0.35686275 0.17647059
0.64705882 0.35686275 0.18039216
0.65490196 0.35686275 0.18039216
0.67450980 0.36078431 0.18039216
0.70588235 0.35686275 0.19607843
0.73725490 0.36078431 0.20392157
0.77254902 0.36470588 0.20392157
0.81568627 0.37254902 0.20784314
0.86274510 0.38431373 0.21176471
0.90588235 0.39607843 0.21568627
0.94509804 0.40784314 0.21960784
0.64313725 0.36470588 0.17647059
0.64313725 0.36862745 0.17647059
0.64705882 0.36862745 0.18039216
0.65098039 0.36862745 0.18039216
0.66274510 0.37254902 0.18039216
0.68235294 0.36862745 0.18431373
0.70980392 0.36862745 0.19607843
0.74117647 0.37254902 0.19607843
0.78039216 0.38039216 0.20392157
0.82352941 0.38431373 0.20392157
0.86274510 0.39607843 0.20392157
0.90588235 0.40000000 0.20784314
0.94901961 0.41568627 0.21176471
0.63921569 0.37647059 0.17647059
0.64313725 0.37647059 0.17647059
0.65490196 0.38039216 0.17647059
0.66274510 0.38823529 0.18039216
0.67058824 0.38823529 0.18039216
