core/profiles/src/main/assets/luts/polaroid_px-680_cold.cube
# Source: RawTherapee Film Simulation Collection (HaldCLUT.zip)
# Converted from: HaldCLUT/Color/Polaroid/Polaroid PX-680 Cold 3.png
TITLE "polaroid_px-680_cold"
LUT_3D_SIZE 13
DOMAIN_MIN 0.0 0.0 0.0
DOMAIN_MAX 1.0 1.0 1.0
0.16862745 0.21176471 0.24705882
0.16862745 0.21176471 0.24705882
0.16862745 0.21176471 0.24705882
0.16862745 0.21176471 0.25098039
0.17254902 0.21176471 0.24705882
0.22745098 0.21176471 0.25098039
0.36078431 0.20392157 0.24705882
0.53725490 0.19607843 0.23921569
0.71372549 0.21568627 0.23137255
0.81960784 0.27058824 0.22352941
0.89411765 0.33725490 0.22745098
0.93725490 0.40000000 0.23921569
0.97254902 0.47450980 0.28235294
0.16862745 0.21176471 0.25098039
0.16862745 0.21176471 0.25098039
0.17254902 0.21568627 0.25098039
0.16862745 0.21568627 0.25098039
0.17647059 0.21176471 0.24705882
0.23137255 0.20784314 0.24705882
0.37254902 0.20784314 0.24705882
0.55294118 0.21176471 0.23921569
0.71764706 0.23921569 0.22745098
0.81960784 0.29019608 0.21960784
0.89019608 0.34901961 0.21960784
0.93725490 0.41176471 0.23921569
0.97254902 0.48235294 0.28235294
0.17254902 0.21568627 0.25098039
0.16862745 0.21176471 0.24705882
0.17254902 0.21568627 0.25098039
0.17254902 0.21568627 0.25098039
0.18431373 0.21568627 0.25098039
0.25490196 0.21568627 0.24705882
0.40392157 0.22745098 0.24313725
0.57254902 0.24313725 0.23529412
0.71764706 0.27843137 0.21960784
0.81568627 0.32549020 0.21176471
0.88235294 0.37647059 0.21176471
0.93333333 0.43137255 0.23137255
0.96470588 0.49803922 0.28235294
0.16470588 0.21176471 0.24705882
0.16862745 0.21568627 0.25098039
0.16862745 0.21568627 0.24705882
0.17254902 0.21568627 0.24705882
0.20392157 0.22745098 0.24705882
0.29411765 0.24313725 0.24313725
0.43921569 0.26666667 0.23529412
0.58823529 0.29411765 0.22352941
0.72156863 0.33333333 0.21176471
0.81176471 0.37254902 0.20000000
0.87843137 0.41568627 0.20392157
0.92549020 0.46274510 0.23137255
0.95686275 0.51764706 0.28627451
0.14901961 0.23921569 0.24705882
0.14901961 0.23921569 0.24705882
0.15686275 0.24313725 0.24705882
0.17647059 0.25490196 0.24705882
0.21960784 0.27058824 0.24313725
0.33333333 0.31372549 0.23529412
0.47058824 0.34509804 0.21960784
0.59607843 0.36862745 0.20784314
0.71372549 0.39215686 0.20000000
0.80392157 0.42745098 0.19215686
0.87058824 0.46274510 0.20000000
0.90980392 0.49803922 0.22745098
0.94901961 0.54901961 0.28627451
0.05882353 0.31372549 0.23921569
0.07058824 0.31764706 0.23921569
0.09019608 0.31764706 0.23529412
0.13725490 0.33725490 0.23529412
0.21568627 0.35686275 0.23137255
0.32941176 0.39215686 0.22352941
0.49803922 0.44705882 0.20392157
0.60784314 0.47058824 0.18823529
0.70980392 0.47843137 0.18039216
0.79215686 0.48235294 0.18039216
0.85490196 0.50588235 0.19607843
0.90196078 0.54117647 0.23137255
0.93725490 0.58039216 0.28627451
0.00000000 0.41176471 0.22745098
0.00000000 0.41568627 0.22745098
0.00000000 0.42352941 0.22745098
0.00000000 0.43529412 0.22745098
0.15686275 0.45882353 0.22352941
0.30196078 0.48627451 0.21568627
0.45098039 0.51372549 0.20000000
0.59607843 0.55686275 0.18431373
0.70196078 0.57647059 0.18039216
0.78039216 0.58039216 0.18823529
0.83921569 0.58039216 0.20392157
0.88627451 0.57647059 0.22352941
0.92941176 0.61960784 0.28627451
0.00000000 0.53333333 0.21960784
0.00000000 0.53725490 0.21960784
0.00000000 0.53333333 0.21960784
0.00000000 0.54117647 0.22352941
0.05098039 0.55294118 0.22352941
0.27843137 0.57647059 0.22352941
0.43137255 0.59607843 0.21568627
0.55686275 0.61568627 0.21568627
0.69019608 0.65098039 0.22352941
0.77254902 0.66274510 0.23529412
0.82745098 0.66274510 0.25882353
0.88235294 0.67058824 0.29019608
0.92156863 0.68235294 0.32941176
0.00000000 0.62352941 0.23137255
0.00000000 0.62352941 0.23529412
0.00000000 0.62352941 0.23921569
0.00000000 0.62352941 0.23921569
0.00000000 0.62745098 0.24705882
0.26274510 0.64313725 0.25098039
0.41176471 0.65882353 0.25490196
0.52941176 0.67450980 0.26666667
0.64313725 0.69411765 0.28235294
0.74117647 0.71372549 0.30196078
0.81568627 0.73333333 0.33333333
0.86274510 0.74117647 0.36078431
0.90196078 0.74901961 0.39607843
0.00000000 0.69411765 0.27058824
0.00000000 0.69411765 0.27450980
0.00000000 0.69019608 0.27450980
0.00000000 0.69019608 0.27843137
0.11764706 0.69411765 0.29019608
0.29019608 0.70196078 0.30196078
0.41960784 0.71372549 0.31372549
0.52156863 0.72549020 0.32941176
0.61960784 0.73725490 0.34509804
0.70588235 0.75294118 0.36862745
0.78431373 0.76862745 0.39607843
0.84705882 0.79215686 0.43137255
0.89019608 0.80784314 0.46274510
0.00000000 0.75294118 0.33725490
0.00000000 0.75294118 0.33725490
0.08627451 0.74901961 0.33333333
0.18823529 0.74901961 0.34509804
0.28235294 0.75294118 0.35294118
0.36862745 0.75686275 0.36862745
0.46274510 0.76078431 0.38431373
0.54901961 0.77254902 0.40000000
0.62745098 0.78431373 0.41960784
0.70196078 0.79607843 0.43921569
0.76862745 0.81176471 0.46274510
0.82745098 0.82352941 0.48627451
0.88627451 0.85490196 0.52549020
0.35294118 0.80784314 0.42352941
0.35686275 0.80784314 0.42352941
0.37254902 0.80784314 0.42352941
0.40000000 0.80784314 0.43137255
0.43921569 0.80784314 0.43529412
0.49411765 0.81176471 0.45098039
0.55294118 0.81960784 0.46666667
0.61176471 0.82745098 0.47843137
0.67450980 0.83529412 0.49803922
0.72941176 0.84705882 0.51764706
0.78039216 0.85882353 0.53333333
0.82745098 0.86666667 0.54901961
0.86666667 0.87450980 0.56470588
0.55686275 0.87843137 0.52941176
0.55686275 0.87450980 0.52549020
0.56078431 0.87058824 0.52549020
0.57647059 0.87450980 0.52941176
0.60000000 0.87843137 0.53725490
0.62745098 0.87843137 0.54901961
0.65882353 0.88235294 0.56078431
0.69411765 0.88627451 0.56862745
0.73725490 0.89411765 0.58431373
0.77647059 0.90196078 0.59607843
0.81176471 0.90588235 0.61176471
0.84705882 0.91372549 0.63529412
0.88235294 0.92549020 0.66274510
0.16862745 0.21176471 0.25098039
0.17254902 0.21568627 0.25098039
0.16862745 0.21176471 0.25098039
0.16862745 0.21176471 0.24705882
0.17647059 0.21176471 0.25098039
0.22745098 0.21176471 0.24705882
0.36470588 0.20784314 0.24705882
0.54901961 0.20784314 0.23921569
0.71372549 0.23137255 0.23137255
0.82352941 0.28235294 0.22352941
0.89019608 0.34509804 0.22745098
0.93725490 0.40784314 0.25490196
0.97254902 0.48627451 0.30980392
0.17254902 0.21568627 0.25098039
0.16862745 0.21176471 0.25098039
0.16862745 0.21176471 0.24705882
0.16862745 0.21176471 0.25098039
0.17647059 0.21176471 0.25098039
0.23529412 0.21176471 0.24705882
0.38039216 0.21176471 0.24313725
0.56078431 0.21960784 0.23529412
0.72156863 0.25490196 0.22745098
0.82352941 0.30196078 0.21960784
0.89019608 0.35686275 0.22352941
0.93725490 0.42352941 0.25490196
0.96862745 0.49803922 0.31372549
0.16862745 0.21176471 0.24705882
0.16862745 0.21176471 0.25098039
0.16862745 0.21176471 0.25098039
0.17254902 0.21176471 0.25098039
0.18823529 0.21568627 0.25098039
0.25882353 0.21960784 0.24705882
0.41568627 0.23137255 0.23921569
0.58039216 0.25490196 0.23137255
0.72549020 0.29019608 0.21960784
0.82352941 0.33333333 0.21568627
0.89019608 0.38823529 0.22745098
0.93333333 0.44313725 0.25490196
0.96470588 0.50980392 0.31372549
0.16862745 0.21568627 0.25098039
0.16862745 0.21568627 0.25098039
0.16862745 0.21568627 0.25098039
0.17254902 0.21568627 0.24705882
0.20784314 0.22745098 0.24705882
0.30196078 0.24705882 0.24313725
0.45490196 0.27450980 0.23529412
0.60000000 0.30196078 0.22352941
0.72941176 0.33725490 0.21176471
0.82352941 0.38039216 0.21176471
0.88235294 0.42352941 0.22352941
0.92941176 0.47450980 0.25882353
0.96078431 0.53725490 0.31764706
0.14509804 0.24313725 0.24705882
0.14901961 0.24313725 0.24705882
0.15294118 0.24705882 0.24705882
0.17647059 0.25882353 0.24705882
0.22745098 0.27843137 0.24313725
0.34901961 0.31764706 0.23137255
0.49411765 0.35294118 0.22352941
0.61960784 0.36862745 0.21176471
0.72549020 0.39607843 0.20000000
0.81568627 0.43529412 0.20392157
0.87450980 0.47058824 0.22352941
0.91764706 0.51372549 0.25882353
0.95294118 0.56470588 0.32156863
0.01176471 0.32549020 0.23921569
0.03529412 0.32941176 0.23921569
0.07058824 0.33333333 0.23921569
0.12941176 0.34901961 0.23921569
0.21960784 0.37254902 0.23137255
0.34509804 0.40784314 0.22352941
0.51372549 0.45882353 0.20392157
0.62745098 0.48235294 0.19607843
0.72156863 0.48627451 0.19215686
0.80000000 0.49019608 0.19215686
0.86274510 0.51764706 0.21568627
0.90588235 0.54901961 0.25490196
0.94117647 0.59607843 0.31764706
0.00000000 0.43137255 0.23137255
0.00000000 0.43529412 0.22745098
0.00000000 0.43921569 0.22745098
0.00000000 0.45098039 0.23137255
0.16078431 0.47450980 0.22745098
0.31764706 0.50196078 0.21960784
0.47058824 0.53333333 0.21568627
0.61568627 0.57254902 0.20000000
0.71372549 0.58431373 0.20000000
0.78431373 0.58431373 0.20784314
0.84705882 0.58823529 0.22745098
0.89411765 0.59215686 0.25490196
0.92941176 0.62745098 0.31372549
0.00000000 0.55294118 0.22745098
0.00000000 0.55686275 0.23137255
0.00000000 0.55686275 0.23137255
0.00000000 0.56078431 0.23529412
0.08627451 0.56862745 0.23529412
0.30196078 0.59215686 0.23921569
0.45098039 0.61176471 0.23921569
0.57647059 0.63137255 0.24313725
0.70196078 0.66274510 0.24705882
0.78431373 0.67450980 0.26666667
0.83529412 0.67058824 0.28627451
0.88627451 0.67843137 0.31764706
0.92549020 0.69019608 0.35294118
0.00000000 0.63529412 0.24705882
0.00000000 0.63921569 0.25098039
0.00000000 0.63529412 0.25490196
0.00000000 0.63921569 0.25882353
0.05490196 0.64313725 0.26666667
0.29019608 0.65882353 0.27450980
0.43137255 0.67058824 0.27843137
0.54509804 0.68627451 0.29019608
0.65490196 0.70196078 0.30980392
0.75294118 0.72549020 0.33333333
0.81960784 0.74117647 0.36078431
0.86274510 0.74509804 0.38431373
0.90588235 0.75686275 0.41568627
0.00000000 0.70588235 0.29019608
0.00000000 0.70588235 0.29411765
0.00000000 0.70196078 0.29411765
0.00000000 0.70196078 0.30196078
0.18039216 0.70196078 0.30980392
0.32156863 0.71372549 0.32549020
0.44313725 0.72156863 0.33725490
0.53725490 0.73333333 0.35294118
0.63137255 0.74509804 0.36862745
0.71764706 0.76078431 0.39215686
0.78823529 0.77647059 0.41960784
0.85098039 0.80000000 0.44705882
0.89411765 0.81176471 0.47843137
0.10588235 0.75686275 0.35294118
0.13333333 0.76078431 0.35686275
0.17647059 0.75686275 0.35686275
0.23921569 0.75294118 0.36078431
0.31764706 0.75686275 0.37254902
0.39607843 0.76078431 0.38823529
0.48627451 0.76862745 0.40392157
0.56470588 0.78039216 0.41960784
0.64313725 0.79215686 0.43921569
0.71372549 0.80392157 0.45882353
0.77254902 0.81568627 0.47450980
0.83137255 0.82745098 0.49803922
0.88627451 0.85882353 0.53725490
0.38039216 0.81568627 0.43529412
0.38431373 0.81176471 0.43529412
0.39607843 0.81176471 0.43529412
0.42352941 0.81176471 0.44313725
0.46274510 0.81568627 0.45098039
0.50980392 0.81568627 0.46666667
0.56470588 0.82352941 0.47843137
0.61960784 0.82745098 0.49019608
0.68235294 0.83921569 0.50980392
0.73725490 0.85098039 0.52549020
0.78431373 0.85882353 0.54117647
0.83137255 0.87058824 0.56078431
0.87058824 0.87843137 0.57647059
0.56470588 0.87843137 0.53333333
0.56470588 0.87843137 0.53333333
0.57254902 0.87843137 0.53725490
0.58823529 0.87843137 0.54117647
0.61176471 0.88235294 0.54509804
0.63529412 0.88235294 0.55686275
0.66666667 0.88235294 0.56470588
0.70196078 0.89019608 0.57647059
0.74117647 0.89803922 0.58823529
0.78039216 0.90196078 0.60392157
0.81568627 0.90980392 0.61960784
0.85098039 0.91764706 0.63921569
0.88235294 0.92549020 0.66666667
0.16862745 0.21176471 0.24705882
0.16862745 0.21176471 0.24705882
0.16862745 0.21176471 0.25098039
0.17254902 0.21568627 0.25098039
0.18039216 0.21176471 0.25098039
0.23137255 0.20784314 0.25098039
0.38039216 0.20000000 0.24705882
0.57254902 0.20000000 0.24705882
0.72941176 0.22745098 0.24705882
0.82745098 0.28627451 0.25098039
0.89411765 0.36078431 0.27058824
0.93725490 0.43529412 0.30588235
0.96470588 0.50980392 0.36078431
0.16862745 0.21176471 0.25098039
0.16862745 0.21176471 0.25098039
0.17254902 0.21568627 0.25098039
0.17254902 0.21568627 0.25098039
0.18039216 0.21176471 0.25098039
0.25098039 0.20784314 0.25098039
0.41176471 0.21176471 0.25098039
0.58823529 0.21568627 0.24313725
0.73333333 0.24705882 0.24313725
0.83137255 0.30588235 0.25098039
0.89411765 0.37647059 0.27058824
0.93333333 0.44313725 0.30980392
0.96470588 0.52156863 0.36470588
0.16862745 0.21176471 0.25098039
0.16862745 0.21176471 0.24705882
0.16862745 0.21176471 0.25098039
0.17254902 0.21568627 0.25098039
0.19607843 0.21568627 0.25098039
0.27843137 0.21568627 0.24705882
0.43921569 0.22745098 0.24313725
0.60392157 0.24705882 0.24313725
0.74117647 0.28627451 0.23921569
0.83137255 0.34117647 0.24705882
0.89019608 0.40000000 0.27058824
0.92941176 0.46274510 0.30980392
0.95686275 0.53333333 0.36470588
0.16862745 0.21568627 0.25098039
0.16470588 0.21568627 0.25098039
0.16470588 0.21568627 0.24705882
0.17647059 0.21960784 0.24705882
0.21960784 0.23137255 0.24705882
0.32549020 0.24313725 0.24313725
0.47843137 0.27058824 0.24313725
0.62352941 0.29803922 0.23529412
0.74117647 0.33725490 0.23529412
0.82745098 0.38431373 0.24313725
0.88235294 0.43529412 0.27058824
0.92156863 0.49019608 0.30980392
0.95294118 0.55686275 0.36470588
0.14117647 0.25098039 0.25098039
0.14117647 0.25490196 0.25098039
0.14509804 0.25490196 0.24705882
0.17254902 0.26666667 0.24705882
0.23529412 0.28235294 0.24313725
0.36862745 0.32549020 0.23921569
0.50980392 0.34901961 0.23529412
0.63137255 0.36470588 0.22745098
0.74117647 0.40000000 0.22745098
0.81960784 0.43921569 0.23921569
0.87450980 0.48235294 0.26666667
0.91764706 0.52549020 0.30980392
0.94509804 0.58039216 0.36470588
0.00000000 0.33725490 0.24705882
0.00000000 0.34117647 0.24313725
0.04313725 0.34509804 0.24313725
0.11764706 0.35686275 0.24705882
0.21960784 0.38039216 0.24313725
0.35686275 0.41568627 0.23921569
0.52549020 0.46274510 0.22352941
0.63529412 0.47843137 0.21960784
0.72941176 0.48235294 0.21960784
0.80784314 0.49411765 0.23137255
0.86274510 0.52549020 0.25882353
0.90588235 0.56470588 0.30588235
0.94117647 0.61176471 0.36078431
0.00000000 0.44705882 0.24313725
0.00000000 0.45098039 0.24313725
0.00000000 0.45490196 0.24313725
0.00000000 0.46274510 0.24705882
0.16862745 0.48627451 0.24705882
0.32941176 0.51372549 0.24313725
0.48627451 0.54117647 0.24313725
0.62745098 0.58039216 0.23529412
0.71764706 0.58823529 0.23921569
0.78823529 0.58823529 0.24705882
0.84705882 0.58823529 0.26666667
0.89411765 0.60000000 0.29803922
0.92549020 0.63921569 0.35294118
0.00000000 0.56078431 0.25098039
0.00000000 0.56862745 0.25098039
0.00000000 0.56470588 0.25490196
0.00000000 0.56862745 0.25882353
0.12156863 0.57647059 0.26274510
0.31764706 0.59607843 0.26666667
0.46274510 0.61568627 0.27058824
0.58431373 0.63529412 0.27843137
0.70980392 0.66666667 0.28627451
0.78039216 0.67450980 0.30196078
0.83529412 0.67450980 0.32549020
0.88235294 0.67843137 0.34901961
0.92156863 0.69019608 0.37647059
0.00000000 0.63921569 0.27058824
0.00000000 0.64313725 0.27450980
0.00000000 0.63921569 0.27450980
0.00000000 0.64313725 0.28235294
0.13725490 0.64705882 0.29411765
0.30980392 0.65882353 0.29803922
0.44313725 0.67450980 0.30980392
0.55294118 0.68627451 0.32156863
0.65882353 0.70588235 0.34117647
0.75686275 0.72941176 0.36470588
0.81960784 0.74117647 0.38823529
0.86274510 0.74901961 0.40784314
0.90588235 0.75686275 0.43529412
0.00000000 0.70588235 0.31372549
0.00000000 0.70588235 0.31372549
0.00000000 0.70196078 0.31764706
0.07058824 0.70588235 0.32156863
0.22745098 0.70980392 0.33333333
0.34117647 0.71372549 0.34901961
0.45490196 0.72549020 0.36078431
0.54509804 0.73333333 0.37254902
0.63921569 0.74901961 0.39215686
0.72156863 0.76078431 0.41568627
0.79215686 0.78039216 0.43921569
0.85098039 0.80000000 0.46666667
0.89019608 0.81176471 0.49019608
0.16862745 0.76078431 0.37254902
0.18431373 0.75686275 0.36862745
0.21568627 0.75686275 0.37254902
0.27450980 0.75686275 0.37647059
0.34117647 0.76078431 0.38823529
0.41568627 0.76470588 0.40392157
0.49803922 0.77254902 0.41960784
0.57254902 0.78039216 0.43529412
0.64313725 0.78823529 0.45098039
0.71372549 0.80000000 0.46666667
0.77647059 0.81568627 0.49019608
0.83137255 0.82745098 0.50980392
0.88627451 0.85490196 0.54509804
0.39215686 0.81176471 0.44313725
0.39607843 0.81176471 0.44313725
0.40784314 0.81176471 0.44705882
0.43529412 0.81176471 0.45098039
0.47450980 0.81568627 0.45882353
0.52156863 0.81960784 0.47450980
0.56862745 0.81960784 0.48627451
0.62352941 0.83137255 0.50196078
0.68627451 0.84313725 0.51764706
0.73725490 0.85098039 0.53333333
0.78823529 0.85882353 0.54901961
0.83137255 0.87058824 0.56470588
0.87058824 0.87843137 0.58039216
0.56862745 0.87843137 0.53725490
0.56862745 0.87843137 0.53725490
0.57254902 0.87450980 0.53725490
0.58823529 0.87843137 0.54117647
0.61176471 0.88235294 0.54901961
0.63921569 0.88235294 0.56078431
0.67058824 0.88627451 0.57254902
0.70196078 0.89019608 0.58039216
0.74117647 0.89411765 0.59215686
0.78039216 0.90196078 0.60784314
0.81568627 0.90980392 0.62352941
0.84705882 0.91764706 0.64313725
0.88235294 0.92941176 0.67058824
0.16862745 0.21176471 0.25098039
0.16862745 0.21176471 0.25098039
0.16862745 0.21176471 0.25098039
0.16862745 0.21176471 0.25098039
0.17647059 0.21176471 0.25098039
0.23137255 0.20784314 0.25882353
0.39215686 0.18039216 0.26666667
0.58823529 0.10980392 0.25882353
0.74509804 0.17254902 0.27450980
0.83529412 0.31764706 0.32156863
0.89019608 0.40392157 0.34901961
0.92549020 0.48235294 0.38823529
0.95294118 0.55294118 0.43137255
0.16862745 0.21176471 0.24705882
0.16862745 0.21568627 0.25098039
0.16862745 0.21176471 0.24705882
0.17254902 0.21568627 0.25098039
0.18039216 0.21176471 0.25490196
0.25098039 0.20392157 0.25882353
0.42352941 0.17254902 0.26274510
0.61176471 0.15294118 0.26666667
0.75294118 0.23921569 0.29019608
0.83529412 0.34117647 0.32156863
0.88627451 0.41960784 0.35294118
0.92549020 0.49019608 0.39215686
0.94901961 0.55686275 0.43137255
0.16862745 0.21568627 0.25098039
0.16862745 0.21176471 0.25098039
0.17254902 0.21568627 0.25098039
0.17254902 0.21176471 0.25098039
0.20000000 0.21176471 0.25490196
0.30196078 0.20392157 0.25882353
0.47450980 0.20000000 0.26666667
0.63529412 0.24313725 0.28235294
0.75294118 0.30196078 0.29803922
0.83529412 0.37254902 0.32156863
0.88627451 0.44313725 0.35294118
0.92156863 0.50588235 0.38823529
0.94901961 0.57254902 0.43137255
0.16470588 0.21568627 0.25098039
0.16470588 0.21960784 0.25490196
0.16470588 0.21960784 0.25490196
0.18431373 0.22352941 0.25490196
0.24313725 0.23137255 0.26274510
0.36078431 0.24705882 0.26666667
0.51764706 0.27450980 0.27450980
0.65098039 0.30980392 0.28235294
0.75294118 0.35294118 0.29411765
0.82745098 0.41176471 0.31764706
0.87843137 0.47058824 0.34901961
0.91372549 0.52549020 0.38431373
0.94509804 0.58823529 0.43137255
0.13725490 0.25490196 0.26274510
0.14117647 0.25882353 0.26274510
0.15294118 0.26666667 0.26274510
0.17647059 0.27843137 0.26274510
0.25882353 0.30196078 0.26666667
0.39607843 0.32549020 0.26274510
0.53725490 0.34117647 0.26666667
0.65490196 0.37647059 0.27058824
0.74901961 0.41568627 0.28627451
0.81960784 0.45882353 0.30980392
0.87058824 0.50588235 0.34117647
0.90980392 0.55294118 0.38039216
0.93725490 0.60784314 0.42745098
0.03137255 0.35294118 0.27450980
0.05882353 0.35686275 0.27450980
0.08627451 0.36862745 0.27450980
0.13333333 0.38039216 0.27058824
0.23921569 0.40000000 0.27450980
0.38431373 0.43137255 0.27843137
0.54509804 0.47058824 0.27058824
0.65098039 0.47843137 0.27058824
0.74117647 0.47843137 0.27450980
0.81176471 0.50980392 0.29803922
0.86274510 0.54509804 0.33333333
0.90196078 0.58431373 0.37254902
0.92941176 0.63137255 0.41960784
0.00000000 0.46666667 0.28627451
0.00000000 0.46666667 0.28235294
0.00000000 0.47058824 0.27450980
0.00784314 0.48235294 0.27843137
0.20000000 0.49803922 0.28627451
0.35294118 0.52156863 0.29019608
0.50196078 0.54901961 0.29019608
0.64313725 0.58823529 0.29411765
0.72156863 0.58823529 0.29803922
0.79607843 0.58823529 0.30980392
0.84705882 0.58431373 0.32156863
0.88627451 0.61568627 0.36078431
0.92156863 0.65490196 0.41176471
0.00000000 0.57254902 0.29803922
0.00000000 0.58039216 0.29803922
0.00000000 0.57647059 0.29019608
0.00000000 0.58039216 0.29803922
0.19607843 0.58823529 0.30588235
0.34509804 0.60392157 0.31372549
0.48235294 0.61960784 0.32156863
0.59607843 0.63921569 0.32941176
0.71764706 0.67450980 0.34509804
0.78039216 0.67450980 0.35686275
0.83529412 0.67450980 0.37647059
0.88235294 0.68235294 0.39215686
0.92156863 0.69803922 0.42352941
0.00000000 0.65098039 0.31372549
0.00000000 0.64705882 0.31372549
0.00000000 0.64705882 0.31372549
0.02745098 0.64705882 0.32156863
0.22352941 0.65490196 0.33333333
0.34509804 0.66274510 0.34509804
0.46666667 0.67843137 0.35686275
0.56862745 0.69411765 0.36862745
0.66666667 0.70588235 0.38431373
0.76078431 0.73333333 0.40784314
0.81960784 0.74509804 0.42745098
0.86666667 0.75294118 0.44313725
0.90196078 0.76078431 0.46274510
0.00000000 0.70980392 0.34509804
0.00000000 0.70980392 0.34901961
0.05882353 0.70588235 0.34901961
0.18823529 0.70980392 0.35686275
0.28627451 0.70980392 0.36470588
0.37647059 0.71372549 0.38039216
0.47450980 0.72549020 0.39215686
0.56078431 0.73725490 0.40784314
0.65098039 0.74901961 0.42745098
0.72549020 0.76470588 0.44705882
0.79607843 0.78039216 0.46666667
0.85098039 0.80000000 0.49019608
0.89411765 0.81568627 0.50980392
0.23529412 0.76470588 0.40000000
0.24705882 0.76078431 0.39607843
0.27058824 0.76078431 0.40000000
0.31764706 0.76078431 0.40392157
0.37647059 0.76078431 0.41176471
0.44313725 0.76470588 0.42745098
0.51372549 0.77254902 0.44313725
0.58431373 0.78039216 0.45490196
0.65098039 0.78823529 0.47058824
0.72156863 0.80392157 0.49019608
0.78039216 0.81960784 0.50980392
0.83137255 0.82745098 0.52549020
0.88627451 0.85882353 0.55686275
0.40784314 0.81176471 0.45882353
0.41568627 0.81568627 0.45882353
0.42745098 0.81568627 0.46274510
0.45098039 0.81568627 0.46666667
0.48627451 0.81568627 0.47450980
0.52941176 0.81568627 0.48627451
0.57647059 0.82352941 0.50196078
0.63137255 0.83137255 0.51372549
0.68627451 0.83921569 0.52941176
0.74117647 0.85098039 0.54509804
0.78823529 0.86274510 0.55686275
0.83137255 0.87058824 0.57254902
0.87058824 0.87843137 0.58823529
0.56862745 0.87843137 0.54509804
0.57254902 0.87843137 0.54509804
0.57647059 0.87843137 0.54509804
0.58823529 0.87843137 0.54509804
0.61176471 0.87843137 0.55294118
0.63921569 0.88235294 0.56470588
0.67058824 0.88627451 0.57647059
0.70588235 0.89411765 0.58823529
0.74117647 0.89411765 0.59607843
0.78039216 0.90196078 0.61176471
0.81568627 0.90980392 0.62745098
0.85098039 0.91764706 0.65098039
0.88235294 0.92549020 0.67843137
0.16470588 0.21176471 0.25882353
0.16470588 0.21568627 0.25882353
0.16470588 0.21176471 0.25882353
0.17647059 0.21176471 0.25882353
0.19215686 0.21176471 0.25882353
0.22745098 0.20784314 0.26666667
0.39215686 0.18039216 0.29803922
0.57647059 0.12549020 0.31764706
0.74509804 0.09411765 0.33333333
0.84705882 0.19215686 0.34117647
0.89411765 0.38431373 0.40000000
0.91372549 0.51764706 0.45882353
0.93725490 0.60392157 0.50196078
0.16470588 0.21176471 0.25882353
0.16470588 0.21176471 0.25882353
0.16862745 0.21176471 0.25882353
0.18039216 0.21176471 0.25882353
0.19607843 0.21176471 0.26274510
0.25098039 0.20784314 0.27450980
0.41960784 0.18039216 0.30588235
0.60000000 0.14117647 0.32549020
0.75294118 0.14509804 0.33725490
0.84705882 0.25882353 0.35686275
0.89019608 0.42745098 0.41568627
0.90980392 0.54117647 0.47058824
0.93333333 0.61176471 0.50196078
0.16078431 0.21568627 0.26666667
0.16078431 0.21568627 0.26666667
0.17254902 0.21568627 0.26666667
0.18823529 0.21568627 0.26666667
0.21960784 0.22352941 0.27450980
0.29803922 0.21568627 0.29411765
0.46666667 0.19607843 0.31764706
0.63529412 0.18431373 0.32941176
0.76862745 0.23137255 0.34509804
0.83921569 0.36862745 0.38823529
0.87450980 0.49411765 0.43921569
0.90196078 0.56470588 0.47450980
0.93333333 0.61568627 0.50196078
0.14509804 0.23137255 0.27450980
0.14509804 0.23137255 0.27450980
0.15294118 0.23137255 0.28235294
0.20000000 0.23529412 0.29019608
0.25882353 0.25490196 0.29803922
