core/profiles/src/main/assets/luts/polaroid_time_zero_expired.cube
# Source: RawTherapee Film Simulation Collection (HaldCLUT.zip)
# Converted from: HaldCLUT/Color/Polaroid/Polaroid Time Zero (Expired) 4.png
TITLE "polaroid_time_zero_expired"
LUT_3D_SIZE 5
DOMAIN_MIN 0.0 0.0 0.0
DOMAIN_MAX 1.0 1.0 1.0
0.61568627 0.34901961 0.13333333
0.62352941 0.34901961 0.13333333
0.68235294 0.34509804 0.12941176
0.79607843 0.35294118 0.12941176
0.94117647 0.38431373 0.13725490
0.61960784 0.37254902 0.12156863
0.63921569 0.37254902 0.12156863
0.70196078 0.38039216 0.11764706
0.80784314 0.39215686 0.11764706
0.94117647 0.43137255 0.12549020
0.65490196 0.48627451 0.06666667
0.68235294 0.49019608 0.05490196
0.74901961 0.49803922 0.07843137
0.83921569 0.52156863 0.08627451
0.94117647 0.54901961 0.08627451
0.71372549 0.65490196 0.00000000
0.73333333 0.65490196 0.00000000
0.79607843 0.66666667 0.00000000
0.87843137 0.68235294 0.07843137
0.94901961 0.71764706 0.23137255
0.81960784 0.83137255 0.00392157
0.82745098 0.82745098 0.00000000
0.86666667 0.83529412 0.00000000
0.92549020 0.83921569 0.24313725
0.97254902 0.84705882 0.45882353
0.62352941 0.34901961 0.14901961
0.63137255 0.34901961 0.15294118
0.69803922 0.35294118 0.16862745
0.81176471 0.36470588 0.17254902
0.94509804 0.39215686 0.18431373
0.62745098 0.37254902 0.14901961
0.64705882 0.37647059 0.15294118
0.71764706 0.38823529 0.15686275
0.82352941 0.39607843 0.16078431
0.94509804 0.43529412 0.17647059
0.66274510 0.49411765 0.12941176
0.68235294 0.49411765 0.11372549
0.75686275 0.50980392 0.13333333
0.84705882 0.52549020 0.13725490
0.94509804 0.55294118 0.15294118
0.71764706 0.65882353 0.01960784
0.73725490 0.66274510 0.00000000
0.79607843 0.66666667 0.00000000
0.88235294 0.69019608 0.16862745
0.95294118 0.72549020 0.27450980
0.81960784 0.83137255 0.15686275
0.82745098 0.82745098 0.14117647
0.86666667 0.83529412 0.09019608
0.92156863 0.83921569 0.27843137
0.97254902 0.85098039 0.48235294
0.67058824 0.35294118 0.26666667
0.68627451 0.36078431 0.27843137
0.73333333 0.37254902 0.28627451
0.82352941 0.36470588 0.30588235
0.94509804 0.41568627 0.33725490
0.69803922 0.40000000 0.27058824
0.71372549 0.41176471 0.28235294
0.74901961 0.41960784 0.28627451
0.83137255 0.40784314 0.30196078
0.94901961 0.46274510 0.32941176
0.69411765 0.49803922 0.25098039
0.71764706 0.50588235 0.25490196
0.77254902 0.51764706 0.26274510
0.85882353 0.52941176 0.27058824
0.95294118 0.55686275 0.29411765
0.72549020 0.66274510 0.23921569
0.74509804 0.66666667 0.24705882
0.80000000 0.67450980 0.23529412
0.88627451 0.69803922 0.31372549
0.95294118 0.72156863 0.34901961
0.81568627 0.82745098 0.33725490
0.82745098 0.82745098 0.32549020
0.85882353 0.83529412 0.30588235
0.91764706 0.84313725 0.35294118
0.96862745 0.85098039 0.53725490
0.77647059 0.40000000 0.50196078
0.78823529 0.41176471 0.50588235
0.81568627 0.43529412 0.51372549
0.86666667 0.46666667 0.50980392
0.94901961 0.46666667 0.52156863
0.79607843 0.47450980 0.49803922
0.80392157 0.47843137 0.50196078
0.83137255 0.50588235 0.51372549
0.87450980 0.52156863 0.50980392
0.94901961 0.50980392 0.52549020
0.81568627 0.56078431 0.48235294
0.83137255 0.58039216 0.49019608
0.85490196 0.61176471 0.49803922
0.87843137 0.61960784 0.50196078
0.94901961 0.58039216 0.52549020
0.78823529 0.67843137 0.45490196
0.80392157 0.68235294 0.45490196
0.83529412 0.69019608 0.46274510
0.88627451 0.70588235 0.47843137
0.95686275 0.71372549 0.49019608
0.82745098 0.82352941 0.51764706
0.83137255 0.82352941 0.51372549
0.84705882 0.83529412 0.50980392
0.90196078 0.84313725 0.50588235
0.96470588 0.85490196 0.63921569
0.87058824 0.58431373 0.72941176
0.87058824 0.58823529 0.72941176
0.88627451 0.60784314 0.73333333
0.90196078 0.63529412 0.73725490
0.93333333 0.65882353 0.73333333
0.87843137 0.63137255 0.72941176
0.87843137 0.63529412 0.72941176
0.89019608 0.64705882 0.72941176
0.90588235 0.67058824 0.73725490
0.93333333 0.68627451 0.73725490
0.89019608 0.70980392 0.72549020
0.89019608 0.70980392 0.72549020
0.89803922 0.72156863 0.73333333
0.90980392 0.73333333 0.74117647
0.93333333 0.73725490 0.74117647
0.87450980 0.74901961 0.72941176
0.88235294 0.75686275 0.73333333
0.90588235 0.77254902 0.73725490
0.91764706 0.79215686 0.74509804
0.93725490 0.80000000 0.75294118
0.87058824 0.83921569 0.74509804
0.87450980 0.84313725 0.74901961
0.88627451 0.84313725 0.75294118
0.90980392 0.84705882 0.76078431
0.95686275 0.86274510 0.78431373
