core/profiles/src/main/assets/luts/polaroid_px-680_cold.cube
# Source: RawTherapee Film Simulation Collection (HaldCLUT.zip)
# Converted from: HaldCLUT/Color/Polaroid/Polaroid PX-680 Cold 3.png
TITLE "polaroid_px-680_cold"
LUT_3D_SIZE 7
DOMAIN_MIN 0.0 0.0 0.0
DOMAIN_MAX 1.0 1.0 1.0
0.16862745 0.21176471 0.24705882
0.16862745 0.21176471 0.24705882
0.17254902 0.21176471 0.24705882
0.36078431 0.20392157 0.24705882
0.71372549 0.21568627 0.23137255
0.89411765 0.33725490 0.22745098
0.97254902 0.47450980 0.28235294
0.17254902 0.21568627 0.25098039
0.17254902 0.21568627 0.25098039
0.18431373 0.21568627 0.25098039
0.40392157 0.22745098 0.24313725
0.71764706 0.27843137 0.21960784
0.88235294 0.37647059 0.21176471
0.96470588 0.49803922 0.28235294
0.14901961 0.23921569 0.24705882
0.15686275 0.24313725 0.24705882
0.21960784 0.27058824 0.24313725
0.47058824 0.34509804 0.21960784
0.71372549 0.39215686 0.20000000
0.87058824 0.46274510 0.20000000
0.94901961 0.54901961 0.28627451
0.00000000 0.41176471 0.22745098
0.00000000 0.42352941 0.22745098
0.15686275 0.45882353 0.22352941
0.45098039 0.51372549 0.20000000
0.70196078 0.57647059 0.18039216
0.83921569 0.58039216 0.20392157
0.92941176 0.61960784 0.28627451
0.00000000 0.62352941 0.23137255
0.00000000 0.62352941 0.23921569
0.00000000 0.62745098 0.24705882
0.41176471 0.65882353 0.25490196
0.64313725 0.69411765 0.28235294
0.81568627 0.73333333 0.33333333
0.90196078 0.74901961 0.39607843
0.00000000 0.75294118 0.33725490
0.08627451 0.74901961 0.33333333
0.28235294 0.75294118 0.35294118
0.46274510 0.76078431 0.38431373
0.62745098 0.78431373 0.41960784
0.76862745 0.81176471 0.46274510
0.88627451 0.85490196 0.52549020
0.55686275 0.87843137 0.52941176
0.56078431 0.87058824 0.52549020
0.60000000 0.87843137 0.53725490
0.65882353 0.88235294 0.56078431
0.73725490 0.89411765 0.58431373
0.81176471 0.90588235 0.61176471
0.88235294 0.92549020 0.66274510
0.16862745 0.21176471 0.24705882
0.16862745 0.21176471 0.25098039
0.18039216 0.21176471 0.25098039
0.38039216 0.20000000 0.24705882
0.72941176 0.22745098 0.24705882
0.89411765 0.36078431 0.27058824
0.96470588 0.50980392 0.36078431
0.16862745 0.21176471 0.25098039
0.16862745 0.21176471 0.25098039
0.19607843 0.21568627 0.25098039
0.43921569 0.22745098 0.24313725
0.74117647 0.28627451 0.23921569
0.89019608 0.40000000 0.27058824
0.95686275 0.53333333 0.36470588
0.14117647 0.25098039 0.25098039
0.14509804 0.25490196 0.24705882
0.23529412 0.28235294 0.24313725
0.50980392 0.34901961 0.23529412
0.74117647 0.40000000 0.22745098
0.87450980 0.48235294 0.26666667
0.94509804 0.58039216 0.36470588
0.00000000 0.44705882 0.24313725
0.00000000 0.45490196 0.24313725
0.16862745 0.48627451 0.24705882
0.48627451 0.54117647 0.24313725
0.71764706 0.58823529 0.23921569
0.84705882 0.58823529 0.26666667
0.92549020 0.63921569 0.35294118
0.00000000 0.63921569 0.27058824
0.00000000 0.63921569 0.27450980
0.13725490 0.64705882 0.29411765
0.44313725 0.67450980 0.30980392
0.65882353 0.70588235 0.34117647
0.81960784 0.74117647 0.38823529
0.90588235 0.75686275 0.43529412
0.16862745 0.76078431 0.37254902
0.21568627 0.75686275 0.37254902
0.34117647 0.76078431 0.38823529
0.49803922 0.77254902 0.41960784
0.64313725 0.78823529 0.45098039
0.77647059 0.81568627 0.49019608
0.88627451 0.85490196 0.54509804
0.56862745 0.87843137 0.53725490
0.57254902 0.87450980 0.53725490
0.61176471 0.88235294 0.54901961
0.67058824 0.88627451 0.57254902
0.74117647 0.89411765 0.59215686
0.81568627 0.90980392 0.62352941
0.88235294 0.92941176 0.67058824
0.16470588 0.21176471 0.25882353
0.16470588 0.21176471 0.25882353
0.19215686 0.21176471 0.25882353
0.39215686 0.18039216 0.29803922
0.74509804 0.09411765 0.33333333
0.89411765 0.38431373 0.40000000
0.93725490 0.60392157 0.50196078
0.16078431 0.21568627 0.26666667
0.17254902 0.21568627 0.26666667
0.21960784 0.22352941 0.27450980
0.46666667 0.19607843 0.31764706
0.76862745 0.23137255 0.34509804
0.87450980 0.49411765 0.43921569
0.93333333 0.61568627 0.50196078
0.11372549 0.27058824 0.29019608
0.13725490 0.28235294 0.29803922
0.29803922 0.31764706 0.32549020
0.56470588 0.37647059 0.34901961
0.75294118 0.45882353 0.38431373
0.85882353 0.55294118 0.43529412
0.92941176 0.64313725 0.49411765
0.00000000 0.46666667 0.32549020
0.10980392 0.48627451 0.33725490
0.27058824 0.51764706 0.34509804
0.53333333 0.56470588 0.36470588
0.72941176 0.59215686 0.37647059
0.84705882 0.61176471 0.40784314
0.91764706 0.67843137 0.47450980
0.15294118 0.65490196 0.38431373
0.18039216 0.65490196 0.38039216
0.30588235 0.65882353 0.38039216
0.49803922 0.68235294 0.41176471
0.68235294 0.71372549 0.43921569
0.81960784 0.74509804 0.47058824
0.90588235 0.76078431 0.49411765
0.30980392 0.76078431 0.43137255
0.32156863 0.76078431 0.42745098
0.41176471 0.76078431 0.43921569
0.53333333 0.76862745 0.47058824
0.66274510 0.79215686 0.49803922
0.78431373 0.81960784 0.52941176
0.88627451 0.85882353 0.57254902
0.56862745 0.88235294 0.55294118
0.57647059 0.87843137 0.54901961
0.61568627 0.88235294 0.56078431
0.67058824 0.88627451 0.58039216
0.74117647 0.89803922 0.60784314
0.81960784 0.90980392 0.63529412
0.88235294 0.92941176 0.68627451
0.07843137 0.21568627 0.37254902
0.16078431 0.20784314 0.38039216
0.32549020 0.20784314 0.39607843
0.51764706 0.27450980 0.43921569
0.71764706 0.24313725 0.47843137
0.87843137 0.38431373 0.51372549
0.94117647 0.57254902 0.55294118
0.10196078 0.21960784 0.40000000
0.18431373 0.21960784 0.41176471
0.36862745 0.25098039 0.43529412
0.55686275 0.34901961 0.46666667
0.72941176 0.33333333 0.49411765
0.87058824 0.46274510 0.52549020
0.93725490 0.60784314 0.56470588
0.00000000 0.34117647 0.43137255
0.01960784 0.34509804 0.44705882
0.38431373 0.37647059 0.47450980
0.59215686 0.49411765 0.49803922
0.73725490 0.49019608 0.51372549
0.85098039 0.58823529 0.54509804
0.91764706 0.68627451 0.58823529
0.00000000 0.49411765 0.44313725
0.06666667 0.50588235 0.44705882
0.36078431 0.54117647 0.47450980
0.60392157 0.59215686 0.51372549
0.73725490 0.63529412 0.53333333
0.83137255 0.68627451 0.56078431
0.90588235 0.73333333 0.58823529
0.21568627 0.64705882 0.45882353
0.30196078 0.65098039 0.46666667
0.45882353 0.66666667 0.49019608
0.58431373 0.69411765 0.51372549
0.71372549 0.72549020 0.54117647
0.81960784 0.74509804 0.54901961
0.90588235 0.77254902 0.56862745
0.44705882 0.76078431 0.50980392
0.47450980 0.76078431 0.51372549
0.51372549 0.76470588 0.51372549
0.58039216 0.77647059 0.52549020
0.68627451 0.79607843 0.55294118
0.79607843 0.82352941 0.58039216
0.89019608 0.85882353 0.61176471
0.58823529 0.87843137 0.58431373
0.59607843 0.87843137 0.58431373
0.61176471 0.88235294 0.58039216
0.67058824 0.88627451 0.60000000
0.74117647 0.89803922 0.62745098
0.81960784 0.91372549 0.65882353
0.88627451 0.92941176 0.70588235
0.14901961 0.22352941 0.56470588
0.28235294 0.22352941 0.57254902
0.48627451 0.26666667 0.58431373
0.67058824 0.44705882 0.59215686
0.75294118 0.55686275 0.60000000
0.83137255 0.54117647 0.60392157
0.91764706 0.60784314 0.62745098
0.19607843 0.26274510 0.58039216
0.30588235 0.27843137 0.58431373
0.50588235 0.34509804 0.59607843
0.67843137 0.50588235 0.60000000
0.75686275 0.59607843 0.60784314
0.83137255 0.58039216 0.61176471
0.91764706 0.63529412 0.63529412
0.16470588 0.40784314 0.58039216
0.28235294 0.41176471 0.58431373
0.49803922 0.46274510 0.59607843
0.68235294 0.58431373 0.60392157
0.75294118 0.65882353 0.61568627
0.82352941 0.64313725 0.61960784
0.90980392 0.68627451 0.64313725
0.00000000 0.54117647 0.56078431
0.14901961 0.54901961 0.56470588
0.38823529 0.56862745 0.57647059
0.65098039 0.63137255 0.60000000
0.74901961 0.70588235 0.61960784
0.82352941 0.69803922 0.62745098
0.90980392 0.74509804 0.65490196
0.26666667 0.66666667 0.56078431
0.32549020 0.66666667 0.56078431
0.45882353 0.67843137 0.56862745
0.61568627 0.70196078 0.58823529
0.74509804 0.74117647 0.62352941
0.83137255 0.77647059 0.64313725
0.90196078 0.81176471 0.67058824
0.36078431 0.74901961 0.54117647
0.39607843 0.74509804 0.54117647
0.49411765 0.75294118 0.55686275
0.62745098 0.77647059 0.58431373
0.71372549 0.80000000 0.61176471
0.81176471 0.83529412 0.63921569
0.89803922 0.85882353 0.65882353
0.57647059 0.87843137 0.61960784
0.58823529 0.87450980 0.61960784
0.62745098 0.88235294 0.62745098
0.67843137 0.89019608 0.63529412
0.74117647 0.90196078 0.65490196
0.81960784 0.91372549 0.69019608
0.89019608 0.93333333 0.74117647
0.45882353 0.37254902 0.69411765
0.51764706 0.40000000 0.69411765
0.63137255 0.47843137 0.69411765
0.74509804 0.60000000 0.69411765
0.80784314 0.70196078 0.69019608
0.84705882 0.73725490 0.70196078
0.88627451 0.71764706 0.70196078
0.47450980 0.43137255 0.69411765
0.52549020 0.45882353 0.69019608
0.63921569 0.52549020 0.69411765
0.74901961 0.62352941 0.69411765
0.81176471 0.71764706 0.69411765
0.84705882 0.75294118 0.70588235
0.88627451 0.72941176 0.70196078
0.45490196 0.51764706 0.68627451
0.51372549 0.53725490 0.68627451
0.62745098 0.58823529 0.69019608
0.74117647 0.66274510 0.69411765
0.81176471 0.74117647 0.70196078
0.84313725 0.77254902 0.70980392
0.88627451 0.75294118 0.70980392
0.34901961 0.60000000 0.66274510
0.42745098 0.61176471 0.66666667
0.57647059 0.63921569 0.67450980
0.70588235 0.69019608 0.68627451
0.80392157 0.76078431 0.70196078
0.84313725 0.80000000 0.71764706
0.89019608 0.78823529 0.72156863
0.33725490 0.69411765 0.65098039
0.38039216 0.69411765 0.65098039
0.47450980 0.69803922 0.65490196
0.60392157 0.71372549 0.66274510
0.77254902 0.77254902 0.70196078
0.84705882 0.83137255 0.72941176
0.89411765 0.83137255 0.73725490
0.41568627 0.77254902 0.63921569
0.43529412 0.76862745 0.63529412
0.51372549 0.77254902 0.64313725
0.61568627 0.78431373 0.65490196
0.72156863 0.80392157 0.67450980
0.83921569 0.85098039 0.72549020
0.89803922 0.87843137 0.75294118
0.47058824 0.87450980 0.65490196
0.48627451 0.87450980 0.65490196
0.54117647 0.87843137 0.65882353
0.62745098 0.88627451 0.67450980
0.72941176 0.89803922 0.69803922
0.81960784 0.91372549 0.73333333
0.89411765 0.93725490 0.78823529
0.71372549 0.67843137 0.80000000
0.72941176 0.68235294 0.79607843
0.76862745 0.70980392 0.79607843
0.81568627 0.74901961 0.79607843
0.85098039 0.79215686 0.78823529
0.87843137 0.83921569 0.78823529
0.89411765 0.85098039 0.79215686
0.71372549 0.69411765 0.80000000
0.72941176 0.69803922 0.79607843
0.76862745 0.72156863 0.79607843
0.81176471 0.75686275 0.79215686
0.85098039 0.79607843 0.79215686
0.87843137 0.84313725 0.78823529
0.89411765 0.85490196 0.79215686
0.69411765 0.70980392 0.79607843
0.71372549 0.71764706 0.79607843
0.75294118 0.73725490 0.79607843
0.80784314 0.76862745 0.79607843
0.85098039 0.81176471 0.79607843
0.87843137 0.85490196 0.79607843
0.89411765 0.86666667 0.80000000
0.65490196 0.74509804 0.79607843
0.67450980 0.74901961 0.79607843
0.70980392 0.74901961 0.79607843
0.78431373 0.78039216 0.80000000
0.84313725 0.81960784 0.79607843
0.87843137 0.86666667 0.80000000
0.89411765 0.88235294 0.80392157
0.52549020 0.79215686 0.79215686
0.55294118 0.78823529 0.78823529
0.62745098 0.78823529 0.79215686
0.72941176 0.80000000 0.80000000
0.81568627 0.82745098 0.80392157
0.87450980 0.87450980 0.80784314
0.89803922 0.90196078 0.81960784
0.55294118 0.85490196 0.78823529
0.56470588 0.85490196 0.79215686
0.59607843 0.85490196 0.79215686
0.64705882 0.85098039 0.79215686
0.72549020 0.85098039 0.80392157
0.85882353 0.88235294 0.81568627
0.89803922 0.91764706 0.82745098
0.60392157 0.92549020 0.80784314
0.60784314 0.92549020 0.80784314
0.63529412 0.92941176 0.81176471
0.67843137 0.92549020 0.81176471
0.74117647 0.92941176 0.81960784
0.81960784 0.93333333 0.83137255
0.90588235 0.94509804 0.85098039
