core/profiles/src/main/assets/luts/polaroid_time_zero_expired.cube
# Source: RawTherapee Film Simulation Collection (HaldCLUT.zip)
# Converted from: HaldCLUT/Color/Polaroid/Polaroid Time Zero (Expired) 4.png
TITLE "polaroid_time_zero_expired"
LUT_3D_SIZE 7
DOMAIN_MIN 0.0 0.0 0.0
DOMAIN_MAX 1.0 1.0 1.0
0.61568627 0.34901961 0.13333333
0.61568627 0.34901961 0.13333333
0.63529412 0.34509804 0.12941176
0.68235294 0.34509804 0.12941176
0.75294118 0.34901961 0.12941176
0.84705882 0.36078431 0.13333333
0.94117647 0.38431373 0.13725490
0.61960784 0.36078431 0.13333333
0.62352941 0.36078431 0.13333333
0.64705882 0.36078431 0.12549020
0.69411765 0.36078431 0.12549020
0.76078431 0.36862745 0.12549020
0.85098039 0.37647059 0.12549020
0.94117647 0.40784314 0.13333333
0.63137255 0.40392157 0.11372549
0.64313725 0.40392157 0.10980392
0.67058824 0.40392157 0.11764706
0.71372549 0.41176471 0.11372549
0.77647059 0.41960784 0.10980392
0.85882353 0.43529412 0.10980392
0.94117647 0.46274510 0.11764706
0.65490196 0.48627451 0.06666667
0.67058824 0.49019608 0.06274510
0.70196078 0.49411765 0.05882353
0.74901961 0.49803922 0.07843137
0.80784314 0.51372549 0.09411765
0.87058824 0.52549020 0.07450980
0.94117647 0.54901961 0.08627451
0.69411765 0.59607843 0.00000000
0.70588235 0.59607843 0.00000000
0.72941176 0.60000000 0.00000000
0.78039216 0.60784314 0.00000000
0.83921569 0.62352941 0.03529412
0.89803922 0.64313725 0.13725490
0.94901961 0.66274510 0.14509804
0.73725490 0.71372549 0.00000000
0.74509804 0.70980392 0.00000000
0.76862745 0.71372549 0.00000000
0.81176471 0.71764706 0.00000000
0.86274510 0.72941176 0.00000000
0.91372549 0.74509804 0.16862745
0.95294118 0.76862745 0.32549020
0.81960784 0.83137255 0.00392157
0.81960784 0.82745098 0.00000000
0.83921569 0.83137255 0.00000000
0.86666667 0.83529412 0.00000000
0.90588235 0.83921569 0.16078431
0.94117647 0.83921569 0.31372549
0.97254902 0.84705882 0.45882353
0.61568627 0.34901961 0.13725490
0.61960784 0.34901961 0.13725490
0.64313725 0.34901961 0.14509804
0.69019608 0.35294118 0.14509804
0.76470588 0.35294118 0.14901961
0.85490196 0.36078431 0.14901961
0.94509804 0.38823529 0.16470588
0.61960784 0.35686275 0.13725490
0.62745098 0.36078431 0.14117647
0.65098039 0.36078431 0.14117647
0.70196078 0.36470588 0.14117647
0.76862745 0.36862745 0.14117647
0.85882353 0.38039216 0.14509804
0.94509804 0.40784314 0.15686275
0.63529412 0.40392157 0.13333333
0.64313725 0.40392157 0.12549020
0.67058824 0.40784314 0.12941176
0.72156863 0.41568627 0.13333333
0.78431373 0.42352941 0.12941176
0.86666667 0.43529412 0.13333333
0.94509804 0.46666667 0.14509804
0.65882353 0.49411765 0.09803922
0.67058824 0.49411765 0.09019608
0.70588235 0.50196078 0.08235294
0.75686275 0.50980392 0.10588235
0.81568627 0.51764706 0.12156863
0.87450980 0.52941176 0.10588235
0.94509804 0.55294118 0.12156863
0.69411765 0.60000000 0.00000000
0.70196078 0.60000000 0.00000000
0.73333333 0.60784314 0.00000000
0.78431373 0.61176471 0.00000000
0.84313725 0.62745098 0.09411765
0.89803922 0.64705882 0.16862745
0.94901961 0.66666667 0.17647059
0.74117647 0.71764706 0.00000000
0.74901961 0.71764706 0.00000000
0.76862745 0.71764706 0.00000000
0.81568627 0.72549020 0.00000000
0.86274510 0.73333333 0.02745098
0.91764706 0.74901961 0.20784314
0.95294118 0.76862745 0.34509804
0.81960784 0.83137255 0.10588235
0.81960784 0.82745098 0.09019608
0.83921569 0.83137255 0.05882353
0.86666667 0.83529412 0.00000000
0.90588235 0.83529412 0.18431373
0.94509804 0.84313725 0.33333333
0.97254902 0.85098039 0.47450980
0.62745098 0.34901961 0.17254902
0.63137255 0.34901961 0.17254902
0.65098039 0.35294118 0.18039216
0.70196078 0.35294118 0.19607843
0.77254902 0.36078431 0.20784314
0.85882353 0.37254902 0.21176471
0.94509804 0.40784314 0.22352941
0.64313725 0.36470588 0.17647059
0.64705882 0.36862745 0.18039216
0.66274510 0.37254902 0.18039216
0.70980392 0.36862745 0.19607843
0.78039216 0.38039216 0.20392157
0.86274510 0.39607843 0.20392157
0.94901961 0.41568627 0.21176471
0.64705882 0.40392157 0.17254902
0.65490196 0.40784314 0.17647059
0.68235294 0.41568627 0.17647059
0.73333333 0.41960784 0.18039216
0.80000000 0.42745098 0.18431373
0.87450980 0.43921569 0.18823529
0.95294118 0.47058824 0.20784314
0.65882353 0.49019608 0.15686275
0.67058824 0.49411765 0.15686275
0.70588235 0.50196078 0.15294118
0.76470588 0.51372549 0.17254902
0.81960784 0.52156863 0.17647059
0.87843137 0.52941176 0.17254902
0.94901961 0.55294118 0.19607843
0.70196078 0.60784314 0.14117647
0.70980392 0.60784314 0.13333333
0.73333333 0.60784314 0.11372549
0.78823529 0.61568627 0.11764706
0.84705882 0.63137255 0.18431373
0.89803922 0.65098039 0.23137255
0.95294118 0.66666667 0.22745098
0.74117647 0.71764706 0.10588235
0.74901961 0.71764706 0.09803922
0.76862745 0.71764706 0.07058824
0.80784314 0.72156863 0.01176471
0.86274510 0.73333333 0.15294118
0.91372549 0.74901961 0.27058824
0.95294118 0.77254902 0.38039216
0.81960784 0.83137255 0.21568627
0.82352941 0.82745098 0.20784314
0.83921569 0.83137255 0.19607843
0.86274510 0.83137255 0.16862745
0.90196078 0.83921569 0.23137255
0.94117647 0.84313725 0.36470588
0.97254902 0.85098039 0.49803922
0.67058824 0.35294118 0.26666667
0.67843137 0.35686275 0.27058824
0.69411765 0.36078431 0.28235294
0.73333333 0.37254902 0.28627451
0.78431373 0.36862745 0.28627451
0.86274510 0.37647059 0.32156863
0.94509804 0.41568627 0.33725490
0.69019608 0.38039216 0.27058824
0.69411765 0.38039216 0.27450980
0.70980392 0.38431373 0.28235294
0.74117647 0.39215686 0.28627451
0.79215686 0.38431373 0.28627451
0.87058824 0.40000000 0.31764706
0.94901961 0.43921569 0.33333333
0.70196078 0.41960784 0.27450980
0.71372549 0.43137255 0.27450980
0.73333333 0.44313725 0.27843137
0.75686275 0.45098039 0.28235294
0.80784314 0.43529412 0.29019608
0.87843137 0.45490196 0.30196078
0.94901961 0.49411765 0.31764706
0.69411765 0.49803922 0.25098039
0.70196078 0.49803922 0.25098039
0.72941176 0.50588235 0.25490196
0.77254902 0.51764706 0.26274510
0.82352941 0.52156863 0.26666667
0.89019608 0.53333333 0.27450980
0.95294118 0.55686275 0.29411765
0.71764706 0.60000000 0.24705882
0.72156863 0.60392157 0.24705882
0.74117647 0.60784314 0.24313725
0.78823529 0.62352941 0.24705882
0.85098039 0.63921569 0.29019608
0.89803922 0.64705882 0.29803922
0.95294118 0.66274510 0.29803922
0.75294118 0.72156863 0.25882353
0.76078431 0.71764706 0.26274510
0.78039216 0.72156863 0.25490196
0.80784314 0.72549020 0.23137255
0.86274510 0.73333333 0.25490196
0.91372549 0.74901961 0.35294118
0.95294118 0.77254902 0.42745098
0.81568627 0.82745098 0.33725490
0.82352941 0.83137255 0.33333333
0.83529412 0.83137255 0.32156863
0.85882353 0.83529412 0.30588235
0.89411765 0.83921569 0.29019608
0.93725490 0.84313725 0.41176471
0.96862745 0.85098039 0.53725490
0.73725490 0.37254902 0.41568627
0.74509804 0.37647059 0.41960784
0.76078431 0.38431373 0.42745098
0.78823529 0.40392157 0.43921569
0.82352941 0.41568627 0.43137255
0.87450980 0.41176471 0.41176471
0.94901961 0.42745098 0.47058824
0.75294118 0.41176471 0.41960784
0.75686275 0.41176471 0.42352941
0.77254902 0.42352941 0.43137255
0.79607843 0.43529412 0.43921569
0.82745098 0.44705882 0.43137255
0.87843137 0.43529412 0.41568627
0.94901961 0.44705882 0.47450980
0.77647059 0.47843137 0.41176471
0.78039216 0.48235294 0.41176471
0.79215686 0.49019608 0.41960784
0.81176471 0.50588235 0.43137255
0.83921569 0.51372549 0.42745098
0.88627451 0.49019608 0.41960784
0.94901961 0.50196078 0.46274510
0.76078431 0.52156863 0.40392157
0.77254902 0.52941176 0.40392157
0.80392157 0.54901961 0.40392157
0.82745098 0.57647059 0.40784314
0.84705882 0.58039216 0.41568627
0.89019608 0.54901961 0.41960784
0.95294118 0.57647059 0.43921569
0.76078431 0.61960784 0.38039216
0.76470588 0.61960784 0.37647059
0.78431373 0.62352941 0.38039216
0.81568627 0.62745098 0.38431373
0.85098039 0.63921569 0.39607843
0.90196078 0.64313725 0.39607843
0.95686275 0.66274510 0.41568627
0.78039216 0.71372549 0.38039216
0.78039216 0.70980392 0.37647059
0.79215686 0.71764706 0.38039216
0.81568627 0.72941176 0.38039216
0.85490196 0.73725490 0.38039216
0.91372549 0.75686275 0.45098039
0.95294118 0.77254902 0.47843137
0.81176471 0.83137255 0.43921569
0.81176471 0.82745098 0.43529412
0.83137255 0.83137255 0.44705882
0.85490196 0.83529412 0.45098039
0.88627451 0.84313725 0.43137255
0.92941176 0.84705882 0.47450980
0.96862745 0.85490196 0.60000000
0.81176471 0.44313725 0.58431373
0.81568627 0.44705882 0.58431373
0.82352941 0.45882353 0.58823529
0.84313725 0.48235294 0.59607843
0.86274510 0.50980392 0.60000000
0.89803922 0.52549020 0.58823529
0.93725490 0.51764706 0.56470588
0.81960784 0.48235294 0.58039216
0.82352941 0.48627451 0.58039216
0.83529412 0.49803922 0.58823529
0.85098039 0.51764706 0.59215686
0.87058824 0.54117647 0.60000000
0.90196078 0.55294118 0.59215686
0.93725490 0.53725490 0.56470588
0.83921569 0.55686275 0.57647059
0.84313725 0.56078431 0.57647059
0.85098039 0.56862745 0.58039216
0.86274510 0.58039216 0.58823529
0.87843137 0.60000000 0.60000000
0.90196078 0.60000000 0.58823529
0.94117647 0.58039216 0.57254902
0.84705882 0.61176471 0.56862745
0.85098039 0.61960784 0.56862745
0.86274510 0.63529412 0.57254902
0.87450980 0.64705882 0.58039216
0.88627451 0.65882353 0.59215686
0.90588235 0.66274510 0.58823529
0.94509804 0.63137255 0.58431373
0.82745098 0.66274510 0.56470588
0.83529412 0.66666667 0.56470588
0.84705882 0.67058824 0.56862745
0.87450980 0.68627451 0.57254902
0.89411765 0.71372549 0.58823529
0.90980392 0.71764706 0.59215686
0.94901961 0.68627451 0.60000000
0.81960784 0.74117647 0.54509804
0.81960784 0.73725490 0.54117647
0.83529412 0.74117647 0.54509804
0.85490196 0.74509804 0.54901961
0.87450980 0.75294118 0.55686275
0.90588235 0.76078431 0.57254902
0.94901961 0.76470588 0.57254902
0.84705882 0.81960784 0.58039216
0.85098039 0.82352941 0.58431373
0.85098039 0.82352941 0.58431373
0.86274510 0.83137255 0.59215686
0.87450980 0.83921569 0.58823529
0.91372549 0.84705882 0.58823529
0.96078431 0.85490196 0.67843137
0.87058824 0.58431373 0.72941176
0.87058824 0.58431373 0.72941176
0.87843137 0.59607843 0.72941176
0.88627451 0.60784314 0.73333333
0.89411765 0.62352941 0.73333333
0.90980392 0.64705882 0.73725490
0.93333333 0.65882353 0.73333333
0.87843137 0.61176471 0.72941176
0.87450980 0.61176471 0.72941176
0.88235294 0.61960784 0.72941176
0.88627451 0.62745098 0.73333333
0.89803922 0.64313725 0.73333333
0.90980392 0.66274510 0.73725490
0.92941176 0.67058824 0.73333333
0.88235294 0.65882353 0.72549020
0.88235294 0.65882353 0.72549020
0.88627451 0.66666667 0.72941176
0.89411765 0.67058824 0.72941176
0.90196078 0.68235294 0.73725490
0.91372549 0.69803922 0.74117647
0.93333333 0.70196078 0.73725490
0.89019608 0.70980392 0.72549020
0.89411765 0.71372549 0.72941176
0.89411765 0.71372549 0.72549020
0.89803922 0.72156863 0.73333333
0.90588235 0.72549020 0.73725490
0.91764706 0.73725490 0.74509804
0.93333333 0.73725490 0.74117647
0.89019608 0.73725490 0.72941176
0.89411765 0.73725490 0.72941176
0.89803922 0.74509804 0.72941176
0.90588235 0.76078431 0.73333333
0.90980392 0.76862745 0.73725490
0.91764706 0.77647059 0.74509804
0.93333333 0.78039216 0.75294118
0.87058824 0.78431373 0.73333333
0.87450980 0.78431373 0.73725490
0.88235294 0.78823529 0.73725490
0.89019608 0.78823529 0.74117647
0.91372549 0.80000000 0.74901961
0.92941176 0.81568627 0.75686275
0.94117647 0.81960784 0.76078431
0.87058824 0.83921569 0.74509804
0.87058824 0.84313725 0.74509804
0.87843137 0.84705882 0.75294118
0.88627451 0.84313725 0.75294118
0.90196078 0.84705882 0.76078431
0.92549020 0.85098039 0.76862745
0.95686275 0.86274510 0.78431373
