core/profiles/src/main/assets/luts/polaroid_px-680_cold.cube
# Source: RawTherapee Film Simulation Collection (HaldCLUT.zip)
# Converted from: HaldCLUT/Color/Polaroid/Polaroid PX-680 Cold 3.png
TITLE "polaroid_px-680_cold"
LUT_3D_SIZE 5
DOMAIN_MIN 0.0 0.0 0.0
DOMAIN_MAX 1.0 1.0 1.0
0.16862745 0.21176471 0.24705882
0.16862745 0.21176471 0.25098039
0.36078431 0.20392157 0.24705882
0.81960784 0.27058824 0.22352941
0.97254902 0.47450980 0.28235294
0.16470588 0.21176471 0.24705882
0.17254902 0.21568627 0.24705882
0.43921569 0.26666667 0.23529412
0.81176471 0.37254902 0.20000000
0.95686275 0.51764706 0.28627451
0.00000000 0.41176471 0.22745098
0.00000000 0.43529412 0.22745098
0.45098039 0.51372549 0.20000000
0.78039216 0.58039216 0.18823529
0.92941176 0.61960784 0.28627451
0.00000000 0.69411765 0.27058824
0.00000000 0.69019608 0.27843137
0.41960784 0.71372549 0.31372549
0.70588235 0.75294118 0.36862745
0.89019608 0.80784314 0.46274510
0.55686275 0.87843137 0.52941176
0.57647059 0.87450980 0.52941176
0.65882353 0.88235294 0.56078431
0.77647059 0.90196078 0.59607843
0.88235294 0.92549020 0.66274510
0.16862745 0.21176471 0.25098039
0.16862745 0.21176471 0.25098039
0.39215686 0.18039216 0.26666667
0.83529412 0.31764706 0.32156863
0.95294118 0.55294118 0.43137255
0.16470588 0.21568627 0.25098039
0.18431373 0.22352941 0.25490196
0.51764706 0.27450980 0.27450980
0.82745098 0.41176471 0.31764706
0.94509804 0.58823529 0.43137255
0.00000000 0.46666667 0.28627451
0.00784314 0.48235294 0.27843137
0.50196078 0.54901961 0.29019608
0.79607843 0.58823529 0.30980392
0.92156863 0.65490196 0.41176471
0.00000000 0.70980392 0.34509804
0.18823529 0.70980392 0.35686275
0.47450980 0.72549020 0.39215686
0.72549020 0.76470588 0.44705882
0.89411765 0.81568627 0.50980392
0.56862745 0.87843137 0.54509804
0.58823529 0.87843137 0.54509804
0.67058824 0.88627451 0.57647059
0.78039216 0.90196078 0.61176471
0.88235294 0.92549020 0.67843137
0.07843137 0.21568627 0.37254902
0.23921569 0.20784314 0.38823529
0.51764706 0.27450980 0.43921569
0.81568627 0.28627451 0.49803922
0.94117647 0.57254902 0.55294118
0.00392157 0.26666667 0.42352941
0.26274510 0.27450980 0.45098039
0.57647059 0.41960784 0.48235294
0.80784314 0.45098039 0.51372549
0.93333333 0.63921569 0.57254902
0.00000000 0.49411765 0.44313725
0.22745098 0.52549020 0.46274510
0.60392157 0.59215686 0.51372549
0.78823529 0.66274510 0.54901961
0.90588235 0.73333333 0.58823529
0.34901961 0.70588235 0.48235294
0.44705882 0.71372549 0.49803922
0.57647059 0.73333333 0.51764706
0.75294118 0.77647059 0.55686275
0.89803922 0.81568627 0.58431373
0.58823529 0.87843137 0.58431373
0.60000000 0.87843137 0.58039216
0.67058824 0.88627451 0.60000000
0.78039216 0.90588235 0.64313725
0.88627451 0.92941176 0.70588235
0.30980392 0.26274510 0.63921569
0.47843137 0.30980392 0.64705882
0.70980392 0.52156863 0.64313725
0.80392157 0.66666667 0.65098039
0.90196078 0.66666667 0.66666667
0.32156863 0.38039216 0.63921569
0.48627451 0.43137255 0.64313725
0.71372549 0.59607843 0.65098039
0.80784314 0.70588235 0.65882353
0.89803922 0.69803922 0.67450980
0.04313725 0.56470588 0.60784314
0.36470588 0.58039216 0.61960784
0.67843137 0.65882353 0.64313725
0.80000000 0.75686275 0.66666667
0.89803922 0.75294118 0.68235294
0.34901961 0.71764706 0.59607843
0.43529412 0.72156863 0.60000000
0.61960784 0.74117647 0.61960784
0.79607843 0.80000000 0.67450980
0.90196078 0.84705882 0.71372549
0.53333333 0.87450980 0.63529412
0.56470588 0.87450980 0.63529412
0.67058824 0.89019608 0.65882353
0.78039216 0.90588235 0.69019608
0.89411765 0.93725490 0.76470588
0.71372549 0.67843137 0.80000000
0.74509804 0.69411765 0.79607843
0.81568627 0.74901961 0.79607843
0.86666667 0.81568627 0.78823529
0.89411765 0.85098039 0.79215686
0.70588235 0.70196078 0.80000000
0.74117647 0.71764706 0.79607843
0.81176471 0.76078431 0.79215686
0.87058824 0.82745098 0.79607843
0.89411765 0.85882353 0.79607843
0.65490196 0.74509804 0.79607843
0.68627451 0.74901961 0.79607843
0.78431373 0.78039216 0.80000000
0.86274510 0.84705882 0.80000000
0.89411765 0.88235294 0.80392157
0.53333333 0.82352941 0.78823529
0.55686275 0.81960784 0.78823529
0.65490196 0.81960784 0.79607843
0.83921569 0.85490196 0.80784314
0.89411765 0.90980392 0.81960784
0.60392157 0.92549020 0.80784314
0.61960784 0.92549020 0.80784314
0.67843137 0.92549020 0.81176471
0.77647059 0.92941176 0.82352941
0.90588235 0.94509804 0.85098039
